;FLAVOR:Marlin
;TIME:950
;Filament used: 1.10494m
;Layer height: 0.2
;MINX:82.2
;MINY:82.2
;MINZ:0.3
;MAXX:117.8
;MAXY:117.8
;MAXZ:19.9
;Generated with Cura_SteamEngine 4.6.1
M140 S65
M105
M190 S65
M104 S210
M105
M109 S210
M82 ;absolute extrusion mode
G28 ;Home
G12 P1 S1 T3
G29 ; Auto Bed Leveling
G1 Z15.0 F6000 ;Move the platform down 15mm
;Prime the extruder
G92 E0
G1 F200 E3
G92 E0
G12 P1 S1 T3
G92 E0
G92 E0
G1 F1500 E-6.5
;LAYER_COUNT:99
;LAYER:0
M107
G0 F3600 X84.623 Y84.349 Z0.3
;TYPE:SKIRT
G1 F1500 E0
G1 F1800 X85.222 Y83.834 E0.03941
G1 X85.87 Y83.383 E0.0788
G1 X86.561 Y82.999 E0.11824
G1 X87.286 Y82.687 E0.15762
G1 X88.039 Y82.45 E0.197
G1 X88.813 Y82.291 E0.23642
G1 X89.598 Y82.21 E0.27579
G1 X110 Y82.2 E1.29365
G1 X110.789 Y82.24 E1.33307
G1 X111.569 Y82.359 E1.37243
G1 X112.334 Y82.557 E1.41186
G1 X113.074 Y82.831 E1.45122
G1 X113.783 Y83.179 E1.49063
G1 X114.454 Y83.597 E1.53007
G1 X115.078 Y84.08 E1.56944
G1 X115.651 Y84.623 E1.60882
G1 X116.166 Y85.222 E1.64823
G1 X116.617 Y85.87 E1.68762
G1 X117.001 Y86.561 E1.72706
G1 X117.313 Y87.286 E1.76644
G1 X117.55 Y88.039 E1.80582
G1 X117.709 Y88.813 E1.84524
G1 X117.79 Y89.598 E1.88461
G1 X117.8 Y110 E2.90247
G1 X117.76 Y110.789 E2.94189
G1 X117.641 Y111.569 E2.98125
G1 X117.443 Y112.334 E3.02068
G1 X117.169 Y113.074 E3.06004
G1 X116.821 Y113.783 E3.09945
G1 X116.403 Y114.454 E3.13889
G1 X115.92 Y115.078 E3.17826
G1 X115.377 Y115.651 E3.21764
G1 X114.778 Y116.166 E3.25705
G1 X114.13 Y116.617 E3.29644
G1 X113.439 Y117.001 E3.33588
G1 X112.714 Y117.313 E3.37526
G1 X111.961 Y117.55 E3.41464
G1 X111.187 Y117.709 E3.45406
G1 X110.402 Y117.79 E3.49343
G1 X90 Y117.8 E4.51129
G1 X89.211 Y117.76 E4.55071
G1 X88.431 Y117.641 E4.59007
G1 X87.666 Y117.443 E4.6295
G1 X86.926 Y117.169 E4.66886
G1 X86.217 Y116.821 E4.70827
G1 X85.546 Y116.403 E4.74771
G1 X84.922 Y115.92 E4.78708
G1 X84.349 Y115.377 E4.82646
G1 X83.834 Y114.778 E4.86587
G1 X83.383 Y114.13 E4.90526
G1 X82.999 Y113.439 E4.9447
G1 X82.687 Y112.714 E4.98408
G1 X82.45 Y111.961 E5.02346
G1 X82.291 Y111.187 E5.06288
G1 X82.21 Y110.402 E5.10225
G1 X82.2 Y90 E6.12011
G1 X82.24 Y89.211 E6.15953
G1 X82.359 Y88.431 E6.19889
G1 X82.557 Y87.666 E6.23832
G1 X82.831 Y86.926 E6.27768
G1 X83.179 Y86.217 E6.31709
G1 X83.597 Y85.546 E6.35653
G1 X84.08 Y84.922 E6.3959
G1 X84.623 Y84.349 E6.43528
G0 F3600 X85.016 Y84.53
G1 F1800 X85.611 Y84.042 E6.47367
G1 X86.253 Y83.619 E6.51203
G1 X86.936 Y83.264 E6.55043
G1 X87.651 Y82.983 E6.58876
G1 X88.393 Y82.777 E6.62718
G1 X89.151 Y82.649 E6.66553
G1 X90 Y82.6 E6.70796
G1 X110 Y82.6 E7.70576
G1 X110.768 Y82.64 E7.74413
G1 X111.528 Y82.759 E7.78251
G1 X112.271 Y82.957 E7.82087
G1 X112.99 Y83.231 E7.85926
G1 X113.676 Y83.578 E7.89761
G1 X114.323 Y83.994 E7.93599
G1 X114.923 Y84.475 E7.97435
G1 X115.47 Y85.016 E8.01273
G1 X115.958 Y85.611 E8.05113
G1 X116.381 Y86.253 E8.08948
G1 X116.736 Y86.936 E8.12789
G1 X117.017 Y87.651 E8.16621
G1 X117.223 Y88.393 E8.20463
G1 X117.351 Y89.151 E8.24298
G1 X117.4 Y90 E8.28541
G1 X117.4 Y110 E9.28322
G1 X117.36 Y110.768 E9.32158
G1 X117.241 Y111.528 E9.35996
G1 X117.043 Y112.271 E9.39832
G1 X116.769 Y112.99 E9.43671
G1 X116.422 Y113.676 E9.47507
G1 X116.006 Y114.323 E9.51344
G1 X115.525 Y114.923 E9.55181
G1 X114.984 Y115.47 E9.59019
G1 X114.389 Y115.958 E9.62858
G1 X113.747 Y116.381 E9.66694
G1 X113.064 Y116.736 E9.70534
G1 X112.349 Y117.017 E9.74367
G1 X111.607 Y117.223 E9.78209
G1 X110.849 Y117.351 E9.82044
G1 X110 Y117.4 E9.86287
G1 X90 Y117.4 E10.86067
G1 X89.232 Y117.36 E10.89904
G1 X88.472 Y117.241 E10.93742
G1 X87.729 Y117.043 E10.97578
G1 X87.01 Y116.769 E11.01417
G1 X86.324 Y116.422 E11.05252
G1 X85.677 Y116.006 E11.0909
G1 X85.077 Y115.525 E11.12926
G1 X84.53 Y114.984 E11.16764
G1 X84.042 Y114.389 E11.20604
G1 X83.619 Y113.747 E11.24439
G1 X83.264 Y113.064 E11.2828
G1 X82.983 Y112.349 E11.32112
G1 X82.777 Y111.607 E11.35954
G1 X82.649 Y110.849 E11.39789
G1 X82.6 Y110 E11.44032
G1 X82.6 Y90 E12.43813
G1 X82.64 Y89.232 E12.47649
G1 X82.759 Y88.472 E12.51487
G1 X82.957 Y87.729 E12.55323
G1 X83.231 Y87.01 E12.59162
G1 X83.578 Y86.324 E12.62997
G1 X83.994 Y85.677 E12.66835
G1 X84.475 Y85.077 E12.70672
G1 X85.016 Y84.53 E12.7451
G0 F3600 X85.408 Y84.716
G1 F1800 X85.998 Y84.257 E12.78239
G1 X86.634 Y83.862 E12.81974
G1 X87.308 Y83.538 E12.85705
G1 X88.013 Y83.288 E12.89437
G1 X88.741 Y83.114 E12.93172
G1 X89.483 Y83.019 E12.96904
G1 X90 Y83 E12.99485
G1 X110 Y83 E13.99265
G1 X110.747 Y83.04 E14.02997
G1 X111.485 Y83.159 E14.06727
G1 X112.207 Y83.357 E14.10462
G1 X112.903 Y83.63 E14.14192
G1 X113.566 Y83.977 E14.17925
G1 X114.189 Y84.392 E14.2166
G1 X114.763 Y84.871 E14.25389
G1 X115.284 Y85.408 E14.29122
G1 X115.743 Y85.998 E14.32852
G1 X116.138 Y86.634 E14.36587
G1 X116.462 Y87.308 E14.40318
G1 X116.712 Y88.013 E14.4405
G1 X116.886 Y88.741 E14.47784
G1 X116.981 Y89.483 E14.51516
G1 X117 Y90 E14.54097
G1 X117 Y110 E15.53877
G1 X116.96 Y110.747 E15.5761
G1 X116.841 Y111.485 E15.61339
G1 X116.643 Y112.207 E15.65074
G1 X116.37 Y112.903 E15.68804
G1 X116.023 Y113.566 E15.72537
G1 X115.608 Y114.189 E15.76272
G1 X115.129 Y114.763 E15.80002
G1 X114.592 Y115.284 E15.83735
G1 X114.002 Y115.743 E15.87464
G1 X113.366 Y116.138 E15.91199
G1 X112.692 Y116.462 E15.9493
G1 X111.987 Y116.712 E15.98662
G1 X111.259 Y116.886 E16.02396
G1 X110.517 Y116.981 E16.06128
G1 X110 Y117 E16.08709
G1 X90 Y117 E17.0849
G1 X89.253 Y116.96 E17.12222
G1 X88.515 Y116.841 E17.15951
G1 X87.793 Y116.643 E17.19687
G1 X87.097 Y116.37 E17.23416
G1 X86.434 Y116.023 E17.2715
G1 X85.811 Y115.608 E17.30884
G1 X85.237 Y115.129 E17.34614
G1 X84.716 Y114.592 E17.38347
G1 X84.257 Y114.002 E17.42076
G1 X83.862 Y113.366 E17.45812
G1 X83.538 Y112.692 E17.49543
G1 X83.288 Y111.987 E17.53274
G1 X83.114 Y111.259 E17.57009
G1 X83.019 Y110.517 E17.60741
G1 X83 Y110 E17.63322
G1 X83 Y90 E18.63102
G1 X83.04 Y89.253 E18.66834
G1 X83.159 Y88.515 E18.70564
G1 X83.357 Y87.793 E18.74299
G1 X83.63 Y87.097 E18.78029
G1 X83.977 Y86.434 E18.81762
G1 X84.392 Y85.811 E18.85497
G1 X84.871 Y85.237 E18.89227
G1 X85.408 Y84.716 E18.92959
G0 F3600 X85.265 Y85.402
G1 F1800 X85.799 Y84.909 E18.96585
G1 X86.384 Y84.479 E19.00208
G1 X87.013 Y84.115 E19.03833
G1 X87.678 Y83.822 E19.07459
G1 X88.371 Y83.604 E19.11083
G1 X89.083 Y83.464 E19.14703
G1 X90 Y83.4 E19.19289
G1 X110 Y83.4 E20.1907
G1 X110.725 Y83.44 E20.22692
G1 X111.442 Y83.559 E20.26318
G1 X112.141 Y83.757 E20.29943
G1 X112.814 Y84.03 E20.33566
G1 X113.453 Y84.375 E20.37189
G1 X114.05 Y84.789 E20.40814
G1 X114.598 Y85.265 E20.44435
G1 X115.091 Y85.799 E20.48061
G1 X115.521 Y86.384 E20.51683
G1 X115.885 Y87.013 E20.55309
G1 X116.178 Y87.678 E20.58934
G1 X116.396 Y88.371 E20.62559
G1 X116.536 Y89.083 E20.66179
G1 X116.6 Y90 E20.70765
G1 X116.6 Y110 E21.70545
G1 X116.56 Y110.725 E21.74168
G1 X116.441 Y111.442 E21.77794
G1 X116.243 Y112.141 E21.81419
G1 X115.97 Y112.814 E21.85042
G1 X115.625 Y113.453 E21.88665
G1 X115.211 Y114.05 E21.92289
G1 X114.735 Y114.598 E21.95911
G1 X114.201 Y115.091 E21.99537
G1 X113.616 Y115.521 E22.03159
G1 X112.987 Y115.885 E22.06785
G1 X112.322 Y116.178 E22.1041
G1 X111.629 Y116.396 E22.14034
G1 X110.917 Y116.536 E22.17655
G1 X110 Y116.6 E22.22241
G1 X90 Y116.6 E23.22021
G1 X89.275 Y116.56 E23.25644
G1 X88.558 Y116.441 E23.2927
G1 X87.859 Y116.243 E23.32894
G1 X87.186 Y115.97 E23.36518
G1 X86.547 Y115.625 E23.40141
G1 X85.95 Y115.211 E23.43765
G1 X85.402 Y114.735 E23.47386
G1 X84.909 Y114.201 E23.51012
G1 X84.479 Y113.616 E23.54635
G1 X84.115 Y112.987 E23.5826
G1 X83.822 Y112.322 E23.61886
G1 X83.604 Y111.629 E23.6551
G1 X83.464 Y110.917 E23.6913
G1 X83.4 Y110 E23.73716
G1 X83.4 Y90 E24.73497
G1 X83.44 Y89.275 E24.77119
G1 X83.559 Y88.558 E24.80745
G1 X83.757 Y87.859 E24.8437
G1 X84.03 Y87.186 E24.87993
G1 X84.375 Y86.547 E24.91616
G1 X84.789 Y85.95 E24.95241
G1 X85.265 Y85.402 E24.98862
G0 F3600 X85.659 Y85.573
G1 F1800 X86.189 Y85.109 E25.02376
G1 X86.768 Y84.709 E25.05887
G1 X87.389 Y84.377 E25.094
G1 X88.043 Y84.117 E25.12912
G1 X88.723 Y83.933 E25.16426
G1 X89.419 Y83.827 E25.19939
G1 X90 Y83.8 E25.2284
G1 X110 Y83.8 E26.22621
G1 X110.703 Y83.84 E26.26134
G1 X111.397 Y83.959 E26.29647
G1 X112.072 Y84.157 E26.33156
G1 X112.721 Y84.429 E26.36667
G1 X113.335 Y84.774 E26.40181
G1 X113.906 Y85.185 E26.43691
G1 X114.427 Y85.659 E26.47205
G1 X114.891 Y86.189 E26.50719
G1 X115.291 Y86.768 E26.5423
G1 X115.623 Y87.389 E26.57743
G1 X115.883 Y88.043 E26.61254
G1 X116.067 Y88.723 E26.64769
G1 X116.173 Y89.419 E26.68281
G1 X116.2 Y90 E26.71183
G1 X116.2 Y110 E27.70963
G1 X116.16 Y110.703 E27.74476
G1 X116.041 Y111.397 E27.77989
G1 X115.843 Y112.072 E27.81499
G1 X115.571 Y112.721 E27.85009
G1 X115.226 Y113.335 E27.88523
G1 X114.815 Y113.906 E27.92033
G1 X114.341 Y114.427 E27.95547
G1 X113.811 Y114.891 E27.99061
G1 X113.232 Y115.291 E28.02572
G1 X112.611 Y115.623 E28.06085
G1 X111.957 Y115.883 E28.09597
G1 X111.277 Y116.067 E28.13111
G1 X110.581 Y116.173 E28.16624
G1 X110 Y116.2 E28.19525
G1 X90 Y116.2 E29.19306
G1 X89.297 Y116.16 E29.22819
G1 X88.603 Y116.041 E29.26332
G1 X87.928 Y115.843 E29.29841
G1 X87.279 Y115.571 E29.33352
G1 X86.665 Y115.226 E29.36866
G1 X86.094 Y114.815 E29.40376
G1 X85.573 Y114.341 E29.4389
G1 X85.109 Y113.811 E29.47404
G1 X84.709 Y113.232 E29.50915
G1 X84.377 Y112.611 E29.54428
G1 X84.117 Y111.957 E29.57939
G1 X83.933 Y111.277 E29.61454
G1 X83.827 Y110.581 E29.64966
G1 X83.8 Y110 E29.67868
G1 X83.8 Y90 E30.67648
G1 X83.84 Y89.297 E30.71161
G1 X83.959 Y88.603 E30.74674
G1 X84.157 Y87.928 E30.78184
G1 X84.429 Y87.279 E30.81694
G1 X84.774 Y86.665 E30.85208
G1 X85.185 Y86.094 E30.88718
G1 X85.659 Y85.573 E30.92232
G0 F3600 X86.053 Y85.751
G1 F1800 X86.578 Y85.317 E30.9563
G1 X87.15 Y84.948 E30.99026
G1 X87.762 Y84.649 E31.02425
G1 X88.404 Y84.424 E31.05819
G1 X89.069 Y84.275 E31.09219
G1 X90 Y84.2 E31.13878
G1 X110 Y84.2 E32.13659
G1 X110.68 Y84.24 E32.17057
G1 X111.35 Y84.359 E32.20452
G1 X112.002 Y84.556 E32.2385
G1 X112.626 Y84.828 E32.27246
G1 X113.214 Y85.172 E32.30645
G1 X113.758 Y85.582 E32.34043
G1 X114.249 Y86.053 E32.37438
G1 X114.683 Y86.578 E32.40836
G1 X115.052 Y87.15 E32.44232
G1 X115.351 Y87.762 E32.4763
G1 X115.576 Y88.404 E32.51024
G1 X115.725 Y89.069 E32.54424
G1 X115.8 Y90 E32.59084
G1 X115.8 Y110 E33.58865
G1 X115.76 Y110.68 E33.62263
G1 X115.641 Y111.35 E33.65658
G1 X115.444 Y112.002 E33.69056
G1 X115.172 Y112.626 E33.72452
G1 X114.828 Y113.214 E33.75851
G1 X114.418 Y113.758 E33.79249
G1 X113.947 Y114.249 E33.82644
G1 X113.422 Y114.683 E33.86042
G1 X112.85 Y115.052 E33.89438
G1 X112.238 Y115.351 E33.92836
G1 X111.596 Y115.576 E33.9623
G1 X110.931 Y115.725 E33.9963
G1 X110 Y115.8 E34.0429
G1 X90 Y115.8 E35.0407
G1 X89.32 Y115.76 E35.07469
G1 X88.65 Y115.641 E35.10864
G1 X87.998 Y115.444 E35.14262
G1 X87.374 Y115.172 E35.17658
G1 X86.786 Y114.828 E35.21057
G1 X86.242 Y114.418 E35.24455
G1 X85.751 Y113.947 E35.2785
G1 X85.317 Y113.422 E35.31248
G1 X84.948 Y112.85 E35.34644
G1 X84.649 Y112.238 E35.38042
G1 X84.424 Y111.596 E35.41436
G1 X84.275 Y110.931 E35.44836
G1 X84.2 Y110 E35.49496
G1 X84.2 Y90 E36.49276
G1 X84.24 Y89.32 E36.52675
G1 X84.359 Y88.65 E36.5607
G1 X84.556 Y87.998 E36.59468
G1 X84.828 Y87.374 E36.62864
G1 X85.172 Y86.786 E36.66262
G1 X85.582 Y86.242 E36.69661
G1 X86.053 Y85.751 E36.73055
G0 F3600 X86.445 Y85.935
G1 F1800 X86.965 Y85.534 E36.76331
G1 X87.529 Y85.198 E36.79607
G1 X88.131 Y84.934 E36.82886
G1 X88.76 Y84.744 E36.86164
G1 X89.407 Y84.633 E36.89439
G1 X90 Y84.6 E36.92403
G1 X110 Y84.6 E37.92183
G1 X110.656 Y84.64 E37.95462
G1 X111.302 Y84.759 E37.98739
G1 X111.929 Y84.956 E38.02018
G1 X112.527 Y85.228 E38.05295
G1 X113.088 Y85.57 E38.08573
G1 X113.603 Y85.978 E38.11851
G1 X114.065 Y86.445 E38.15129
G1 X114.466 Y86.965 E38.18405
G1 X114.802 Y87.529 E38.2168
G1 X115.066 Y88.131 E38.24959
G1 X115.256 Y88.76 E38.28238
G1 X115.367 Y89.407 E38.31513
G1 X115.4 Y90 E38.34476
G1 X115.4 Y110 E39.34256
G1 X115.36 Y110.656 E39.37535
G1 X115.241 Y111.302 E39.40812
G1 X115.044 Y111.929 E39.44091
G1 X114.772 Y112.527 E39.47369
G1 X114.43 Y113.088 E39.50646
G1 X114.022 Y113.603 E39.53924
G1 X113.555 Y114.065 E39.57202
G1 X113.035 Y114.466 E39.60478
G1 X112.471 Y114.802 E39.63753
G1 X111.869 Y115.066 E39.67033
G1 X111.24 Y115.256 E39.70311
G1 X110.593 Y115.367 E39.73586
G1 X110 Y115.4 E39.76549
G1 X90 Y115.4 E40.76329
G1 X89.344 Y115.36 E40.79608
G1 X88.698 Y115.241 E40.82885
G1 X88.071 Y115.044 E40.86164
G1 X87.473 Y114.772 E40.89442
G1 X86.912 Y114.43 E40.9272
G1 X86.397 Y114.022 E40.95998
G1 X85.935 Y113.555 E40.99275
G1 X85.534 Y113.035 E41.02551
G1 X85.198 Y112.471 E41.05826
G1 X84.934 Y111.869 E41.09106
G1 X84.744 Y111.24 E41.12384
G1 X84.633 Y110.593 E41.15659
G1 X84.6 Y110 E41.18622
G1 X84.6 Y90 E42.18403
G1 X84.64 Y89.344 E42.21681
G1 X84.759 Y88.698 E42.24959
G1 X84.956 Y88.071 E42.28237
G1 X85.228 Y87.473 E42.31515
G1 X85.57 Y86.912 E42.34793
G1 X85.978 Y86.397 E42.38071
G1 X86.445 Y85.935 E42.41348
G0 F3600 X86.373 Y86.559
G1 F1800 X86.836 Y86.129 E42.44501
G1 X87.35 Y85.76 E42.47657
G1 X87.906 Y85.46 E42.50809
G1 X88.495 Y85.232 E42.5396
G1 X89.109 Y85.08 E42.57116
G1 X90 Y85 E42.61579
G1 X110 Y85 E43.6136
G1 X110.631 Y85.04 E43.64514
G1 X111.252 Y85.159 E43.67668
G1 X111.852 Y85.356 E43.70819
G1 X112.424 Y85.627 E43.73977
G1 X112.956 Y85.967 E43.77127
G1 X113.441 Y86.373 E43.80282
G1 X113.871 Y86.836 E43.83435
G1 X114.24 Y87.35 E43.86592
G1 X114.54 Y87.906 E43.89743
G1 X114.768 Y88.495 E43.92894
G1 X114.92 Y89.109 E43.9605
G1 X115 Y90 E44.00513
G1 X115 Y110 E45.00294
G1 X114.96 Y110.631 E45.03448
G1 X114.841 Y111.252 E45.06603
G1 X114.644 Y111.852 E45.09753
G1 X114.373 Y112.424 E45.12911
G1 X114.033 Y112.956 E45.16061
G1 X113.627 Y113.441 E45.19217
G1 X113.164 Y113.871 E45.22369
G1 X112.65 Y114.24 E45.25526
G1 X112.094 Y114.54 E45.28678
G1 X111.505 Y114.768 E45.31829
G1 X110.891 Y114.92 E45.34984
G1 X110 Y115 E45.39448
G1 X90 Y115 E46.39228
G1 X89.369 Y114.96 E46.42382
G1 X88.748 Y114.841 E46.45537
G1 X88.148 Y114.644 E46.48688
G1 X87.576 Y114.373 E46.51845
G1 X87.044 Y114.033 E46.54995
G1 X86.559 Y113.627 E46.58151
G1 X86.129 Y113.164 E46.61303
G1 X85.76 Y112.65 E46.6446
G1 X85.46 Y112.094 E46.67612
G1 X85.232 Y111.505 E46.70763
G1 X85.08 Y110.891 E46.73919
G1 X85 Y110 E46.78382
G1 X85 Y90 E47.78162
G1 X85.04 Y89.369 E47.81317
G1 X85.159 Y88.748 E47.84471
G1 X85.356 Y88.148 E47.87622
G1 X85.627 Y87.576 E47.9078
G1 X85.967 Y87.044 E47.93929
G1 X86.373 Y86.559 E47.97085
G0 F3600 X86.767 Y86.728
G1 F1800 X87.225 Y86.331 E48.00109
G1 X87.732 Y85.998 E48.03135
G1 X88.278 Y85.734 E48.06161
G1 X88.854 Y85.545 E48.09185
G1 X89.45 Y85.433 E48.12211
G1 X90 Y85.4 E48.1496
G1 X110 Y85.4 E49.1474
G1 X110.605 Y85.44 E49.17765
G1 X111.199 Y85.559 E49.20787
G1 X111.773 Y85.755 E49.23813
G1 X112.316 Y86.026 E49.26841
G1 X112.819 Y86.365 E49.29867
G1 X113.272 Y86.767 E49.32889
G1 X113.669 Y87.225 E49.35913
G1 X114.002 Y87.732 E49.38939
G1 X114.266 Y88.278 E49.41965
G1 X114.455 Y88.854 E49.44989
G1 X114.567 Y89.45 E49.48015
G1 X114.6 Y90 E49.50764
G1 X114.6 Y110 E50.50544
G1 X114.56 Y110.605 E50.53569
G1 X114.441 Y111.199 E50.56591
G1 X114.245 Y111.773 E50.59617
G1 X113.974 Y112.316 E50.62645
G1 X113.635 Y112.819 E50.65671
G1 X113.233 Y113.272 E50.68693
G1 X112.775 Y113.669 E50.71717
G1 X112.268 Y114.002 E50.74743
G1 X111.722 Y114.266 E50.77769
G1 X111.146 Y114.455 E50.80793
G1 X110.55 Y114.567 E50.83819
G1 X110 Y114.6 E50.86568
G1 X90 Y114.6 E51.86348
G1 X89.395 Y114.56 E51.89373
G1 X88.801 Y114.441 E51.92395
