;FLAVOR:Marlin
;TIME:3016
;Filament used: 4.32657m
;Layer height: 0.3
;MINX:76.358
;MINY:76.358
;MINZ:0.3
;MAXX:123.642
;MAXY:123.642
;MAXZ:60
;Generated with Cura_SteamEngine 4.8.0
M140 S60
M105
M190 S60
M104 S210
M105
M109 S210
M82 ;absolute extrusion mode
G28 ;Home
G12 P1 S2 T3
G29 ;auto bed leveling
G1 Z15.0 F6000 ;Move the platform down 15mm
;Prime the extruder
G92 E0
G1 F200 E3
G92 E0
G12 P0 S1
G92 E0
G92 E0
G1 F1500 E-6.5
;LAYER_COUNT:200
;LAYER:0
M107
G0 F3600 X83.807 Y82.772 Z0.3
;TYPE:SKIRT
G1 F1500 E0
G1 F1800 X84.339 Y82.287 E0.03592
G1 X85.466 Y81.351 E0.109
G1 X86.038 Y80.918 E0.1448
G1 X87.244 Y80.091 E0.21775
G1 X87.861 Y79.709 E0.25396
G1 X89.138 Y78.998 E0.32688
G1 X89.828 Y78.67 E0.36499
G1 X89.824 Y78.661 E0.36548
G1 X91.116 Y78.089 E0.43597
G1 X91.798 Y77.824 E0.47248
G1 X93.187 Y77.359 E0.54556
G1 X93.871 Y77.165 E0.58103
G1 X95.294 Y76.829 E0.65397
G1 X96.011 Y76.694 E0.69037
G1 X97.463 Y76.492 E0.76351
G1 X98.176 Y76.426 E0.79923
G1 X99.638 Y76.358 E0.87225
G1 X100.362 Y76.358 E0.90837
G1 X101.824 Y76.426 E0.98139
G1 X102.532 Y76.492 E1.01687
G1 X103.984 Y76.693 E1.09
G1 X104.712 Y76.829 E1.12695
G1 X106.135 Y77.166 E1.1999
G1 X106.812 Y77.359 E1.23503
G1 X108.202 Y77.824 E1.30815
G1 X108.874 Y78.084 E1.3441
G1 X110.212 Y78.674 E1.41705
G1 X110.888 Y79.028 E1.45512
G1 X110.894 Y79.018 E1.45571
G1 X112.13 Y79.704 E1.52623
G1 X112.756 Y80.091 E1.56295
G1 X113.962 Y80.918 E1.6359
G1 X114.534 Y81.35 E1.67167
G1 X115.66 Y82.285 E1.74468
G1 X116.192 Y82.771 E1.78063
G1 X117.228 Y83.807 E1.85373
G1 X117.713 Y84.339 E1.88964
G1 X118.649 Y85.466 E1.96273
G1 X119.082 Y86.038 E1.99853
G1 X119.909 Y87.244 E2.07148
G1 X120.291 Y87.861 E2.10768
G1 X121.002 Y89.138 E2.1806
G1 X121.329 Y89.826 E2.21861
G1 X121.338 Y89.822 E2.2191
G1 X121.91 Y91.113 E2.28955
G1 X122.176 Y91.797 E2.32616
G1 X122.641 Y93.186 E2.39924
G1 X122.836 Y93.871 E2.43477
G1 X123.172 Y95.295 E2.50777
G1 X123.305 Y96.009 E2.544
G1 X123.507 Y97.458 E2.61699
G1 X123.567 Y98.219 E2.65507
G1 X123.574 Y98.219 E2.65542
G1 X123.641 Y99.629 E2.72585
G1 X123.642 Y100.361 E2.76237
G1 X123.574 Y101.824 E2.83544
G1 X123.508 Y102.532 E2.87091
G1 X123.307 Y103.984 E2.94404
G1 X123.171 Y104.712 E2.98099
G1 X122.834 Y106.135 E3.05395
G1 X122.641 Y106.812 E3.08907
G1 X122.176 Y108.202 E3.16219
G1 X121.916 Y108.874 E3.19814
G1 X121.326 Y110.212 E3.2711
G1 X120.973 Y110.886 E3.30906
G1 X120.983 Y110.892 E3.30964
G1 X120.298 Y112.127 E3.3801
G1 X119.909 Y112.756 E3.41699
G1 X119.081 Y113.963 E3.49002
G1 X118.65 Y114.534 E3.52571
G1 X117.715 Y115.66 E3.59873
G1 X117.229 Y116.192 E3.63468
G1 X116.193 Y117.228 E3.70777
G1 X115.661 Y117.713 E3.74369
G1 X114.534 Y118.649 E3.81678
G1 X113.962 Y119.082 E3.85257
G1 X112.756 Y119.909 E3.92552
G1 X112.139 Y120.291 E3.96173
G1 X110.862 Y121.002 E4.03465
G1 X110.172 Y121.33 E4.07276
G1 X110.176 Y121.339 E4.07325
G1 X108.884 Y121.911 E4.14375
G1 X108.202 Y122.176 E4.18025
G1 X106.813 Y122.641 E4.25333
G1 X106.129 Y122.835 E4.2888
G1 X104.706 Y123.171 E4.36175
G1 X103.989 Y123.306 E4.39815
G1 X102.537 Y123.508 E4.47128
G1 X101.824 Y123.574 E4.50701
G1 X100.362 Y123.642 E4.58003
G1 X99.638 Y123.642 E4.61615
G1 X98.176 Y123.574 E4.68916
G1 X97.468 Y123.508 E4.72464
G1 X96.016 Y123.307 E4.79777
G1 X95.288 Y123.171 E4.83472
G1 X93.865 Y122.834 E4.90768
G1 X93.188 Y122.641 E4.9428
G1 X91.798 Y122.176 E5.01592
G1 X91.125 Y121.916 E5.05192
G1 X89.785 Y121.325 E5.12498
G1 X89.112 Y120.97 E5.16295
G1 X89.106 Y120.982 E5.16361
G1 X87.87 Y120.296 E5.23414
G1 X87.244 Y119.909 E5.27086
G1 X86.038 Y119.082 E5.34381
G1 X85.466 Y118.649 E5.3796
G1 X84.339 Y117.713 E5.45269
G1 X83.807 Y117.228 E5.48861
G1 X82.771 Y116.192 E5.5617
G1 X82.285 Y115.66 E5.59765
G1 X81.35 Y114.534 E5.67067
G1 X80.919 Y113.963 E5.70636
G1 X80.091 Y112.756 E5.77939
G1 X79.707 Y112.137 E5.81573
G1 X78.997 Y110.861 E5.88858
G1 X78.67 Y110.172 E5.92663
G1 X78.661 Y110.176 E5.92712
G1 X78.089 Y108.884 E5.99762
G1 X77.824 Y108.202 E6.03412
G1 X77.359 Y106.813 E6.1072
G1 X77.165 Y106.129 E6.14267
G1 X76.829 Y104.706 E6.21561
G1 X76.695 Y103.991 E6.25191
G1 X76.493 Y102.542 E6.3249
G1 X76.433 Y101.781 E6.36298
G1 X76.426 Y101.781 E6.36333
G1 X76.359 Y100.371 E6.43375
G1 X76.358 Y99.639 E6.47027
G1 X76.426 Y98.176 E6.54334
G1 X76.492 Y97.468 E6.57882
G1 X76.693 Y96.016 E6.65195
G1 X76.829 Y95.288 E6.6889
G1 X77.166 Y93.865 E6.76185
G1 X77.359 Y93.188 E6.79698
G1 X77.824 Y91.798 E6.8701
G1 X78.084 Y91.126 E6.90605
G1 X78.674 Y89.788 E6.979
G1 X79.027 Y89.114 E7.01696
G1 X79.017 Y89.108 E7.01754
G1 X79.702 Y87.873 E7.088
G1 X80.091 Y87.244 E7.1249
G1 X80.919 Y86.037 E7.19792
G1 X81.35 Y85.466 E7.23361
G1 X82.285 Y84.34 E7.30663
G1 X82.771 Y83.808 E7.34258
G1 X83.807 Y82.772 E7.41568
G0 F3600 X84.089 Y83.054
G1 F1800 X84.594 Y82.594 E7.44976
G1 X85.721 Y81.658 E7.52285
G1 X86.264 Y81.248 E7.55679
G1 X87.47 Y80.421 E7.62975
G1 X88.055 Y80.059 E7.66407
G1 X89.332 Y79.348 E7.73699
G1 X89.99 Y79.035 E7.77334
G1 X89.986 Y79.026 E7.77383
G1 X91.278 Y78.454 E7.84433
G1 X91.925 Y78.204 E7.87893
G1 X93.314 Y77.739 E7.95201
G1 X93.962 Y77.554 E7.98563
G1 X95.385 Y77.218 E8.05857
G1 X96.066 Y77.091 E8.09314
G1 X97.518 Y76.889 E8.16627
G1 X98.194 Y76.826 E8.20015
G1 X99.656 Y76.758 E8.27316
G1 X100.344 Y76.758 E8.30749
G1 X101.806 Y76.826 E8.38051
G1 X102.477 Y76.888 E8.41413
G1 X103.929 Y77.089 E8.48726
G1 X104.619 Y77.218 E8.52228
G1 X106.042 Y77.555 E8.59524
G1 X106.685 Y77.738 E8.62859
G1 X108.075 Y78.203 E8.70171
G1 X108.713 Y78.45 E8.73585
G1 X110.051 Y79.04 E8.8088
G1 X110.695 Y79.378 E8.84509
G1 X110.7 Y79.368 E8.84564
G1 X111.936 Y80.054 E8.91617
G1 X112.53 Y80.421 E8.951
G1 X113.736 Y81.248 E9.02396
G1 X114.278 Y81.658 E9.05786
G1 X115.404 Y82.593 E9.13088
G1 X115.91 Y83.053 E9.165
G1 X116.946 Y84.089 E9.2381
G1 X117.406 Y84.594 E9.27218
G1 X118.342 Y85.721 E9.34526
G1 X118.752 Y86.264 E9.37921
G1 X119.579 Y87.47 E9.45217
G1 X119.941 Y88.055 E9.48649
G1 X120.652 Y89.332 E9.55941
G1 X120.964 Y89.988 E9.59565
G1 X120.973 Y89.984 E9.59614
G1 X121.545 Y91.275 E9.66659
G1 X121.796 Y91.924 E9.7013
G1 X122.261 Y93.313 E9.77438
G1 X122.446 Y93.963 E9.8081
G1 X122.782 Y95.387 E9.88109
G1 X122.909 Y96.064 E9.91546
G1 X123.111 Y97.513 E9.98845
G1 X123.168 Y98.238 E10.02473
G1 X123.175 Y98.238 E10.02508
G1 X123.242 Y99.648 E10.0955
G1 X123.242 Y100.343 E10.13017
G1 X123.174 Y101.806 E10.20324
G1 X123.112 Y102.477 E10.23686
G1 X122.911 Y103.929 E10.30999
G1 X122.782 Y104.619 E10.34501
G1 X122.445 Y106.042 E10.41797
G1 X122.262 Y106.685 E10.45132
G1 X121.797 Y108.075 E10.52445
G1 X121.55 Y108.713 E10.55858
G1 X120.96 Y110.051 E10.63154
G1 X120.623 Y110.693 E10.66771
G1 X120.633 Y110.698 E10.66827
G1 X119.948 Y111.933 E10.73873
G1 X119.579 Y112.53 E10.77374
G1 X118.751 Y113.737 E10.84677
G1 X118.342 Y114.278 E10.8806
G1 X117.407 Y115.404 E10.95362
G1 X116.947 Y115.91 E10.98774
G1 X115.911 Y116.946 E11.06083
G1 X115.406 Y117.406 E11.09491
G1 X114.279 Y118.342 E11.168
G1 X113.736 Y118.752 E11.20195
G1 X112.53 Y119.579 E11.2749
G1 X111.945 Y119.941 E11.30922
G1 X110.668 Y120.652 E11.38214
G1 X110.01 Y120.965 E11.4185
G1 X110.014 Y120.974 E11.41899
G1 X108.722 Y121.546 E11.48948
G1 X108.075 Y121.796 E11.52408
G1 X106.686 Y122.261 E11.59716
G1 X106.038 Y122.446 E11.63078
G1 X104.615 Y122.782 E11.70373
G1 X103.934 Y122.909 E11.73829
G1 X102.482 Y123.111 E11.81143
G1 X101.806 Y123.174 E11.8453
G1 X100.344 Y123.242 E11.91832
G1 X99.656 Y123.242 E11.95264
G1 X98.194 Y123.174 E12.02566
G1 X97.523 Y123.112 E12.05928
G1 X96.071 Y122.911 E12.13241
G1 X95.381 Y122.782 E12.16743
G1 X93.958 Y122.445 E12.24039
G1 X93.315 Y122.262 E12.27374
G1 X91.925 Y121.797 E12.34687
G1 X91.287 Y121.55 E12.381
G1 X89.947 Y120.959 E12.45407
G1 X89.306 Y120.621 E12.49022
G1 X89.3 Y120.632 E12.49084
G1 X88.064 Y119.946 E12.56137
G1 X87.47 Y119.579 E12.5962
G1 X86.264 Y118.752 E12.66916
G1 X85.721 Y118.342 E12.7031
G1 X84.594 Y117.406 E12.77619
G1 X84.089 Y116.946 E12.81027
G1 X83.053 Y115.91 E12.88337
G1 X82.593 Y115.404 E12.91749
G1 X81.658 Y114.278 E12.9905
G1 X81.249 Y113.737 E13.02434
G1 X80.421 Y112.53 E13.09737
G1 X80.057 Y111.942 E13.13187
G1 X79.347 Y110.666 E13.20472
G1 X79.035 Y110.01 E13.24096
G1 X79.026 Y110.014 E13.24145
G1 X78.454 Y108.722 E13.31194
G1 X78.204 Y108.075 E13.34655
G1 X77.739 Y106.686 E13.41963
G1 X77.554 Y106.038 E13.45325
G1 X77.218 Y104.615 E13.52619
G1 X77.091 Y103.936 E13.56065
G1 X76.889 Y102.487 E13.63364
G1 X76.832 Y101.762 E13.66993
G1 X76.825 Y101.762 E13.67028
G1 X76.758 Y100.352 E13.7407
G1 X76.758 Y99.657 E13.77537
G1 X76.826 Y98.194 E13.84844
G1 X76.888 Y97.523 E13.88206
G1 X77.089 Y96.071 E13.95519
G1 X77.218 Y95.381 E13.99021
G1 X77.555 Y93.958 E14.06317
G1 X77.738 Y93.315 E14.09652
G1 X78.203 Y91.925 E14.16965
G1 X78.45 Y91.287 E14.20378
G1 X79.04 Y89.949 E14.27674
G1 X79.377 Y89.307 E14.31291
G1 X79.367 Y89.302 E14.31347
G1 X80.052 Y88.067 E14.38393
G1 X80.421 Y87.47 E14.41894
G1 X81.249 Y86.263 E14.49196
G1 X81.658 Y85.722 E14.5258
G1 X82.593 Y84.596 E14.59882
G1 X83.053 Y84.09 E14.63294
G1 X84.089 Y83.054 E14.70603
G0 F3600 X84.372 Y83.337
G1 F1800 X84.85 Y82.902 E14.73828
G1 X85.977 Y81.966 E14.81136
G1 X86.49 Y81.578 E14.84345
G1 X87.696 Y80.751 E14.91641
G1 X88.25 Y80.408 E14.94892
G1 X89.527 Y79.697 E15.02184
G1 X90.151 Y79.4 E15.05631
G1 X90.148 Y79.392 E15.05674
G1 X91.44 Y78.82 E15.12723
G1 X92.052 Y78.583 E15.15998
G1 X93.441 Y78.118 E15.23305
G1 X94.054 Y77.943 E15.26486
G1 X95.477 Y77.607 E15.3378
G1 X96.121 Y77.487 E15.37049
G1 X97.573 Y77.285 E15.44362
G1 X98.213 Y77.226 E15.47569
G1 X99.675 Y77.158 E15.54871
G1 X100.325 Y77.158 E15.58114
G1 X101.787 Y77.226 E15.65415
G1 X102.422 Y77.284 E15.68597
G1 X103.874 Y77.485 E15.7591
G1 X104.527 Y77.607 E15.79224
G1 X105.95 Y77.944 E15.8652
G1 X106.558 Y78.118 E15.89675
G1 X107.948 Y78.583 E15.96987
G1 X108.551 Y78.816 E16.00213
G1 X109.889 Y79.406 E16.07508
G1 X110.501 Y79.727 E16.10956
G1 X110.506 Y79.717 E16.11012
G1 X111.742 Y80.403 E16.18064
G1 X112.304 Y80.751 E16.21362
G1 X113.51 Y81.578 E16.28657
G1 X114.023 Y81.966 E16.31866
G1 X115.149 Y82.901 E16.39168
G1 X115.627 Y83.336 E16.42393
G1 X116.663 Y84.372 E16.49702
G1 X117.098 Y84.85 E16.52927
G1 X118.034 Y85.977 E16.60236
G1 X118.422 Y86.49 E16.63445
G1 X119.249 Y87.696 E16.7074
G1 X119.592 Y88.25 E16.73991
G1 X120.303 Y89.527 E16.81283
G1 X120.599 Y90.149 E16.84719
G1 X120.607 Y90.146 E16.84762
G1 X121.179 Y91.437 E16.91807
G1 X121.417 Y92.051 E16.95092
G1 X121.882 Y93.44 E17.024
G1 X122.057 Y94.054 E17.05585
G1 X122.393 Y95.478 E17.12885
G1 X122.513 Y96.12 E17.16143
G1 X122.715 Y97.569 E17.23442
G1 X122.769 Y98.257 E17.26885
G1 X122.775 Y98.257 E17.26915
G1 X122.842 Y99.667 E17.33957
G1 X122.842 Y100.324 E17.37235
G1 X122.774 Y101.787 E17.44542
G1 X122.716 Y102.422 E17.47723
G1 X122.515 Y103.874 E17.55036
G1 X122.393 Y104.527 E17.58351
G1 X122.056 Y105.95 E17.65646
G1 X121.882 Y106.558 E17.68801
G1 X121.417 Y107.948 E17.76114
G1 X121.184 Y108.551 E17.79339
G1 X120.594 Y109.889 E17.86634
G1 X120.274 Y110.499 E17.90071
G1 X120.283 Y110.504 E17.90122
G1 X119.598 Y111.739 E17.97168
G1 X119.249 Y112.304 E18.00481
G1 X118.421 Y113.511 E18.07784
G1 X118.034 Y114.023 E18.10986
G1 X117.099 Y115.149 E18.18288
G1 X116.664 Y115.627 E18.21512
G1 X115.628 Y116.663 E18.28822
G1 X115.15 Y117.098 E18.32046
G1 X114.023 Y118.034 E18.39355
G1 X113.51 Y118.422 E18.42564
G1 X112.304 Y119.249 E18.4986
G1 X111.75 Y119.592 E18.5311
G1 X110.473 Y120.303 E18.60402
G1 X109.849 Y120.6 E18.6385
G1 X109.852 Y120.608 E18.63893
G1 X108.56 Y121.18 E18.70942
G1 X107.948 Y121.417 E18.74216
G1 X106.559 Y121.882 E18.81524
G1 X105.946 Y122.057 E18.84704
G1 X104.523 Y122.393 E18.91999
G1 X103.879 Y122.513 E18.95267
G1 X102.427 Y122.715 E19.02581
G1 X101.787 Y122.774 E19.05788
G1 X100.325 Y122.842 E19.13089
G1 X99.675 Y122.842 E19.16332
G1 X98.213 Y122.774 E19.23634
G1 X97.578 Y122.716 E19.26815
G1 X96.126 Y122.515 E19.34128
G1 X95.473 Y122.393 E19.37443
G1 X94.05 Y122.056 E19.44738
G1 X93.442 Y121.882 E19.47893
G1 X92.052 Y121.417 E19.55206
G1 X91.448 Y121.184 E19.58436
G1 X90.108 Y120.593 E19.65742
G1 X89.5 Y120.272 E19.69172
G1 X89.494 Y120.283 E19.69235
G1 X88.258 Y119.597 E19.76288
G1 X87.696 Y119.249 E19.79585
G1 X86.49 Y118.422 E19.86881
G1 X85.977 Y118.034 E19.9009
G1 X84.85 Y117.098 E19.97399
G1 X84.372 Y116.663 E20.00623
G1 X83.336 Y115.627 E20.07933
G1 X82.901 Y115.149 E20.11157
G1 X81.966 Y114.023 E20.18459
G1 X81.579 Y113.511 E20.21661
G1 X80.751 Y112.304 E20.28963
G1 X80.406 Y111.748 E20.32228
G1 X79.696 Y110.472 E20.39513
G1 X79.4 Y109.849 E20.42954
G1 X79.392 Y109.852 E20.42997
G1 X78.82 Y108.56 E20.50046
G1 X78.583 Y107.948 E20.5332
G1 X78.118 Y106.559 E20.60628
G1 X77.943 Y105.946 E20.63809
G1 X77.607 Y104.523 E20.71103
G1 X77.487 Y103.88 E20.74367
G1 X77.285 Y102.431 E20.81666
G1 X77.231 Y101.743 E20.85109
G1 X77.225 Y101.743 E20.85138
G1 X77.158 Y100.333 E20.92181
G1 X77.158 Y99.676 E20.95459
G1 X77.226 Y98.213 E21.02766
G1 X77.284 Y97.578 E21.05947
G1 X77.485 Y96.126 E21.1326
G1 X77.607 Y95.473 E21.16574
G1 X77.944 Y94.05 E21.2387
G1 X78.118 Y93.442 E21.27025
G1 X78.583 Y92.052 E21.34337
G1 X78.816 Y91.449 E21.37563
G1 X79.406 Y90.111 E21.44858
G1 X79.726 Y89.501 E21.48295
G1 X79.717 Y89.496 E21.48346
G1 X80.402 Y88.261 E21.55392
G1 X80.751 Y87.696 E21.58705
G1 X81.579 Y86.489 E21.66007
G1 X81.966 Y85.977 E21.69209
G1 X82.901 Y84.851 E21.76511
G1 X83.336 Y84.373 E21.79736
G1 X84.372 Y83.337 E21.87045
G0 F3600 X84.655 Y83.62
G1 F1800 X85.105 Y83.21 E21.90082
G1 X86.232 Y82.274 E21.97391
G1 X86.716 Y81.908 E22.00419
G1 X87.922 Y81.081 E22.07714
G1 X88.444 Y80.758 E22.10777
G1 X89.721 Y80.047 E22.18069
G1 X90.313 Y79.765 E22.2134
G1 X90.31 Y79.758 E22.21378
G1 X91.602 Y79.186 E22.28427
G1 X92.179 Y78.962 E22.31515
G1 X93.568 Y78.497 E22.38823
G1 X94.146 Y78.333 E22.41821
G1 X95.569 Y77.997 E22.49115
G1 X96.177 Y77.883 E22.52201
G1 X97.629 Y77.681 E22.59515
G1 X98.231 Y77.625 E22.62532
G1 X99.693 Y77.557 E22.69833
G1 X100.307 Y77.557 E22.72897
G1 X101.769 Y77.625 E22.80198
G1 X102.367 Y77.68 E22.83195
G1 X103.819 Y77.881 E22.90508
G1 X104.435 Y77.997 E22.93635
G1 X105.858 Y78.334 E23.00931
G1 X106.431 Y78.497 E23.03903
G1 X107.821 Y78.962 E23.11215
G1 X108.39 Y79.182 E23.14259
G1 X109.728 Y79.772 E23.21554
G1 X110.307 Y80.076 E23.24817
G1 X110.312 Y80.067 E23.24868
G1 X111.548 Y80.753 E23.31921
G1 X112.078 Y81.081 E23.3503
G1 X113.284 Y81.908 E23.42326
G1 X113.767 Y82.273 E23.45346
G1 X114.893 Y83.208 E23.52648
G1 X115.344 Y83.619 E23.55692
G1 X116.38 Y84.655 E23.63002
G1 X116.79 Y85.105 E23.66039
G1 X117.726 Y86.232 E23.73348
G1 X118.092 Y86.716 E23.76375
G1 X118.919 Y87.922 E23.83671
G1 X119.242 Y88.444 E23.86733
G1 X119.953 Y89.721 E23.94025
G1 X120.234 Y90.311 E23.97286
G1 X120.241 Y90.308 E23.97324
G1 X120.813 Y91.599 E24.04368
G1 X121.038 Y92.178 E24.07467
G1 X121.503 Y93.567 E24.14775
G1 X121.668 Y94.146 E24.17779
G1 X122.004 Y95.57 E24.25078
G1 X122.117 Y96.175 E24.28149
G1 X122.319 Y97.624 E24.35448
G1 X122.37 Y98.276 E24.38711
G1 X122.376 Y98.276 E24.38741
G1 X122.443 Y99.686 E24.45783
G1 X122.443 Y100.305 E24.48871
G1 X122.375 Y101.768 E24.56178
G1 X122.32 Y102.367 E24.59179
G1 X122.119 Y103.819 E24.66492
G1 X122.003 Y104.435 E24.69619
G1 X121.666 Y105.858 E24.76915
G1 X121.503 Y106.431 E24.79887
G1 X121.038 Y107.821 E24.872
G1 X120.818 Y108.39 E24.90243
G1 X120.228 Y109.728 E24.97539
G1 X119.925 Y110.305 E25.0079
G1 X119.934 Y110.31 E25.00842
G1 X119.249 Y111.545 E25.07887
G1 X118.919 Y112.078 E25.11015
