;FLAVOR:Marlin
;TIME:2678
;Filament used: 3.94214m
;Layer height: 0.3
;MINX:75.864
;MINY:75.864
;MINZ:0.3
;MAXX:124.136
;MAXY:124.136
;MAXZ:63.6
;Generated with Cura_SteamEngine 4.8.0
M140 S60
M105
M190 S60
M104 S210
M105
M109 S210
M82 ;absolute extrusion mode
G28 ;Home
G12 P1 S2 T3
G29 ;auto bed leveling
G1 Z15.0 F6000 ;Move the platform down 15mm
;Prime the extruder
G92 E0
G1 F200 E3
G92 E0
G12 P0 S1
G92 E0
G92 E0
G1 F1500 E-6.5
;LAYER_COUNT:212
;LAYER:0
M107
G0 F3600 X83.474 Y82.406 Z0.3
;TYPE:SKIRT
G1 F1500 E0
G1 F1800 X84.003 Y81.923 E0.03574
G1 X85.164 Y80.958 E0.11106
G1 X85.745 Y80.519 E0.14739
G1 X86.99 Y79.667 E0.22265
G1 X87.604 Y79.287 E0.25868
G1 X88.924 Y78.553 E0.33403
G1 X89.555 Y78.239 E0.36919
G1 X90.934 Y77.628 E0.44444
G1 X91.623 Y77.361 E0.48131
G1 X93.057 Y76.882 E0.55673
G1 X93.733 Y76.689 E0.59181
G1 X95.2 Y76.342 E0.66702
G1 X95.922 Y76.207 E0.70366
G1 X97.419 Y75.999 E0.77906
G1 X98.135 Y75.933 E0.81494
G1 X99.642 Y75.864 E0.8902
G1 X100.355 Y75.864 E0.92577
G1 X101.864 Y75.933 E1.00113
G1 X102.581 Y75.999 E1.03706
G1 X104.078 Y76.207 E1.11246
G1 X104.897 Y76.366 E1.15408
G1 X106.258 Y76.687 E1.22385
G1 X106.946 Y76.882 E1.25952
G1 X108.379 Y77.361 E1.3349
G1 X109.061 Y77.626 E1.37141
G1 X110.44 Y78.236 E1.44664
G1 X111.073 Y78.551 E1.48191
G1 X112.394 Y79.285 E1.55731
G1 X113.017 Y79.67 E1.59384
G1 X114.261 Y80.523 E1.6691
G1 X114.835 Y80.957 E1.705
G1 X115.995 Y81.921 E1.78025
G1 X116.525 Y82.405 E1.81605
G1 X117.594 Y83.474 E1.89148
G1 X118.077 Y84.003 E1.92722
G1 X119.042 Y85.164 E2.00253
G1 X119.481 Y85.745 E2.03886
G1 X120.333 Y86.99 E2.11413
G1 X120.713 Y87.604 E2.15015
G1 X121.447 Y88.924 E2.22551
G1 X121.761 Y89.555 E2.26067
G1 X122.372 Y90.934 E2.33592
G1 X122.639 Y91.621 E2.37269
G1 X123.118 Y93.054 E2.44807
G1 X123.311 Y93.733 E2.48329
G1 X123.658 Y95.201 E2.55855
G1 X123.793 Y95.92 E2.59504
G1 X124.001 Y97.415 E2.67035
G1 X124.067 Y98.134 E2.70637
G1 X124.136 Y99.644 E2.78178
G1 X124.136 Y100.357 E2.81735
G1 X124.067 Y101.865 E2.89267
G1 X124.001 Y102.581 E2.92854
G1 X123.793 Y104.078 E3.00394
G1 X123.634 Y104.897 E3.04557
G1 X123.313 Y106.258 E3.11533
G1 X123.118 Y106.944 E3.15091
G1 X122.64 Y108.375 E3.22618
G1 X122.375 Y109.06 E3.26282
G1 X121.764 Y110.441 E3.33816
G1 X121.45 Y111.072 E3.37333
G1 X120.717 Y112.392 E3.44866
G1 X120.33 Y113.017 E3.48533
G1 X119.476 Y114.262 E3.56065
G1 X119.043 Y114.835 E3.59648
G1 X118.079 Y115.995 E3.67173
G1 X117.595 Y116.525 E3.70754
G1 X116.526 Y117.594 E3.78296
G1 X115.997 Y118.077 E3.8187
G1 X114.836 Y119.042 E3.89402
G1 X114.255 Y119.481 E3.93035
G1 X113.01 Y120.333 E4.00562
G1 X112.396 Y120.713 E4.04164
G1 X111.076 Y121.447 E4.11699
G1 X110.445 Y121.761 E4.15216
G1 X109.066 Y122.372 E4.2274
G1 X108.377 Y122.639 E4.26427
G1 X106.943 Y123.118 E4.3397
G1 X106.267 Y123.311 E4.37477
G1 X104.8 Y123.658 E4.44998
G1 X104.078 Y123.793 E4.48662
G1 X102.581 Y124.001 E4.56203
G1 X101.864 Y124.067 E4.59795
G1 X100.355 Y124.136 E4.67331
G1 X99.642 Y124.136 E4.70888
G1 X98.135 Y124.067 E4.78415
G1 X97.419 Y124.001 E4.82002
G1 X95.922 Y123.793 E4.89542
G1 X95.103 Y123.634 E4.93705
G1 X93.742 Y123.313 E5.00681
G1 X93.054 Y123.118 E5.04249
G1 X91.621 Y122.639 E5.11787
G1 X90.938 Y122.374 E5.15442
G1 X89.557 Y121.763 E5.22976
G1 X88.924 Y121.448 E5.26503
G1 X87.605 Y120.715 E5.34032
G1 X86.983 Y120.33 E5.37681
G1 X85.739 Y119.477 E5.45206
G1 X85.164 Y119.042 E5.48804
G1 X84.003 Y118.077 E5.56335
G1 X83.474 Y117.594 E5.59909
G1 X82.405 Y116.525 E5.67452
G1 X81.921 Y115.995 E5.71032
G1 X80.957 Y114.835 E5.78557
G1 X80.519 Y114.255 E5.82183
G1 X79.667 Y113.01 E5.8971
G1 X79.287 Y112.396 E5.93312
G1 X78.553 Y111.076 E6.00847
G1 X78.239 Y110.445 E6.04364
G1 X77.627 Y109.064 E6.119
G1 X77.359 Y108.374 E6.15593
G1 X76.881 Y106.942 E6.23125
G1 X76.689 Y106.267 E6.26626
G1 X76.342 Y104.8 E6.34147
G1 X76.207 Y104.078 E6.37811
G1 X75.999 Y102.581 E6.45351
G1 X75.933 Y101.865 E6.48939
G1 X75.864 Y100.359 E6.5646
G1 X75.864 Y99.646 E6.60017
G1 X75.933 Y98.136 E6.67558
G1 X75.999 Y97.419 E6.71151
G1 X76.207 Y95.922 E6.78691
G1 X76.366 Y95.103 E6.82853
G1 X76.687 Y93.742 E6.8983
G1 X76.882 Y93.056 E6.93388
G1 X77.36 Y91.625 E7.00915
G1 X77.625 Y90.94 E7.04579
G1 X78.236 Y89.559 E7.12113
G1 X78.55 Y88.928 E7.15629
G1 X79.283 Y87.608 E7.23162
G1 X79.67 Y86.983 E7.2683
G1 X80.524 Y85.738 E7.34362
G1 X80.957 Y85.165 E7.37945
G1 X81.921 Y84.005 E7.4547
G1 X82.405 Y83.475 E7.49051
G1 X83.474 Y82.406 E7.56593
G0 F3600 X83.756 Y82.688
G1 F1800 X84.259 Y82.23 E7.59987
G1 X85.42 Y81.265 E7.67519
G1 X85.971 Y80.849 E7.70963
G1 X87.216 Y79.997 E7.7849
G1 X87.799 Y79.637 E7.81908
G1 X89.119 Y78.903 E7.89443
G1 X89.717 Y78.604 E7.92779
G1 X91.096 Y77.993 E8.00304
G1 X91.75 Y77.74 E8.03802
G1 X93.184 Y77.261 E8.11345
G1 X93.825 Y77.079 E8.1467
G1 X95.292 Y76.732 E8.2219
G1 X95.977 Y76.603 E8.25668
G1 X97.474 Y76.395 E8.33208
G1 X98.154 Y76.333 E8.36615
G1 X99.661 Y76.264 E8.44141
G1 X100.337 Y76.264 E8.47514
G1 X101.846 Y76.333 E8.5505
G1 X102.526 Y76.395 E8.58457
G1 X104.023 Y76.603 E8.65997
G1 X104.8 Y76.754 E8.69946
G1 X106.167 Y77.076 E8.76953
G1 X106.819 Y77.262 E8.80335
G1 X108.252 Y77.741 E8.87873
G1 X108.9 Y77.992 E8.9134
G1 X110.279 Y78.602 E8.98863
G1 X110.879 Y78.9 E9.02205
G1 X112.2 Y79.634 E9.09745
G1 X112.791 Y80 E9.13213
G1 X114.035 Y80.853 E9.20738
G1 X114.58 Y81.265 E9.24147
G1 X115.74 Y82.229 E9.31672
G1 X116.243 Y82.687 E9.35066
G1 X117.312 Y83.756 E9.42608
G1 X117.77 Y84.259 E9.46002
G1 X118.735 Y85.42 E9.53534
G1 X119.151 Y85.971 E9.56978
G1 X120.003 Y87.216 E9.64505
G1 X120.363 Y87.799 E9.67923
G1 X121.097 Y89.119 E9.75458
G1 X121.396 Y89.717 E9.78794
G1 X122.007 Y91.096 E9.86319
G1 X122.259 Y91.748 E9.89806
G1 X122.738 Y93.181 E9.97344
G1 X122.922 Y93.825 E10.00686
G1 X123.269 Y95.293 E10.08211
G1 X123.396 Y95.975 E10.11672
G1 X123.604 Y97.47 E10.19203
G1 X123.667 Y98.152 E10.2262
G1 X123.736 Y99.662 E10.30161
G1 X123.736 Y100.338 E10.33534
G1 X123.667 Y101.846 E10.41065
G1 X123.605 Y102.526 E10.44472
G1 X123.397 Y104.023 E10.52012
G1 X123.246 Y104.8 E10.55961
G1 X122.924 Y106.167 E10.62968
G1 X122.739 Y106.817 E10.66339
G1 X122.261 Y108.248 E10.73866
G1 X122.009 Y108.898 E10.77344
G1 X121.398 Y110.279 E10.84878
G1 X121.1 Y110.878 E10.88216
G1 X120.367 Y112.198 E10.95749
G1 X120 Y112.791 E10.99228
G1 X119.146 Y114.036 E11.0676
G1 X118.735 Y114.58 E11.10162
G1 X117.771 Y115.74 E11.17687
G1 X117.313 Y116.243 E11.21081
G1 X116.244 Y117.312 E11.28623
G1 X115.741 Y117.77 E11.32017
G1 X114.58 Y118.735 E11.39549
G1 X114.029 Y119.151 E11.42993
G1 X112.784 Y120.003 E11.5052
G1 X112.201 Y120.363 E11.53938
G1 X110.881 Y121.097 E11.61473
G1 X110.283 Y121.396 E11.64809
G1 X108.904 Y122.007 E11.72334
G1 X108.25 Y122.26 E11.75832
G1 X106.816 Y122.739 E11.83375
G1 X106.175 Y122.921 E11.86699
G1 X104.708 Y123.268 E11.9422
G1 X104.023 Y123.397 E11.97698
G1 X102.526 Y123.605 E12.05238
G1 X101.846 Y123.667 E12.08645
G1 X100.337 Y123.736 E12.16181
G1 X99.661 Y123.736 E12.19554
G1 X98.154 Y123.667 E12.2708
G1 X97.474 Y123.605 E12.30487
G1 X95.977 Y123.397 E12.38027
G1 X95.2 Y123.246 E12.41976
G1 X93.833 Y122.924 E12.48983
G1 X93.181 Y122.738 E12.52365
G1 X91.748 Y122.259 E12.59903
G1 X91.1 Y122.008 E12.6337
G1 X89.719 Y121.397 E12.70904
G1 X89.118 Y121.098 E12.74253
G1 X87.799 Y120.365 E12.81782
G1 X87.209 Y120 E12.85243
G1 X85.965 Y119.147 E12.92768
G1 X85.42 Y118.735 E12.96177
G1 X84.259 Y117.77 E13.03708
G1 X83.756 Y117.312 E13.07102
G1 X82.687 Y116.243 E13.14645
G1 X82.229 Y115.74 E13.18039
G1 X81.265 Y114.58 E13.25563
G1 X80.849 Y114.029 E13.29008
G1 X79.997 Y112.784 E13.36534
G1 X79.637 Y112.201 E13.39953
G1 X78.903 Y110.881 E13.47488
G1 X78.605 Y110.283 E13.50821
G1 X77.993 Y108.902 E13.58357
G1 X77.739 Y108.247 E13.61862
G1 X77.261 Y106.815 E13.69394
G1 X77.079 Y106.175 E13.72714
G1 X76.732 Y104.708 E13.80235
G1 X76.603 Y104.023 E13.83712
G1 X76.395 Y102.526 E13.91252
G1 X76.333 Y101.847 E13.94654
G1 X76.264 Y100.341 E14.02175
G1 X76.264 Y99.664 E14.05553
G1 X76.333 Y98.154 E14.13094
G1 X76.395 Y97.474 E14.16501
G1 X76.603 Y95.977 E14.24041
G1 X76.754 Y95.2 E14.2799
G1 X77.076 Y93.833 E14.34997
G1 X77.261 Y93.183 E14.38368
G1 X77.739 Y91.752 E14.45895
G1 X77.991 Y91.102 E14.49374
G1 X78.602 Y89.721 E14.56908
G1 X78.9 Y89.122 E14.60245
G1 X79.633 Y87.802 E14.67778
G1 X80 Y87.209 E14.71257
G1 X80.854 Y85.964 E14.7879
G1 X81.265 Y85.42 E14.82191
G1 X82.229 Y84.26 E14.89716
G1 X82.687 Y83.757 E14.9311
G1 X83.756 Y82.688 E15.00652
G0 F3600 X84.039 Y82.971
G1 F1800 X84.515 Y82.538 E15.03862
G1 X85.676 Y81.573 E15.11394
G1 X86.197 Y81.179 E15.14653
G1 X87.442 Y80.327 E15.2218
G1 X87.993 Y79.986 E15.25413
G1 X89.313 Y79.252 E15.32948
G1 X89.879 Y78.97 E15.36103
G1 X91.258 Y78.359 E15.43627
G1 X91.876 Y78.12 E15.46933
G1 X93.31 Y77.641 E15.54476
G1 X93.917 Y77.468 E15.57625
G1 X95.384 Y77.121 E15.65146
G1 X96.032 Y77 E15.68435
G1 X97.529 Y76.792 E15.75975
G1 X98.172 Y76.732 E15.79197
G1 X99.679 Y76.663 E15.86723
G1 X100.319 Y76.663 E15.89916
G1 X101.828 Y76.732 E15.97452
G1 X102.471 Y76.792 E16.00674
G1 X103.968 Y77 E16.08215
G1 X104.703 Y77.142 E16.11949
G1 X104.798 Y77.166 E16.12438
G1 X106.075 Y77.466 E16.18983
G1 X106.692 Y77.641 E16.22182
G1 X108.125 Y78.12 E16.2972
G1 X108.738 Y78.357 E16.32999
G1 X110.117 Y78.967 E16.40522
G1 X110.685 Y79.25 E16.43688
G1 X112.006 Y79.984 E16.51228
G1 X112.565 Y80.33 E16.54508
G1 X113.809 Y81.183 E16.62033
G1 X114.324 Y81.572 E16.65253
G1 X115.484 Y82.536 E16.72777
G1 X115.96 Y82.97 E16.75991
G1 X117.029 Y84.039 E16.83534
G1 X117.462 Y84.515 E16.86744
G1 X118.427 Y85.676 E16.94276
G1 X118.821 Y86.197 E16.97535
G1 X119.673 Y87.442 E17.05061
G1 X120.014 Y87.993 E17.08294
G1 X120.748 Y89.313 E17.15829
G1 X121.03 Y89.879 E17.18984
G1 X121.641 Y91.258 E17.26509
G1 X121.88 Y91.875 E17.2981
G1 X122.359 Y93.308 E17.37348
G1 X122.532 Y93.917 E17.40507
G1 X122.879 Y95.385 E17.48032
G1 X123 Y96.03 E17.51306
G1 X123.208 Y97.525 E17.58837
G1 X123.268 Y98.17 E17.62069
G1 X123.337 Y99.68 E17.6961
G1 X123.337 Y100.32 E17.72803
G1 X123.268 Y101.828 E17.80334
G1 X123.208 Y102.471 E17.83556
G1 X123 Y103.968 E17.91096
G1 X122.858 Y104.703 E17.94831
G1 X122.827 Y104.827 E17.95469
G1 X122.534 Y106.075 E18.01864
G1 X122.359 Y106.691 E18.05059
G1 X121.881 Y108.122 E18.12586
G1 X121.643 Y108.736 E18.15872
G1 X121.032 Y110.117 E18.23406
G1 X120.751 Y110.683 E18.26558
G1 X120.018 Y112.003 E18.34091
G1 X119.67 Y112.565 E18.37389
G1 X118.816 Y113.81 E18.44921
G1 X118.428 Y114.324 E18.48134
G1 X117.464 Y115.484 E18.55659
G1 X117.03 Y115.96 E18.58872
G1 X115.961 Y117.029 E18.66415
G1 X115.485 Y117.462 E18.69625
G1 X114.324 Y118.427 E18.77157
G1 X113.803 Y118.821 E18.80416
G1 X112.558 Y119.673 E18.87942
G1 X112.007 Y120.014 E18.91175
G1 X110.687 Y120.748 E18.9871
G1 X110.121 Y121.03 E19.01865
G1 X108.742 Y121.641 E19.0939
G1 X108.124 Y121.88 E19.12696
G1 X106.69 Y122.359 E19.20239
G1 X106.083 Y122.532 E19.23388
G1 X104.616 Y122.879 E19.30908
G1 X103.968 Y123 E19.34197
G1 X102.471 Y123.208 E19.41738
G1 X101.828 Y123.268 E19.44959
G1 X100.319 Y123.337 E19.52496
G1 X99.679 Y123.337 E19.55689
G1 X98.172 Y123.268 E19.63215
G1 X97.529 Y123.208 E19.66437
G1 X96.032 Y123 E19.73977
G1 X95.297 Y122.858 E19.77712
G1 X95.202 Y122.834 E19.78201
G1 X93.925 Y122.534 E19.84745
G1 X93.308 Y122.359 E19.87945
G1 X91.875 Y121.88 E19.95483
G1 X91.262 Y121.642 E19.98764
G1 X89.881 Y121.031 E20.06298
G1 X89.313 Y120.749 E20.09462
G1 X87.994 Y120.016 E20.1699
G1 X87.435 Y119.67 E20.2027
G1 X86.191 Y118.817 E20.27795
G1 X85.676 Y118.427 E20.31018
G1 X84.515 Y117.462 E20.3855
G1 X84.039 Y117.029 E20.4176
G1 X82.97 Y115.96 E20.49302
G1 X82.536 Y115.484 E20.52516
G1 X81.572 Y114.324 E20.60041
G1 X81.179 Y113.803 E20.63297
G1 X80.327 Y112.558 E20.70823
G1 X79.986 Y112.007 E20.74056
G1 X79.252 Y110.687 E20.81591
G1 X78.97 Y110.121 E20.84746
G1 X78.358 Y108.74 E20.92282
G1 X78.118 Y108.12 E20.95599
G1 X77.64 Y106.688 E21.03131
G1 X77.468 Y106.083 E21.06269
G1 X77.121 Y104.616 E21.1379
G1 X77 Y103.968 E21.17078
G1 X76.792 Y102.471 E21.24619
G1 X76.732 Y101.828 E21.27841
G1 X76.663 Y100.322 E21.35362
G1 X76.663 Y99.682 E21.38555
G1 X76.732 Y98.172 E21.46096
G1 X76.792 Y97.529 E21.49318
G1 X77 Y96.032 E21.56858
G1 X77.142 Y95.297 E21.60593
G1 X77.173 Y95.173 E21.61231
G1 X77.466 Y93.925 E21.67626
G1 X77.641 Y93.309 E21.70821
G1 X78.119 Y91.878 E21.78348
G1 X78.357 Y91.264 E21.81634
G1 X78.968 Y89.883 E21.89168
G1 X79.249 Y89.317 E21.9232
G1 X79.982 Y87.997 E21.99853
G1 X80.33 Y87.435 E22.03151
G1 X81.184 Y86.19 E22.10683
G1 X81.572 Y85.676 E22.13896
G1 X82.536 Y84.516 E22.21421
G1 X82.97 Y84.04 E22.24635
G1 X84.039 Y82.971 E22.32177
G0 F3600 X84.322 Y83.254
G1 F1800 X84.77 Y82.845 E22.35203
G1 X85.931 Y81.88 E22.42735
G1 X86.423 Y81.509 E22.45809
G1 X87.668 Y80.657 E22.53336
G1 X88.188 Y80.336 E22.56385
G1 X89.508 Y79.602 E22.6392
G1 X90.041 Y79.336 E22.66892
G1 X91.42 Y78.725 E22.74417
G1 X92.003 Y78.499 E22.77536
G1 X93.437 Y78.02 E22.85079
G1 X94.009 Y77.857 E22.88046
G1 X95.476 Y77.51 E22.95567
G1 X96.087 Y77.396 E22.98668
G1 X97.584 Y77.188 E23.06208
G1 X98.19 Y77.132 E23.09245
G1 X99.697 Y77.063 E23.16771
G1 X100.3 Y77.063 E23.19779
G1 X101.809 Y77.132 E23.27316
G1 X102.416 Y77.188 E23.30357
G1 X103.913 Y77.396 E23.37897
G1 X104.606 Y77.53 E23.41419
G1 X105.984 Y77.855 E23.48482
G1 X106.565 Y78.02 E23.51495
G1 X107.998 Y78.499 E23.59033
G1 X108.576 Y78.723 E23.62126
G1 X109.955 Y79.333 E23.69649
G1 X110.491 Y79.6 E23.72637
G1 X111.812 Y80.334 E23.80176
G1 X112.338 Y80.66 E23.83263
G1 X113.582 Y81.513 E23.90789
G1 X114.068 Y81.88 E23.93827
G1 X115.228 Y82.844 E24.01352
G1 X115.677 Y83.253 E24.04382
G1 X116.746 Y84.322 E24.11924
G1 X117.155 Y84.77 E24.14951
G1 X118.12 Y85.931 E24.22483
G1 X118.491 Y86.423 E24.25557
G1 X119.343 Y87.668 E24.33083
G1 X119.664 Y88.188 E24.36132
G1 X120.398 Y89.508 E24.43667
G1 X120.664 Y90.041 E24.46639
G1 X121.275 Y91.42 E24.54164
G1 X121.501 Y92.002 E24.57279
G1 X121.98 Y93.435 E24.64817
G1 X122.143 Y94.009 E24.67794
G1 X122.49 Y95.477 E24.7532
G1 X122.604 Y96.085 E24.78406
G1 X122.812 Y97.58 E24.85936
G1 X122.868 Y98.189 E24.88987
G1 X122.937 Y99.699 E24.96529
G1 X122.937 Y100.302 E24.99537
G1 X122.868 Y101.81 E25.07068
G1 X122.812 Y102.416 E25.10105
G1 X122.604 Y103.913 E25.17645
G1 X122.47 Y104.606 E25.21166
G1 X122.145 Y105.984 E25.2823
G1 X121.98 Y106.564 E25.31238
G1 X121.502 Y107.995 E25.38765
G1 X121.278 Y108.574 E25.41863
G1 X120.667 Y109.955 E25.49397
G1 X120.401 Y110.489 E25.52373
G1 X119.668 Y111.809 E25.59906
G1 X119.341 Y112.338 E25.63009
G1 X118.487 Y113.583 E25.70541
G1 X118.12 Y114.068 E25.73575
G1 X117.156 Y115.228 E25.811
G1 X116.747 Y115.677 E25.8413
G1 X115.678 Y116.746 E25.91672
G1 X115.23 Y117.155 E25.94699
G1 X114.069 Y118.12 E26.02231
G1 X113.577 Y118.491 E26.05305
G1 X112.332 Y119.343 E26.12831
G1 X111.812 Y119.664 E26.1588
G1 X110.492 Y120.398 E26.23415
G1 X109.959 Y120.664 E26.26387
G1 X108.58 Y121.275 E26.33912
G1 X107.997 Y121.501 E26.37032
G1 X106.563 Y121.98 E26.44574
G1 X105.991 Y122.143 E26.47542
G1 X104.524 Y122.49 E26.55063
G1 X103.913 Y122.604 E26.58164
G1 X102.416 Y122.812 E26.65704
G1 X101.809 Y122.868 E26.68745
G1 X100.3 Y122.937 E26.76281
G1 X99.697 Y122.937 E26.7929
G1 X98.19 Y122.868 E26.86816
G1 X97.584 Y122.812 E26.89852
G1 X96.087 Y122.604 E26.97393
G1 X95.394 Y122.47 E27.00914
G1 X94.016 Y122.145 E27.07978
G1 X93.435 Y121.98 E27.10991
G1 X92.002 Y121.501 E27.18529
G1 X91.424 Y121.277 E27.21621
G1 X90.043 Y120.666 E27.29156
G1 X89.507 Y120.399 E27.32143
