;FLAVOR:Marlin
;TIME:1748
;Filament used: 2.4362m
;Layer height: 0.3
;MINX:78.371
;MINY:78.362
;MINZ:0.3
;MAXX:121.638
;MAXY:121.639
;MAXZ:48.9
;Generated with Cura_SteamEngine 4.8.0
M140 S60
M105
M190 S60
M104 S210
M105
M109 S210
M82 ;absolute extrusion mode
G28 ;Home
G12 P1 S2 T3
G29 ;auto bed leveling
G1 Z15.0 F6000 ;Move the platform down 15mm
;Prime the extruder
G92 E0
G1 F200 E3
G92 E0
G12 P0 S1
G92 E0
G92 E0
G1 F1500 E-6.5
;LAYER_COUNT:163
;LAYER:0
M107
G0 F3600 X84.977 Y84.432 Z0.3
;TYPE:SKIRT
G1 F1500 E0
G1 F1800 X85.526 Y83.921 E0.03742
G1 X85.904 Y83.602 E0.06209
G1 X86.446 Y83.138 E0.09769
G1 X87.018 Y82.693 E0.13385
G1 X88.049 Y81.965 E0.19681
G1 X88.647 Y81.583 E0.23222
G1 X89.736 Y80.954 E0.29496
G1 X90.39 Y80.616 E0.33169
G1 X90.796 Y80.43 E0.35397
G1 X91.49 Y80.107 E0.39216
G1 X92.197 Y79.82 E0.43022
G1 X92.628 Y79.669 E0.45301
G1 X93.35 Y79.411 E0.49126
G1 X94.037 Y79.201 E0.5271
G1 X95.256 Y78.889 E0.58988
G1 X95.954 Y78.744 E0.62544
G1 X97.2 Y78.544 E0.6884
G1 X97.903 Y78.463 E0.72371
G1 X99.159 Y78.377 E0.78652
G1 X99.897 Y78.362 E0.82334
G1 X101.115 Y78.39 E0.88412
G1 X101.837 Y78.438 E0.92022
G1 X103.089 Y78.581 E0.98309
G1 X103.792 Y78.694 E1.01862
G1 X105.028 Y78.951 E1.0816
G1 X105.714 Y79.127 E1.11693
G1 X106.918 Y79.494 E1.17973
G1 X107.588 Y79.732 E1.2152
G1 X108.756 Y80.208 E1.27813
G1 X109.399 Y80.505 E1.31346
G1 X110.517 Y81.084 E1.37628
G1 X111.133 Y81.439 E1.41175
G1 X112.196 Y82.119 E1.4747
G1 X112.78 Y82.532 E1.51039
G1 X113.773 Y83.304 E1.57314
G1 X114.313 Y83.764 E1.60853
G1 X115.235 Y84.626 E1.6715
G1 X115.722 Y85.124 E1.70625
G1 X116.561 Y86.062 E1.76904
G1 X117.014 Y86.618 E1.80482
G1 X117.764 Y87.63 E1.86766
G1 X118.161 Y88.221 E1.90318
G1 X118.816 Y89.298 E1.96607
G1 X119.16 Y89.927 E2.00184
G1 X119.713 Y91.059 E2.06469
G1 X119.991 Y91.698 E2.09946
G1 X120.442 Y92.878 E2.16248
G1 X120.675 Y93.589 E2.19981
G1 X120.793 Y94.017 E2.22196
G1 X121.001 Y94.753 E2.26012
G1 X121.171 Y95.487 E2.2977
G1 X121.258 Y95.974 E2.32239
G1 X121.39 Y96.676 E2.35802
G1 X121.495 Y97.437 E2.39635
G1 X121.538 Y97.931 E2.42109
G1 X121.604 Y98.643 E2.45676
G1 X121.638 Y99.368 E2.49297
G1 X121.638 Y100.63 E2.55593
G1 X121.606 Y101.336 E2.59119
G1 X121.492 Y102.591 E2.65406
G1 X121.396 Y103.293 E2.68941
G1 X121.168 Y104.535 E2.75241
G1 X121.004 Y105.243 E2.78867
G1 X120.663 Y106.453 E2.85139
G1 X120.444 Y107.115 E2.88617
G1 X119.995 Y108.293 E2.94907
G1 X119.714 Y108.939 E2.98421
G1 X119.16 Y110.073 E3.04718
G1 X118.816 Y110.703 E3.08299
G1 X118.162 Y111.778 E3.14577
G1 X117.767 Y112.365 E3.18107
G1 X117.017 Y113.378 E3.24395
G1 X116.561 Y113.937 E3.27994
G1 X115.721 Y114.876 E3.3428
G1 X115.235 Y115.374 E3.37751
G1 X114.313 Y116.236 E3.44048
G1 X113.773 Y116.696 E3.47587
G1 X112.78 Y117.468 E3.53863
G1 X112.197 Y117.88 E3.57424
G1 X111.136 Y118.559 E3.63709
G1 X110.519 Y118.915 E3.67263
G1 X109.399 Y119.495 E3.73555
G1 X108.761 Y119.79 E3.77062
G1 X107.593 Y120.267 E3.83356
G1 X106.887 Y120.517 E3.87093
G1 X106.414 Y120.659 E3.89557
G1 X105.725 Y120.87 E3.93152
G1 X105.028 Y121.049 E3.96742
G1 X103.792 Y121.306 E4.0304
G1 X103.089 Y121.419 E4.06592
G1 X101.837 Y121.562 E4.12879
G1 X101.132 Y121.61 E4.16405
G1 X99.873 Y121.639 E4.22688
G1 X99.161 Y121.623 E4.26241
G1 X97.904 Y121.537 E4.32527
G1 X97.174 Y121.452 E4.36193
G1 X96.728 Y121.379 E4.38448
G1 X95.97 Y121.259 E4.42277
G1 X95.256 Y121.111 E4.45914
G1 X94.037 Y120.799 E4.52192
G1 X93.364 Y120.594 E4.55702
G1 X92.174 Y120.172 E4.62001
G1 X91.507 Y119.901 E4.65593
G1 X90.363 Y119.372 E4.71881
G1 X89.736 Y119.046 E4.75407
G1 X88.647 Y118.417 E4.81681
G1 X88.049 Y118.035 E4.85221
G1 X87.018 Y117.307 E4.91518
G1 X86.462 Y116.875 E4.95031
G1 X85.502 Y116.058 E5.0132
G1 X84.955 Y115.546 E5.05058
G1 X84.612 Y115.192 E5.07517
G1 X84.107 Y114.676 E5.11119
G1 X83.626 Y114.138 E5.14719
G1 X82.83 Y113.159 E5.21014
G1 X82.41 Y112.592 E5.24535
G1 X81.707 Y111.547 E5.30818
G1 X81.339 Y110.941 E5.34355
G1 X80.733 Y109.835 E5.40647
G1 X80.419 Y109.196 E5.44199
G1 X79.917 Y108.041 E5.50482
G1 X79.662 Y107.371 E5.54059
G1 X79.268 Y106.174 E5.60346
G1 X79.08 Y105.501 E5.63832
G1 X78.795 Y104.275 E5.70112
G1 X78.664 Y103.566 E5.73709
G1 X78.493 Y102.316 E5.80003
G1 X78.429 Y101.618 E5.835
G1 X78.371 Y100.36 E5.89783
G1 X78.371 Y99.642 E5.93365
G1 X78.429 Y98.382 E5.99658
G1 X78.492 Y97.69 E6.03125
G1 X78.662 Y96.44 E6.09418
G1 X78.795 Y95.719 E6.13076
G1 X79.081 Y94.493 E6.19357
G1 X79.268 Y93.826 E6.22813
G1 X79.662 Y92.629 E6.291
G1 X79.92 Y91.954 E6.32705
G1 X80.423 Y90.799 E6.3899
G1 X80.731 Y90.17 E6.42484
G1 X81.336 Y89.064 E6.48774
G1 X81.707 Y88.453 E6.5234
G1 X82.41 Y87.408 E6.58623
G1 X82.827 Y86.845 E6.62119
G1 X83.622 Y85.866 E6.68411
G1 X84.097 Y85.333 E6.71972
G1 X84.977 Y84.432 E6.78256
G0 F3600 X85.263 Y84.711
G1 F1800 X85.784 Y84.227 E6.81804
G1 X86.124 Y83.94 E6.84023
G1 X86.706 Y83.442 E6.87845
G1 X87.249 Y83.02 E6.91276
G1 X88.28 Y82.292 E6.97573
G1 X88.847 Y81.929 E7.00931
G1 X89.936 Y81.3 E7.07206
G1 X90.557 Y80.98 E7.10691
G1 X90.965 Y80.793 E7.1293
G1 X91.659 Y80.47 E7.16749
G1 X92.329 Y80.197 E7.20359
G1 X93.484 Y79.787 E7.26473
G1 X94.136 Y79.588 E7.29874
G1 X95.355 Y79.276 E7.36152
G1 X96.017 Y79.139 E7.39525
G1 X97.263 Y78.939 E7.4582
G1 X97.93 Y78.862 E7.4917
G1 X99.186 Y78.776 E7.55451
G1 X99.887 Y78.762 E7.58949
G1 X101.107 Y78.79 E7.65037
G1 X101.792 Y78.836 E7.68463
G1 X103.044 Y78.979 E7.74749
G1 X103.71 Y79.086 E7.78115
G1 X104.946 Y79.343 E7.84413
G1 X105.598 Y79.51 E7.87771
G1 X106.802 Y79.877 E7.9405
G1 X107.437 Y80.102 E7.97412
G1 X108.605 Y80.578 E8.03704
G1 X109.215 Y80.86 E8.07057
G1 X110.333 Y81.439 E8.13338
G1 X110.918 Y81.776 E8.16706
G1 X111.981 Y82.456 E8.23002
G1 X112.535 Y82.848 E8.26388
G1 X113.528 Y83.62 E8.32663
G1 X114.04 Y84.056 E8.36018
G1 X114.962 Y84.918 E8.42315
G1 X115.424 Y85.391 E8.45614
G1 X116.263 Y86.329 E8.51892
G1 X116.692 Y86.856 E8.55283
G1 X117.442 Y87.868 E8.61567
G1 X117.82 Y88.429 E8.64942
G1 X118.475 Y89.506 E8.71231
G1 X118.801 Y90.103 E8.74624
G1 X119.354 Y91.235 E8.8091
G1 X119.617 Y91.841 E8.84205
G1 X120.068 Y93.021 E8.90508
G1 X120.29 Y93.696 E8.94053
G1 X120.421 Y94.171 E8.96511
G1 X120.616 Y94.862 E9.00093
G1 X120.777 Y95.558 E9.03657
G1 X120.856 Y95.997 E9.05883
G1 X120.997 Y96.749 E9.097
G1 X121.096 Y97.471 E9.13335
G1 X121.135 Y97.92 E9.15584
G1 X121.206 Y98.681 E9.19397
G1 X121.238 Y99.368 E9.22828
G1 X121.238 Y100.63 E9.29124
G1 X121.208 Y101.299 E9.32465
G1 X121.094 Y102.554 E9.38752
G1 X121.002 Y103.221 E9.42112
G1 X120.774 Y104.463 E9.48411
G1 X120.619 Y105.134 E9.51847
G1 X120.278 Y106.344 E9.58119
G1 X120.07 Y106.973 E9.61424
G1 X119.621 Y108.151 E9.67714
G1 X119.355 Y108.763 E9.71043
G1 X118.801 Y109.897 E9.7734
G1 X118.474 Y110.495 E9.8074
G1 X117.82 Y111.57 E9.87018
G1 X117.445 Y112.127 E9.90368
G1 X116.695 Y113.14 E9.96656
G1 X116.263 Y113.671 E10.00071
G1 X115.423 Y114.61 E10.06357
G1 X114.962 Y115.082 E10.09648
G1 X114.04 Y115.944 E10.15945
G1 X113.528 Y116.38 E10.19301
G1 X112.535 Y117.152 E10.25576
G1 X111.982 Y117.543 E10.28955
G1 X110.921 Y118.222 E10.35239
G1 X110.335 Y118.56 E10.38614
G1 X109.215 Y119.14 E10.44907
G1 X108.61 Y119.42 E10.48233
G1 X107.442 Y119.897 E10.54527
G1 X106.772 Y120.134 E10.58073
G1 X106.299 Y120.275 E10.60535
G1 X105.608 Y120.487 E10.64141
G1 X104.946 Y120.657 E10.67551
G1 X103.71 Y120.914 E10.73849
G1 X103.044 Y121.021 E10.77214
G1 X101.792 Y121.164 E10.83501
G1 X101.122 Y121.21 E10.86852
G1 X99.863 Y121.239 E10.93135
G1 X99.188 Y121.224 E10.96503
G1 X97.931 Y121.138 E11.02789
G1 X97.239 Y121.058 E11.06264
G1 X96.751 Y120.978 E11.08732
G1 X96.033 Y120.864 E11.12359
G1 X95.355 Y120.724 E11.15812
G1 X94.136 Y120.412 E11.2209
G1 X93.498 Y120.217 E11.25418
G1 X92.308 Y119.795 E11.31718
G1 X91.675 Y119.538 E11.35126
G1 X90.531 Y119.009 E11.41414
G1 X89.936 Y118.7 E11.44759
G1 X88.847 Y118.071 E11.51033
G1 X88.28 Y117.708 E11.54392
G1 X87.249 Y116.98 E11.60689
G1 X86.721 Y116.57 E11.64024
G1 X85.761 Y115.753 E11.70313
G1 X85.242 Y115.267 E11.7386
G1 X84.899 Y114.913 E11.7632
G1 X84.393 Y114.396 E11.79929
G1 X83.936 Y113.885 E11.83349
G1 X83.14 Y112.906 E11.89644
G1 X82.742 Y112.369 E11.92979
G1 X82.039 Y111.324 E11.99262
G1 X81.689 Y110.749 E12.0262
G1 X81.083 Y109.643 E12.08912
G1 X80.786 Y109.037 E12.12279
G1 X80.284 Y107.882 E12.18562
G1 X80.042 Y107.246 E12.21957
G1 X79.648 Y106.049 E12.28244
G1 X79.469 Y105.411 E12.3155
G1 X79.184 Y104.185 E12.3783
G1 X79.06 Y103.512 E12.41244
G1 X78.889 Y102.262 E12.47538
G1 X78.829 Y101.6 E12.50854
G1 X78.771 Y100.342 E12.57137
G1 X78.771 Y99.661 E12.60535
G1 X78.829 Y98.401 E12.66828
G1 X78.889 Y97.744 E12.70119
G1 X79.059 Y96.494 E12.76413
G1 X79.184 Y95.81 E12.79882
G1 X79.47 Y94.584 E12.86163
G1 X79.648 Y93.951 E12.89443
G1 X80.042 Y92.754 E12.9573
G1 X80.286 Y92.113 E12.99152
G1 X80.789 Y90.958 E13.05437
G1 X81.082 Y90.362 E13.0875
G1 X81.687 Y89.256 E13.1504
G1 X82.039 Y88.676 E13.18425
G1 X82.742 Y87.631 E13.24708
G1 X83.138 Y87.097 E13.28025
G1 X83.933 Y86.118 E13.34317
G1 X84.383 Y85.612 E13.37695
G1 X85.263 Y84.711 E13.43978
G0 F3600 X85.549 Y84.991
G1 F1800 X86.042 Y84.532 E13.47339
G1 X86.42 Y84.213 E13.49807
G1 X86.966 Y83.746 E13.53391
G1 X87.479 Y83.347 E13.56633
G1 X88.51 Y82.619 E13.6293
G1 X89.047 Y82.275 E13.66112
G1 X90.136 Y81.646 E13.72386
G1 X90.723 Y81.343 E13.75682
G1 X91.173 Y81.137 E13.78151
G1 X91.827 Y80.833 E13.81749
G1 X92.462 Y80.574 E13.8517
G1 X92.929 Y80.41 E13.8764
G1 X93.618 Y80.164 E13.9129
G1 X94.235 Y79.976 E13.94508
G1 X95.454 Y79.664 E14.00785
G1 X96.081 Y79.533 E14.03981
G1 X97.327 Y79.333 E14.10277
G1 X97.958 Y79.261 E14.13445
G1 X99.214 Y79.175 E14.19726
G1 X99.876 Y79.161 E14.2303
G1 X100.37 Y79.175 E14.25495
G1 X101.098 Y79.19 E14.29128
G1 X101.746 Y79.233 E14.32368
G1 X102.998 Y79.376 E14.38655
G1 X103.629 Y79.478 E14.41844
G1 X104.865 Y79.735 E14.48142
G1 X105.481 Y79.892 E14.51314
G1 X106.685 Y80.259 E14.57593
G1 X107.286 Y80.473 E14.60776
G1 X108.454 Y80.949 E14.67069
G1 X109.031 Y81.215 E14.70238
G1 X110.149 Y81.794 E14.7652
G1 X110.702 Y82.113 E14.79705
G1 X111.765 Y82.793 E14.86
G1 X112.289 Y83.164 E14.89204
G1 X113.282 Y83.936 E14.95479
G1 X113.767 Y84.349 E14.98657
G1 X114.689 Y85.211 E15.04954
G1 X115.125 Y85.657 E15.08066
G1 X115.964 Y86.595 E15.14344
G1 X116.371 Y87.094 E15.17557
G1 X117.121 Y88.106 E15.23841
G1 X117.478 Y88.637 E15.27033
G1 X118.133 Y89.714 E15.33322
G1 X118.442 Y90.278 E15.36531
G1 X118.995 Y91.41 E15.42816
G1 X119.244 Y91.984 E15.45938
G1 X119.695 Y93.164 E15.5224
G1 X119.904 Y93.802 E15.55589
G1 X120.023 Y94.234 E15.57825
G1 X120.231 Y94.97 E15.61641
G1 X120.383 Y95.629 E15.65015
G1 X120.463 Y96.071 E15.67256
G1 X120.604 Y96.823 E15.71073
G1 X120.698 Y97.506 E15.74512
G1 X120.737 Y97.957 E15.76771
G1 X120.808 Y98.718 E15.80584
G1 X120.838 Y99.368 E15.8383
G1 X120.838 Y100.63 E15.90126
G1 X120.809 Y101.263 E15.93288
G1 X120.695 Y102.518 E15.99575
G1 X120.609 Y103.149 E16.02752
G1 X120.381 Y104.391 E16.09052
G1 X120.234 Y105.026 E16.12304
G1 X119.893 Y106.236 E16.18576
G1 X119.696 Y106.83 E16.21698
G1 X119.247 Y108.008 E16.27987
G1 X118.996 Y108.588 E16.3114
G1 X118.442 Y109.722 E16.37437
G1 X118.132 Y110.287 E16.40652
G1 X117.478 Y111.362 E16.4693
G1 X117.124 Y111.889 E16.50097
G1 X116.374 Y112.902 E16.56385
G1 X115.965 Y113.404 E16.59616
G1 X115.125 Y114.343 E16.65901
G1 X114.689 Y114.789 E16.69013
G1 X113.767 Y115.651 E16.7531
G1 X113.282 Y116.064 E16.78488
G1 X112.289 Y116.836 E16.84764
G1 X111.766 Y117.206 E16.8796
G1 X110.705 Y117.885 E16.94244
G1 X110.151 Y118.205 E16.97436
G1 X109.031 Y118.785 E17.03729
G1 X108.459 Y119.049 E17.06872
G1 X107.291 Y119.526 E17.13166
G1 X106.657 Y119.75 E17.16521
G1 X105.491 Y120.105 E17.22601
G1 X104.865 Y120.265 E17.25825
G1 X103.629 Y120.522 E17.32123
G1 X102.998 Y120.624 E17.35312
G1 X101.746 Y120.767 E17.41599
G1 X101.113 Y120.81 E17.44764
G1 X99.854 Y120.839 E17.51047
G1 X99.215 Y120.825 E17.54236
G1 X97.958 Y120.739 E17.60522
G1 X97.304 Y120.663 E17.63807
G1 X96.853 Y120.589 E17.66087
G1 X96.095 Y120.469 E17.69916
G1 X95.454 Y120.336 E17.73182
G1 X94.235 Y120.024 E17.79459
G1 X93.631 Y119.84 E17.82609
G1 X92.441 Y119.418 E17.88909
G1 X91.843 Y119.175 E17.92129
G1 X90.699 Y118.646 E17.98417
G1 X90.136 Y118.354 E18.01581
G1 X89.047 Y117.725 E18.07855
G1 X88.51 Y117.381 E18.11037
G1 X87.479 Y116.653 E18.17334
G1 X86.98 Y116.266 E18.20484
G1 X86.02 Y115.449 E18.26773
G1 X85.53 Y114.989 E18.30126
G1 X85.187 Y114.635 E18.32586
G1 X84.678 Y114.116 E18.36212
G1 X84.247 Y113.633 E18.39442
G1 X83.451 Y112.654 E18.45737
G1 X83.074 Y112.145 E18.48897
G1 X82.371 Y111.1 E18.5518
G1 X82.04 Y110.557 E18.58353
G1 X81.434 Y109.451 E18.64645
G1 X81.153 Y108.877 E18.67833
G1 X80.651 Y107.722 E18.74116
G1 X80.422 Y107.121 E18.77325
G1 X80.028 Y105.924 E18.83612
G1 X79.859 Y105.32 E18.86741
G1 X79.574 Y104.094 E18.93021
G1 X79.457 Y103.458 E18.96247
G1 X79.286 Y102.208 E19.02542
G1 X79.228 Y101.581 E19.05683
G1 X79.17 Y100.323 E19.11966
G1 X79.17 Y99.679 E19.15179
G1 X79.228 Y98.419 E19.21472
G1 X79.285 Y97.798 E19.24583
G1 X79.455 Y96.548 E19.30876
G1 X79.574 Y95.901 E19.34159
G1 X79.86 Y94.675 E19.40439
G1 X80.028 Y94.076 E19.43543
G1 X80.422 Y92.879 E19.4983
G1 X80.653 Y92.273 E19.53066
G1 X81.156 Y91.118 E19.59351
G1 X81.433 Y90.554 E19.62486
G1 X82.038 Y89.448 E19.68775
G1 X82.371 Y88.9 E19.71974
G1 X83.074 Y87.855 E19.78258
G1 X83.448 Y87.349 E19.81397
G1 X84.243 Y86.37 E19.87689
G1 X84.669 Y85.892 E19.90883
G1 X85.549 Y84.991 E19.97166
G0 F3600 X85.835 Y85.27
G1 F1800 X86.3 Y84.838 E20.00333
G1 X86.678 Y84.519 E20.02801
G1 X87.226 Y84.05 E20.06399
G1 X87.71 Y83.674 E20.09457
G1 X88.741 Y82.946 E20.15754
G1 X89.247 Y82.622 E20.18751
G1 X90.336 Y81.993 E20.25025
G1 X90.89 Y81.707 E20.28136
G1 X91.302 Y81.518 E20.30397
G1 X91.996 Y81.195 E20.34216
G1 X92.594 Y80.952 E20.37437
G1 X93.061 Y80.788 E20.39906
G1 X93.753 Y80.541 E20.43572
G1 X94.334 Y80.363 E20.46603
G1 X95.553 Y80.051 E20.52881
G1 X96.144 Y79.928 E20.55893
G1 X97.39 Y79.728 E20.62189
G1 X97.985 Y79.66 E20.65176
G1 X99.241 Y79.574 E20.71457
G1 X99.866 Y79.561 E20.74576
G1 X100.324 Y79.573 E20.76862
G1 X101.09 Y79.589 E20.80684
G1 X101.701 Y79.631 E20.8374
G1 X102.953 Y79.774 E20.90027
G1 X103.548 Y79.869 E20.93033
G1 X104.784 Y80.126 E20.99331
G1 X105.364 Y80.275 E21.02319
G1 X106.568 Y80.642 E21.08598
G1 X107.135 Y80.843 E21.116
G1 X108.303 Y81.319 E21.17892
G1 X108.847 Y81.57 E21.20881
G1 X109.965 Y82.149 E21.27162
G1 X110.487 Y82.45 E21.30169
G1 X111.55 Y83.13 E21.36464
G1 X112.044 Y83.479 E21.39482
G1 X113.037 Y84.251 E21.45757
G1 X113.493 Y84.641 E21.4875
G1 X114.415 Y85.503 E21.55048
G1 X114.827 Y85.924 E21.57986
G1 X115.666 Y86.862 E21.64265
G1 X116.05 Y87.332 E21.67293
G1 X116.8 Y88.344 E21.73577
G1 X117.136 Y88.845 E21.76587
G1 X117.791 Y89.922 E21.82876
G1 X118.082 Y90.454 E21.85901
G1 X118.635 Y91.586 E21.92186
G1 X118.87 Y92.127 E21.95129
G1 X119.321 Y93.307 E22.01431
G1 X119.518 Y93.908 E22.04587
G1 X119.638 Y94.343 E22.06838
G1 X119.846 Y95.079 E22.10654
G1 X119.99 Y95.7 E22.13834
G1 X120.07 Y96.145 E22.1609
G1 X120.211 Y96.897 E22.19907
G1 X120.299 Y97.541 E22.2315
G1 X120.338 Y97.994 E22.25418
G1 X120.409 Y98.755 E22.29231
G1 X120.438 Y99.368 E22.32293
G1 X120.438 Y100.63 E22.38589
G1 X120.411 Y101.227 E22.41571
G1 X120.297 Y102.482 E22.47858
G1 X120.216 Y103.077 E22.50853
G1 X119.988 Y104.319 E22.57153
G1 X119.849 Y104.917 E22.60216
G1 X119.508 Y106.127 E22.66488
G1 X119.322 Y106.688 E22.69437
G1 X118.873 Y107.866 E22.75726
G1 X118.636 Y108.412 E22.78696
