;FLAVOR:Marlin
;TIME:5601
;Filament used: 7.38893m
;Layer height: 0.2
;MINX:67.351
;MINY:67.311
;MINZ:0.3
;MAXX:132.651
;MAXY:132.681
;MAXZ:99.9
;Generated with Cura_SteamEngine 4.4.1
M140 S70
M105
M190 S70
M104 S210
M105
M109 S210
M82 ;absolute extrusion mode
G28 ;Home
G12 P1 S2 T3
G29
G12 P0 S2
G1 Z15.0 F6000 ;Move the platform down 15mm
;Prime the extruder
G92 E0
G1 F200 E3
G92 E0
G92 E0
G92 E0
G1 F1500 E-6.5
;LAYER_COUNT:499
;LAYER:0
M107
G0 F3600 X76.472 Y77.301 Z0.3
;TYPE:SKIRT
G1 F1500 E0
G1 F1800 X78.959 Y74.978 E0.16978
G1 X79.788 Y74.304 E0.22309
G1 X82.563 Y72.347 E0.3925
G1 X83.468 Y71.796 E0.44536
G1 X86.487 Y70.231 E0.61501
G1 X87.466 Y69.806 E0.66826
G1 X90.669 Y68.668 E0.83784
G1 X91.691 Y68.382 E0.89079
G1 X95.022 Y67.689 E1.06053
G1 X96.078 Y67.543 E1.11372
G1 X99.467 Y67.311 E1.28319
G1 X100.526 Y67.311 E1.33602
G1 X103.839 Y67.535 E1.50169
G1 X104.877 Y67.676 E1.55395
G1 X108.213 Y68.359 E1.72384
G1 X109.24 Y68.643 E1.777
G1 X112.449 Y69.773 E1.94673
G1 X113.429 Y70.195 E1.99996
G1 X116.455 Y71.753 E2.16977
G1 X117.36 Y72.3 E2.22252
G1 X120.144 Y74.251 E2.39213
G1 X120.979 Y74.927 E2.44573
G1 X123.473 Y77.246 E2.61563
G1 X124.202 Y78.022 E2.66875
G1 X126.353 Y80.654 E2.83833
G1 X126.966 Y81.518 E2.89119
G1 X128.742 Y84.42 E3.06093
G1 X129.236 Y85.368 E3.11426
G1 X130.599 Y88.486 E3.28403
G1 X130.959 Y89.493 E3.33738
G1 X131.883 Y92.769 E3.5072
G1 X132.101 Y93.809 E3.56021
G1 X132.571 Y97.179 E3.72997
G1 X132.646 Y98.245 E3.78329
G1 X132.651 Y101.647 E3.95301
G1 X132.58 Y102.707 E4.00602
G1 X132.122 Y106.082 E4.17594
G1 X131.907 Y107.127 E4.22917
G1 X130.994 Y110.403 E4.39883
G1 X130.638 Y111.407 E4.45198
G1 X129.286 Y114.531 E4.62181
G1 X128.797 Y115.479 E4.67502
G1 X127.032 Y118.388 E4.84478
G1 X126.419 Y119.258 E4.89788
G1 X124.274 Y121.9 E5.06766
G1 X123.545 Y122.682 E5.12099
G1 X121.057 Y125.008 E5.29092
G1 X120.232 Y125.68 E5.344
G1 X117.456 Y127.642 E5.5136
G1 X116.545 Y128.196 E5.56679
G1 X113.524 Y129.763 E5.73658
G1 X112.548 Y130.187 E5.78967
G1 X109.342 Y131.328 E5.95944
G1 X108.317 Y131.616 E6.01256
G1 X104.983 Y132.31 E6.18246
G1 X103.927 Y132.456 E6.23565
G1 X100.693 Y132.678 E6.39737
G1 X99.677 Y132.681 E6.44806
G1 X96.286 Y132.471 E6.61756
G1 X95.225 Y132.332 E6.67095
G1 X91.737 Y131.628 E6.84847
G1 X90.669 Y131.332 E6.90377
G1 X87.466 Y130.194 E7.07335
G1 X86.487 Y129.769 E7.1266
G1 X83.468 Y128.204 E7.29625
G1 X82.563 Y127.653 E7.34911
G1 X79.788 Y125.696 E7.51852
G1 X78.959 Y125.022 E7.57182
G1 X76.472 Y122.699 E7.74161
G1 X75.744 Y121.92 E7.7948
G1 X73.6 Y119.283 E7.96436
G1 X72.989 Y118.416 E8.01728
G1 X71.222 Y115.512 E8.18687
G1 X70.731 Y114.566 E8.24004
G1 X69.376 Y111.447 E8.4097
G1 X69.019 Y110.442 E8.46291
G1 X68.103 Y107.17 E8.63243
G1 X67.887 Y106.13 E8.68542
G1 X67.424 Y102.763 E8.85498
G1 X67.351 Y101.7 E8.90814
G1 X67.351 Y98.303 E9.07762
G1 X67.424 Y97.241 E9.13072
G1 X67.887 Y93.871 E9.30043
G1 X68.103 Y92.83 E9.35348
G1 X69.019 Y89.558 E9.52299
G1 X69.376 Y88.553 E9.5762
G1 X70.731 Y85.434 E9.74586
G1 X71.221 Y84.489 E9.79897
G1 X72.987 Y81.585 E9.96853
G1 X73.6 Y80.716 E10.02159
G1 X75.745 Y78.079 E10.19118
G1 X76.472 Y77.301 E10.2443
G0 F3600 X76.745 Y77.593
G1 F1800 X79.232 Y75.27 E10.41409
G1 X80.018 Y74.631 E10.46462
G1 X82.793 Y72.674 E10.63403
G1 X83.652 Y72.151 E10.68421
G1 X86.671 Y70.586 E10.85386
G1 X87.6 Y70.183 E10.90438
G1 X90.803 Y69.045 E11.07397
G1 X91.773 Y68.773 E11.12423
G1 X95.104 Y68.08 E11.29397
G1 X96.106 Y67.942 E11.34443
G1 X99.495 Y67.71 E11.5139
G1 X100.499 Y67.71 E11.56399
G1 X103.812 Y67.934 E11.72966
G1 X104.797 Y68.067 E11.77925
G1 X108.133 Y68.75 E11.94913
G1 X109.107 Y69.02 E11.99956
G1 X112.316 Y70.15 E12.16929
G1 X113.245 Y70.551 E12.21977
G1 X116.271 Y72.109 E12.38958
G1 X117.131 Y72.628 E12.43969
G1 X119.915 Y74.579 E12.60929
G1 X120.707 Y75.22 E12.66013
G1 X123.201 Y77.539 E12.83003
G1 X123.892 Y78.275 E12.8804
G1 X126.043 Y80.907 E13.04998
G1 X126.625 Y81.727 E13.10015
G1 X128.401 Y84.629 E13.26989
G1 X128.869 Y85.528 E13.32046
G1 X130.232 Y88.646 E13.49023
G1 X130.574 Y89.601 E13.54083
G1 X131.498 Y92.877 E13.71065
G1 X131.705 Y93.864 E13.76096
G1 X132.175 Y97.234 E13.93072
G1 X132.246 Y98.245 E13.98129
G1 X132.251 Y101.647 E14.15101
G1 X132.184 Y102.653 E14.20131
G1 X131.726 Y106.028 E14.37124
G1 X131.521 Y107.02 E14.42177
G1 X130.608 Y110.296 E14.59144
G1 X130.271 Y111.248 E14.64182
G1 X128.919 Y114.372 E14.81165
G1 X128.455 Y115.272 E14.86217
G1 X126.69 Y118.181 E15.03192
G1 X126.108 Y119.006 E15.08229
G1 X123.963 Y121.648 E15.25208
G1 X123.272 Y122.39 E15.30266
G1 X120.784 Y124.716 E15.47258
G1 X120.001 Y125.353 E15.52294
G1 X117.225 Y127.315 E15.69254
G1 X116.361 Y127.841 E15.743
G1 X113.34 Y129.408 E15.91279
G1 X112.414 Y129.811 E15.96317
G1 X109.208 Y130.952 E16.13295
G1 X108.235 Y131.225 E16.18337
G1 X104.901 Y131.919 E16.35327
G1 X103.9 Y132.057 E16.40368
G1 X100.666 Y132.279 E16.5654
G1 X99.702 Y132.282 E16.6135
G1 X96.311 Y132.072 E16.783
G1 X95.304 Y131.94 E16.83367
G1 X91.816 Y131.236 E17.01119
G1 X90.803 Y130.955 E17.06364
G1 X87.6 Y129.817 E17.23323
G1 X86.671 Y129.414 E17.28375
G1 X83.652 Y127.849 E17.4534
G1 X82.793 Y127.326 E17.50357
G1 X80.018 Y125.369 E17.67298
G1 X79.232 Y124.73 E17.72352
G1 X76.745 Y122.407 E17.89331
G1 X76.054 Y121.667 E17.94382
G1 X73.91 Y119.03 E18.11337
G1 X73.33 Y118.209 E18.16352
G1 X71.563 Y115.305 E18.33312
G1 X71.098 Y114.407 E18.38357
G1 X69.743 Y111.288 E18.55323
G1 X69.404 Y110.334 E18.60374
G1 X68.488 Y107.062 E18.77326
G1 X68.283 Y106.075 E18.82355
G1 X67.82 Y102.708 E18.99311
G1 X67.751 Y101.7 E19.04352
G1 X67.751 Y98.303 E19.21299
G1 X67.82 Y97.296 E19.26335
G1 X68.283 Y93.926 E19.43306
G1 X68.488 Y92.938 E19.4834
G1 X69.404 Y89.666 E19.65292
G1 X69.743 Y88.712 E19.70343
G1 X71.098 Y85.593 E19.87309
G1 X71.562 Y84.697 E19.92343
G1 X73.328 Y81.793 E20.09299
G1 X73.91 Y80.968 E20.14336
G1 X76.055 Y78.331 E20.31295
G1 X76.745 Y77.593 E20.36336
G0 F3600 X77.018 Y77.885
G1 F1800 X79.505 Y75.562 E20.53314
G1 X80.249 Y74.957 E20.58098
G1 X83.024 Y73 E20.75039
G1 X83.836 Y72.506 E20.79781
G1 X86.855 Y70.941 E20.96747
G1 X87.733 Y70.56 E21.01522
G1 X90.936 Y69.422 E21.1848
G1 X91.854 Y69.165 E21.23236
G1 X95.185 Y68.472 E21.4021
G1 X96.133 Y68.341 E21.44985
G1 X99.522 Y68.109 E21.61932
G1 X100.472 Y68.109 E21.66672
G1 X103.785 Y68.333 E21.83238
G1 X104.717 Y68.459 E21.8793
G1 X108.053 Y69.142 E22.04919
G1 X108.974 Y69.397 E22.09687
G1 X112.183 Y70.527 E22.2666
G1 X113.062 Y70.906 E22.31436
G1 X116.088 Y72.464 E22.48416
G1 X116.901 Y72.956 E22.53157
G1 X119.685 Y74.907 E22.70117
G1 X120.435 Y75.513 E22.74928
G1 X122.929 Y77.832 E22.91918
G1 X123.582 Y78.528 E22.9668
G1 X125.733 Y81.16 E23.13638
G1 X126.284 Y81.936 E23.18386
G1 X128.06 Y84.838 E23.3536
G1 X128.503 Y85.688 E23.40143
G1 X129.866 Y88.806 E23.5712
G1 X130.189 Y89.71 E23.61909
G1 X131.113 Y92.986 E23.78891
G1 X131.309 Y93.919 E23.83647
G1 X131.779 Y97.289 E24.00623
G1 X131.846 Y98.246 E24.05409
G1 X131.851 Y101.648 E24.22382
G1 X131.787 Y102.599 E24.27137
G1 X131.329 Y105.974 E24.44129
G1 X131.136 Y106.912 E24.48907
G1 X130.223 Y110.188 E24.65874
G1 X129.904 Y111.089 E24.70642
G1 X128.552 Y114.213 E24.87625
G1 X128.113 Y115.064 E24.92402
G1 X126.348 Y117.973 E25.09378
G1 X125.797 Y118.754 E25.14146
G1 X123.652 Y121.396 E25.31124
G1 X122.998 Y122.097 E25.35907
G1 X120.51 Y124.423 E25.529
G1 X119.77 Y125.026 E25.57662
G1 X116.994 Y126.988 E25.74622
G1 X116.177 Y127.486 E25.79395
G1 X113.156 Y129.053 E25.96374
G1 X112.28 Y129.434 E26.0114
G1 X109.074 Y130.575 E26.18117
G1 X108.154 Y130.833 E26.22884
G1 X104.82 Y131.527 E26.39874
G1 X103.872 Y131.658 E26.44649
G1 X100.638 Y131.88 E26.60821
G1 X99.726 Y131.883 E26.65371
G1 X96.335 Y131.673 E26.82321
G1 X95.383 Y131.548 E26.87112
G1 X91.895 Y130.844 E27.04864
G1 X90.936 Y130.578 E27.09829
G1 X87.733 Y129.44 E27.26788
G1 X86.855 Y129.059 E27.31563
G1 X83.836 Y127.494 E27.48528
G1 X83.024 Y127 E27.5327
G1 X80.249 Y125.043 E27.70211
G1 X79.505 Y124.438 E27.74995
G1 X77.018 Y122.115 E27.91974
G1 X76.365 Y121.415 E27.9675
G1 X74.221 Y118.778 E28.13705
G1 X73.672 Y118.001 E28.18452
G1 X71.905 Y115.097 E28.35411
G1 X71.465 Y114.247 E28.40186
G1 X70.11 Y111.128 E28.57152
G1 X69.789 Y110.226 E28.61929
G1 X68.873 Y106.954 E28.7888
G1 X68.679 Y106.021 E28.83635
G1 X68.216 Y102.654 E29.00591
G1 X68.151 Y101.7 E29.05361
G1 X68.151 Y98.303 E29.22309
G1 X68.216 Y97.35 E29.27075
G1 X68.679 Y93.98 E29.44046
G1 X68.873 Y93.046 E29.48805
G1 X69.789 Y89.774 E29.65756
G1 X70.11 Y88.872 E29.70533
G1 X71.465 Y85.753 E29.87499
G1 X71.904 Y84.905 E29.92263
G1 X73.67 Y82.001 E30.09219
G1 X74.221 Y81.221 E30.13984
G1 X76.366 Y78.584 E30.30943
G1 X77.018 Y77.885 E30.35712
G0 F3600 X77.291 Y78.178
G1 F1800 X79.778 Y75.855 E30.5269
G1 X80.479 Y75.284 E30.57201
G1 X83.254 Y73.327 E30.74142
G1 X84.021 Y72.861 E30.78619
G1 X87.04 Y71.296 E30.95585
G1 X87.867 Y70.937 E31.00082
G1 X91.07 Y69.799 E31.17041
G1 X91.936 Y69.556 E31.21528
G1 X95.267 Y68.863 E31.38503
G1 X96.16 Y68.74 E31.43
G1 X99.549 Y68.508 E31.59947
G1 X100.445 Y68.508 E31.64417
G1 X103.758 Y68.732 E31.80984
G1 X104.637 Y68.851 E31.85409
G1 X107.973 Y69.534 E32.02398
G1 X108.841 Y69.775 E32.06892
G1 X112.05 Y70.905 E32.23865
G1 X112.879 Y71.262 E32.28368
G1 X115.905 Y72.82 E32.45349
G1 X116.672 Y73.283 E32.49818
G1 X119.456 Y75.234 E32.66779
G1 X120.162 Y75.806 E32.71312
G1 X122.656 Y78.125 E32.88303
G1 X123.272 Y78.781 E32.92792
G1 X125.423 Y81.413 E33.09751
G1 X125.942 Y82.145 E33.14227
G1 X127.718 Y85.047 E33.31202
G1 X128.136 Y85.848 E33.35709
G1 X129.499 Y88.966 E33.52686
G1 X129.804 Y89.818 E33.57201
G1 X130.728 Y93.094 E33.74183
G1 X130.913 Y93.974 E33.78669
G1 X131.383 Y97.344 E33.95645
G1 X131.446 Y98.246 E34.00156
G1 X131.451 Y101.648 E34.17128
G1 X131.391 Y102.546 E34.21619
G1 X130.933 Y105.921 E34.38611
G1 X130.751 Y106.805 E34.43114
G1 X129.838 Y110.081 E34.60081
G1 X129.537 Y110.93 E34.64575
G1 X128.185 Y114.054 E34.81557
G1 X127.771 Y114.857 E34.86065
G1 X126.006 Y117.766 E35.0304
G1 X125.487 Y118.502 E35.07533
G1 X123.342 Y121.144 E35.24511
G1 X122.725 Y121.805 E35.29022
G1 X120.237 Y124.131 E35.46015
G1 X119.539 Y124.7 E35.50508
G1 X116.763 Y126.662 E35.67467
G1 X115.993 Y127.131 E35.71965
G1 X112.972 Y128.698 E35.88944
G1 X112.146 Y129.057 E35.93437
G1 X108.94 Y130.198 E36.10415
G1 X108.072 Y130.441 E36.14912
G1 X104.738 Y131.135 E36.31902
G1 X103.845 Y131.259 E36.364
G1 X100.611 Y131.481 E36.52572
G1 X99.751 Y131.483 E36.56863
G1 X96.36 Y131.273 E36.73813
G1 X95.462 Y131.156 E36.78331
G1 X91.974 Y130.452 E36.96083
G1 X91.07 Y130.201 E37.00764
G1 X87.867 Y129.063 E37.17722
G1 X87.04 Y128.704 E37.2222
G1 X84.021 Y127.139 E37.39186
G1 X83.254 Y126.673 E37.43663
G1 X80.479 Y124.716 E37.60604
G1 X79.778 Y124.145 E37.65115
G1 X77.291 Y121.822 E37.82093
G1 X76.675 Y121.163 E37.86594
G1 X74.531 Y118.526 E38.03549
G1 X74.014 Y117.793 E38.08025
G1 X72.247 Y114.889 E38.24984
G1 X71.832 Y114.088 E38.29485
G1 X70.477 Y110.969 E38.4645
G1 X70.174 Y110.118 E38.50957
G1 X69.258 Y106.846 E38.67909
G1 X69.076 Y105.966 E38.72392
G1 X68.613 Y102.599 E38.89348
G1 X68.551 Y101.7 E38.93844
G1 X68.551 Y98.303 E39.10792
G1 X68.612 Y97.405 E39.15282
G1 X69.075 Y94.035 E39.32253
G1 X69.258 Y93.154 E39.36742
G1 X70.174 Y89.882 E39.53694
G1 X70.477 Y89.031 E39.58201
G1 X71.832 Y85.912 E39.75166
G1 X72.246 Y85.113 E39.79656
G1 X74.012 Y82.209 E39.96613
G1 X74.531 Y81.473 E40.01106
G1 X76.676 Y78.836 E40.18065
G1 X77.291 Y78.178 E40.22558
G0 F3600 X77.564 Y78.47
G1 F1800 X80.051 Y76.147 E40.39536
G1 X80.71 Y75.611 E40.43774
G1 X83.485 Y73.654 E40.60715
G1 X84.205 Y73.217 E40.64917
G1 X87.224 Y71.652 E40.81883
G1 X88.001 Y71.314 E40.8611
G1 X91.204 Y70.176 E41.03068
G1 X92.017 Y69.948 E41.07281
G1 X95.348 Y69.255 E41.24255
G1 X96.188 Y69.139 E41.28486
G1 X99.577 Y68.907 E41.45433
G1 X100.418 Y68.907 E41.49629
G1 X103.731 Y69.131 E41.66195
G1 X104.557 Y69.243 E41.70354
G1 X107.893 Y69.926 E41.87343
G1 X108.708 Y70.152 E41.91562
G1 X111.917 Y71.282 E42.08535
G1 X112.696 Y71.618 E42.12768
G1 X115.722 Y73.176 E42.29748
G1 X116.442 Y73.611 E42.33945
G1 X119.226 Y75.562 E42.50906
G1 X119.89 Y76.099 E42.55166
G1 X122.384 Y78.418 E42.72156
G1 X122.963 Y79.035 E42.76378
G1 X125.114 Y81.667 E42.93336
G1 X125.601 Y82.354 E42.97537
G1 X127.377 Y85.256 E43.14512
G1 X127.77 Y86.009 E43.18749
G1 X129.133 Y89.127 E43.35726
G1 X129.419 Y89.927 E43.39965
G1 X130.343 Y93.203 E43.56947
G1 X130.517 Y94.03 E43.61163
G1 X130.987 Y97.4 E43.78139
G1 X131.046 Y98.247 E43.82375
G1 X131.051 Y101.649 E43.99347
G1 X130.995 Y102.492 E44.03562
G1 X130.537 Y105.867 E44.20555
G1 X130.365 Y106.697 E44.24783
G1 X129.452 Y109.973 E44.4175
G1 X129.17 Y110.772 E44.45978
G1 X127.818 Y113.896 E44.6296
G1 X127.429 Y114.649 E44.67189
G1 X125.664 Y117.558 E44.84164
G1 X125.176 Y118.25 E44.88389
G1 X123.031 Y120.892 E45.05367
G1 X122.452 Y121.513 E45.09603
G1 X119.964 Y123.839 E45.26595
G1 X119.308 Y124.373 E45.30815
G1 X116.532 Y126.335 E45.47775
G1 X115.809 Y126.776 E45.52
G1 X112.788 Y128.343 E45.68978
G1 X112.012 Y128.68 E45.73199
G1 X108.806 Y129.821 E45.90177
G1 X107.99 Y130.05 E45.94405
G1 X104.656 Y130.744 E46.11395
G1 X103.818 Y130.859 E46.15615
G1 X100.584 Y131.081 E46.31787
G1 X99.776 Y131.084 E46.35819
G1 X96.385 Y130.874 E46.52769
G1 X95.541 Y130.763 E46.57016
G1 X92.053 Y130.059 E46.74768
G1 X91.204 Y129.824 E46.79163
G1 X88.001 Y128.686 E46.96122
G1 X87.224 Y128.348 E47.00349
G1 X84.205 Y126.783 E47.17314
G1 X83.485 Y126.346 E47.21516
G1 X80.71 Y124.389 E47.38457
G1 X80.051 Y123.853 E47.42695
G1 X77.564 Y121.53 E47.59674
G1 X76.985 Y120.91 E47.63906
G1 X74.841 Y118.273 E47.80862
G1 X74.355 Y117.585 E47.85064
G1 X72.588 Y114.681 E48.02024
G1 X72.198 Y113.928 E48.06254
G1 X70.843 Y110.809 E48.2322
G1 X70.56 Y110.01 E48.27449
G1 X69.644 Y106.738 E48.44401
G1 X69.472 Y105.912 E48.4861
G1 X69.009 Y102.545 E48.65566
G1 X68.951 Y101.7 E48.69792
G1 X68.951 Y98.303 E48.86739
G1 X69.009 Y97.459 E48.9096
G1 X69.472 Y94.089 E49.07931
G1 X69.644 Y93.262 E49.12145
G1 X70.56 Y89.99 E49.29097
G1 X70.843 Y89.191 E49.33326
G1 X72.198 Y86.072 E49.50292
G1 X72.588 Y85.321 E49.54513
G1 X74.354 Y82.417 E49.7147
G1 X74.841 Y81.726 E49.75688
G1 X76.986 Y79.089 E49.92647
G1 X77.564 Y78.47 E49.96872
G0 F3600 X77.837 Y78.762
G1 F1800 X80.324 Y76.439 E50.1385
G1 X80.94 Y75.938 E50.17812
G1 X83.715 Y73.981 E50.34753
G1 X84.389 Y73.572 E50.38686
G1 X87.408 Y72.007 E50.55651
G1 X88.135 Y71.691 E50.59606
G1 X91.338 Y70.553 E50.76564
G1 X92.099 Y70.34 E50.80507
G1 X95.43 Y69.647 E50.97481
G1 X96.215 Y69.539 E51.01435
G1 X99.604 Y69.307 E51.18382
G1 X100.391 Y69.306 E51.22308
G1 X103.704 Y69.53 E51.38875
G1 X104.476 Y69.635 E51.42762
G1 X107.812 Y70.318 E51.5975
G1 X108.575 Y70.529 E51.637
G1 X111.784 Y71.659 E51.80673
G1 X112.513 Y71.973 E51.84633
G1 X115.539 Y73.531 E52.01613
G1 X116.213 Y73.938 E52.05542
G1 X118.997 Y75.889 E52.22502
G1 X119.617 Y76.391 E52.26482
G1 X122.111 Y78.71 E52.43472
G1 X122.653 Y79.288 E52.47426
G1 X124.804 Y81.92 E52.64384
G1 X125.26 Y82.562 E52.68313
G1 X127.036 Y85.464 E52.85287
G1 X127.403 Y86.169 E52.89252
G1 X128.766 Y89.287 E53.06229
G1 X129.034 Y90.036 E53.10198
G1 X129.958 Y93.312 E53.2718
G1 X130.12 Y94.085 E53.3112
G1 X130.59 Y97.455 E53.48096
G1 X130.646 Y98.247 E53.52057
G1 X130.651 Y101.649 E53.6903
G1 X130.598 Y102.438 E53.72975
G1 X130.14 Y105.813 E53.89967
G1 X129.98 Y106.59 E53.93925
G1 X129.067 Y109.866 E54.10892
G1 X128.803 Y110.613 E54.14844
G1 X127.451 Y113.737 E54.31827
G1 X127.087 Y114.442 E54.35786
