;FLAVOR:Marlin
;TIME:3376
;Filament used: 4.77953m
;Layer height: 0.3
;MINX:75.915
;MINY:75.928
;MINZ:0.3
;MAXX:124.085
;MAXY:124.083
;MAXZ:84.9
;Generated with Cura_SteamEngine 4.8.0
M140 S60
M105
M190 S60
M104 S210
M105
M109 S210
M82 ;absolute extrusion mode
G28 ;Home
G12 P1 S2 T3
G29 ;auto bed leveling
G1 Z15.0 F6000 ;Move the platform down 15mm
;Prime the extruder
G92 E0
G1 F200 E3
G92 E0
G12 P0 S1
G92 E0
G92 E0
G1 F1500 E-6.5
;LAYER_COUNT:283
;LAYER:0
M107
G0 F3600 X82.911 Y83.038 Z0.3
;TYPE:SKIRT
G1 F1500 E0
G1 F1800 X83.453 Y82.51 E0.03775
G1 X84.572 Y81.52 E0.11229
G1 X84.577 Y81.526 E0.11268
G1 X85.219 Y80.993 E0.15431
G1 X86.43 Y80.115 E0.22893
G1 X86.433 Y80.119 E0.22918
G1 X87.12 Y79.657 E0.27049
G1 X88.476 Y78.86 E0.34896
G1 X89.152 Y78.505 E0.38705
G1 X90.509 Y77.877 E0.46165
G1 X90.512 Y77.883 E0.46199
G1 X91.271 Y77.561 E0.50312
G1 X92.758 Y77.039 E0.58174
G1 X93.471 Y76.827 E0.61886
G1 X94.997 Y76.45 E0.69728
G1 X95.745 Y76.303 E0.73531
G1 X97.305 Y76.076 E0.81396
G1 X98.051 Y76.004 E0.85135
G1 X99.623 Y75.928 E0.92987
G1 X100.377 Y75.928 E0.96748
G1 X101.949 Y76.004 E1.046
G1 X102.704 Y76.078 E1.08385
G1 X104.184 Y76.295 E1.15848
G1 X105.003 Y76.45 E1.20006
G1 X106.529 Y76.827 E1.27848
G1 X107.242 Y77.039 E1.3156
G1 X108.729 Y77.561 E1.39422
G1 X109.431 Y77.847 E1.43204
G1 X110.856 Y78.509 E1.51043
G1 X111.522 Y78.858 E1.54794
G1 X112.88 Y79.656 E1.62652
G1 X113.514 Y80.072 E1.66436
G1 X114.788 Y80.998 E1.74293
G1 X115.381 Y81.474 E1.78087
G1 X116.558 Y82.519 E1.85939
G1 X117.089 Y83.038 E1.89644
G1 X118.162 Y84.191 E1.97502
G1 X118.65 Y84.77 E2.01279
G1 X119.605 Y86.02 E2.09128
G1 X120.034 Y86.641 E2.12893
G1 X120.823 Y87.912 E2.20357
G1 X120.818 Y87.915 E2.20386
G1 X121.234 Y88.64 E2.24556
G1 X121.93 Y90.051 E2.32405
G1 X122.229 Y90.738 E2.36143
G1 X122.788 Y92.213 E2.44013
G1 X123.019 Y92.923 E2.47738
G1 X123.433 Y94.44 E2.55583
G1 X123.597 Y95.18 E2.59364
G1 X123.862 Y96.731 E2.67214
G1 X123.953 Y97.48 E2.70979
G1 X124.067 Y99.051 E2.78837
G1 X124.085 Y99.804 E2.82595
G1 X124.047 Y101.378 E2.9045
G1 X123.992 Y102.131 E2.94217
G1 X123.802 Y103.694 E3.02072
G1 X123.675 Y104.436 E3.05827
G1 X123.335 Y105.975 E3.13691
G1 X123.136 Y106.705 E3.17466
G1 X122.674 Y108.125 E3.24916
G1 X122.669 Y108.123 E3.24942
G1 X122.384 Y108.906 E3.291
G1 X121.754 Y110.35 E3.36959
G1 X121.422 Y111.021 E3.40694
G1 X120.657 Y112.397 E3.48549
G1 X120.257 Y113.041 E3.52331
G1 X119.363 Y114.335 E3.60178
G1 X118.906 Y114.933 E3.63933
G1 X117.941 Y116.076 E3.71396
G1 X117.935 Y116.071 E3.71435
G1 X117.373 Y116.695 E3.75624
G1 X116.245 Y117.793 E3.83478
G1 X115.69 Y118.284 E3.87175
G1 X114.462 Y119.271 E3.95035
G1 X113.85 Y119.716 E3.9881
G1 X112.534 Y120.578 E4.06659
G1 X111.882 Y120.961 E4.10431
G1 X110.488 Y121.692 E4.18284
G1 X109.811 Y122.006 E4.22007
G1 X108.352 Y122.601 E4.29868
G1 X107.636 Y122.854 E4.33657
G1 X106.13 Y123.303 E4.41497
G1 X105.4 Y123.483 E4.45248
G1 X103.853 Y123.786 E4.53113
G1 X103.107 Y123.895 E4.56874
G1 X101.54 Y124.047 E4.64729
G1 X100.787 Y124.083 E4.6849
G1 X99.213 Y124.083 E4.76343
G1 X98.46 Y124.047 E4.80104
G1 X96.893 Y123.895 E4.87958
G1 X96.147 Y123.786 E4.91719
G1 X94.6 Y123.483 E4.99584
G1 X93.87 Y123.303 E5.03335
G1 X92.364 Y122.854 E5.11175
G1 X91.648 Y122.601 E5.14964
G1 X90.189 Y122.006 E5.22825
G1 X89.512 Y121.692 E5.26548
G1 X88.118 Y120.961 E5.34401
G1 X87.466 Y120.578 E5.38174
G1 X86.15 Y119.716 E5.46022
G1 X85.541 Y119.273 E5.49779
G1 X84.313 Y118.287 E5.57636
G1 X83.744 Y117.783 E5.61429
G1 X82.675 Y116.738 E5.68887
G1 X82.68 Y116.733 E5.68922
G1 X82.1 Y116.128 E5.73103
G1 X81.086 Y114.923 E5.8096
G1 X80.637 Y114.335 E5.84651
G1 X79.743 Y113.041 E5.92498
G1 X79.343 Y112.397 E5.9628
G1 X78.578 Y111.021 E6.04135
G1 X78.242 Y110.341 E6.07919
G1 X77.646 Y108.97 E6.15377
G1 X77.344 Y108.189 E6.19555
G1 X76.86 Y106.694 E6.27395
G1 X76.665 Y105.975 E6.31111
G1 X76.325 Y104.436 E6.38975
G1 X76.198 Y103.695 E6.42725
G1 X76.008 Y102.134 E6.50571
G1 X75.953 Y101.38 E6.54342
G1 X75.915 Y99.805 E6.62202
G1 X75.933 Y99.052 E6.6596
G1 X76.047 Y97.482 E6.73814
G1 X76.138 Y96.735 E6.77568
G1 X76.403 Y95.182 E6.85428
G1 X76.567 Y94.44 E6.89219
G1 X76.981 Y92.923 E6.97064
G1 X77.212 Y92.214 E7.00784
G1 X77.77 Y90.741 E7.08643
G1 X78.069 Y90.053 E7.12385
G1 X78.765 Y88.642 E7.20235
G1 X79.138 Y87.972 E7.2406
G1 X79.97 Y86.635 E7.31917
G1 X80.394 Y86.02 E7.35644
G1 X81.35 Y84.769 E7.43499
G1 X81.838 Y84.191 E7.47273
G1 X82.911 Y83.038 E7.55131
G0 F3600 X83.204 Y83.311
G1 F1800 X83.718 Y82.81 E7.58712
G1 X84.837 Y81.82 E7.66165
G1 X84.841 Y81.825 E7.66197
G1 X85.453 Y81.317 E7.70166
G1 X86.664 Y80.439 E7.77628
G1 X87.322 Y80.001 E7.81572
G1 X88.678 Y79.204 E7.89419
G1 X89.32 Y78.868 E7.93034
G1 X90.677 Y78.24 E8.00494
G1 X90.68 Y78.246 E8.00527
G1 X91.404 Y77.939 E8.04451
G1 X92.891 Y77.417 E8.12313
G1 X93.567 Y77.215 E8.15833
G1 X95.093 Y76.838 E8.23675
G1 X95.802 Y76.699 E8.2728
G1 X97.362 Y76.472 E8.35145
G1 X98.071 Y76.404 E8.38698
G1 X99.643 Y76.328 E8.4655
G1 X100.357 Y76.328 E8.50112
G1 X101.929 Y76.404 E8.57964
G1 X102.646 Y76.473 E8.61558
G1 X104.126 Y76.69 E8.6902
G1 X104.907 Y76.838 E8.72986
G1 X106.433 Y77.215 E8.80828
G1 X107.109 Y77.417 E8.84348
G1 X108.596 Y77.939 E8.92211
G1 X109.263 Y78.21 E8.95803
G1 X110.688 Y78.872 E9.03642
G1 X111.319 Y79.203 E9.07197
G1 X112.677 Y80.001 E9.15055
G1 X113.279 Y80.395 E9.18644
G1 X114.553 Y81.321 E9.26502
G1 X115.115 Y81.773 E9.301
G1 X116.292 Y82.818 E9.37952
G1 X116.796 Y83.311 E9.4147
G1 X117.869 Y84.464 E9.49328
G1 X118.332 Y85.012 E9.52907
G1 X119.287 Y86.262 E9.60755
G1 X119.694 Y86.852 E9.64331
G1 X120.483 Y88.123 E9.71794
G1 X120.479 Y88.126 E9.71819
G1 X120.876 Y88.817 E9.75795
G1 X121.572 Y90.228 E9.83645
G1 X121.855 Y90.88 E9.87191
G1 X122.414 Y92.355 E9.9506
G1 X122.633 Y93.029 E9.98596
G1 X123.047 Y94.546 E10.06441
G1 X123.202 Y95.248 E10.10028
G1 X123.467 Y96.799 E10.17878
G1 X123.554 Y97.509 E10.21446
G1 X123.668 Y99.08 E10.29305
G1 X123.685 Y99.795 E10.32873
G1 X123.647 Y101.369 E10.40728
G1 X123.595 Y102.083 E10.44299
G1 X123.405 Y103.646 E10.52155
G1 X123.285 Y104.349 E10.55713
G1 X122.945 Y105.888 E10.63576
G1 X122.756 Y106.581 E10.6716
G1 X122.294 Y108.001 E10.7461
G1 X122.289 Y107.999 E10.74636
G1 X122.018 Y108.746 E10.78601
G1 X121.388 Y110.19 E10.86461
G1 X121.073 Y110.827 E10.90006
G1 X120.308 Y112.203 E10.97861
G1 X119.928 Y112.813 E11.01446
G1 X119.034 Y114.107 E11.09293
G1 X118.6 Y114.675 E11.12859
G1 X117.635 Y115.818 E11.20322
G1 X117.63 Y115.814 E11.20354
G1 X117.094 Y116.409 E11.24349
G1 X115.966 Y117.507 E11.32203
G1 X115.44 Y117.972 E11.35706
G1 X114.212 Y118.959 E11.43566
G1 X113.631 Y119.381 E11.47148
G1 X112.315 Y120.243 E11.54997
G1 X111.697 Y120.607 E11.58575
G1 X110.303 Y121.338 E11.66428
G1 X109.66 Y121.636 E11.69964
G1 X108.201 Y122.231 E11.77825
G1 X107.521 Y122.471 E11.81422
G1 X106.015 Y122.92 E11.89263
G1 X105.323 Y123.09 E11.92818
G1 X103.776 Y123.393 E12.00682
G1 X103.068 Y123.496 E12.04252
G1 X101.501 Y123.648 E12.12106
G1 X100.787 Y123.683 E12.15673
G1 X99.213 Y123.683 E12.23526
G1 X98.499 Y123.648 E12.27092
G1 X96.932 Y123.496 E12.34946
G1 X96.224 Y123.393 E12.38516
G1 X94.677 Y123.09 E12.46381
G1 X93.985 Y122.92 E12.49936
G1 X92.479 Y122.471 E12.57776
G1 X91.799 Y122.231 E12.61373
G1 X90.34 Y121.636 E12.69234
G1 X89.697 Y121.338 E12.7277
G1 X88.303 Y120.607 E12.80623
G1 X87.685 Y120.243 E12.84201
G1 X86.369 Y119.381 E12.9205
G1 X85.791 Y118.961 E12.95615
G1 X84.563 Y117.975 E13.03472
G1 X84.023 Y117.497 E13.0707
G1 X82.954 Y116.452 E13.14528
G1 X82.959 Y116.447 E13.14563
G1 X82.406 Y115.871 E13.18547
G1 X81.392 Y114.666 E13.26404
G1 X80.966 Y114.107 E13.2991
G1 X80.072 Y112.813 E13.37757
G1 X79.692 Y112.203 E13.41342
G1 X78.927 Y110.827 E13.49197
G1 X78.609 Y110.181 E13.52789
G1 X78.013 Y108.81 E13.60247
G1 X77.725 Y108.066 E13.64228
G1 X77.241 Y106.571 E13.72067
G1 X77.055 Y105.888 E13.75599
G1 X76.715 Y104.349 E13.83462
G1 X76.595 Y103.647 E13.87015
G1 X76.405 Y102.086 E13.94861
G1 X76.353 Y101.37 E13.98442
G1 X76.315 Y99.795 E14.06302
G1 X76.332 Y99.081 E14.09865
G1 X76.446 Y97.511 E14.17719
G1 X76.532 Y96.802 E14.21282
G1 X76.797 Y95.249 E14.29142
G1 X76.953 Y94.546 E14.32734
G1 X77.367 Y93.029 E14.40579
G1 X77.586 Y92.356 E14.4411
G1 X78.144 Y90.883 E14.51969
G1 X78.427 Y90.23 E14.55519
G1 X79.123 Y88.819 E14.63369
G1 X79.477 Y88.183 E14.67
G1 X80.309 Y86.846 E14.74857
G1 X80.712 Y86.263 E14.78392
G1 X81.668 Y85.012 E14.86247
G1 X82.131 Y84.464 E14.89827
G1 X83.204 Y83.311 E14.97684
G0 F3600 X83.497 Y83.583
G1 F1800 X83.983 Y83.109 E15.01071
G1 X85.102 Y82.119 E15.08525
G1 X85.106 Y82.124 E15.08557
G1 X85.688 Y81.641 E15.12331
G1 X86.899 Y80.763 E15.19793
G1 X87.525 Y80.346 E15.23546
G1 X88.881 Y79.549 E15.31393
G1 X89.488 Y79.231 E15.34812
G1 X90.845 Y78.603 E15.42272
G1 X90.847 Y78.608 E15.42298
G1 X91.536 Y78.316 E15.46032
G1 X93.023 Y77.794 E15.53894
G1 X93.663 Y77.603 E15.57226
G1 X95.189 Y77.226 E15.65069
G1 X95.86 Y77.095 E15.68479
G1 X97.42 Y76.868 E15.76344
G1 X98.09 Y76.803 E15.79703
G1 X99.662 Y76.727 E15.87555
G1 X100.338 Y76.727 E15.90927
G1 X101.91 Y76.803 E15.98779
G1 X102.587 Y76.869 E16.02173
G1 X104.067 Y77.086 E16.09635
G1 X104.811 Y77.226 E16.13412
G1 X106.337 Y77.603 E16.21254
G1 X106.977 Y77.794 E16.24587
G1 X108.464 Y78.316 E16.32449
G1 X109.094 Y78.573 E16.35844
G1 X110.519 Y79.235 E16.43683
G1 X111.116 Y79.548 E16.47046
G1 X112.474 Y80.346 E16.54904
G1 X113.044 Y80.719 E16.58302
G1 X114.318 Y81.645 E16.6616
G1 X114.85 Y82.072 E16.69563
G1 X116.027 Y83.117 E16.77416
G1 X116.503 Y83.583 E16.80739
G1 X117.576 Y84.736 E16.88597
G1 X118.014 Y85.255 E16.91985
G1 X118.969 Y86.505 E16.99833
G1 X119.354 Y87.063 E17.03215
G1 X120.143 Y88.334 E17.10679
G1 X120.139 Y88.337 E17.10704
G1 X120.517 Y88.994 E17.14485
G1 X121.213 Y90.405 E17.22335
G1 X121.481 Y91.021 E17.25686
G1 X122.04 Y92.496 E17.33556
G1 X122.247 Y93.134 E17.36902
G1 X122.661 Y94.651 E17.44747
G1 X122.808 Y95.315 E17.4814
G1 X123.073 Y96.866 E17.5599
G1 X123.155 Y97.538 E17.59368
G1 X123.269 Y99.109 E17.67226
G1 X123.285 Y99.785 E17.706
G1 X123.247 Y101.359 E17.78455
G1 X123.198 Y102.035 E17.81836
G1 X123.008 Y103.598 E17.89691
G1 X122.894 Y104.263 E17.93057
G1 X122.554 Y105.802 E18.00921
G1 X122.376 Y106.458 E18.04312
G1 X121.914 Y107.878 E18.11762
G1 X121.909 Y107.876 E18.11789
G1 X121.651 Y108.586 E18.15557
G1 X121.021 Y110.03 E18.23417
G1 X120.723 Y110.632 E18.26769
G1 X119.958 Y112.008 E18.34623
G1 X119.599 Y112.586 E18.38018
G1 X118.705 Y113.88 E18.45864
G1 X118.295 Y114.417 E18.49235
G1 X117.33 Y115.56 E18.56698
G1 X117.325 Y115.556 E18.5673
G1 X116.815 Y116.122 E18.60531
G1 X115.687 Y117.22 E18.68385
G1 X115.189 Y117.66 E18.717
G1 X113.961 Y118.647 E18.7956
G1 X113.412 Y119.047 E18.82949
G1 X112.096 Y119.909 E18.90798
G1 X111.511 Y120.252 E18.94181
G1 X110.117 Y120.983 E19.02034
G1 X109.509 Y121.266 E19.0538
G1 X108.05 Y121.861 E19.13241
G1 X107.407 Y122.087 E19.16641
G1 X105.901 Y122.536 E19.24481
G1 X105.246 Y122.697 E19.27846
G1 X103.699 Y123 E19.35711
G1 X103.03 Y123.098 E19.39084
G1 X101.463 Y123.25 E19.46939
G1 X100.787 Y123.283 E19.50315
G1 X99.213 Y123.283 E19.58168
G1 X98.537 Y123.25 E19.61545
G1 X96.97 Y123.098 E19.69399
G1 X96.301 Y123 E19.72772
G1 X94.754 Y122.697 E19.80637
G1 X94.099 Y122.536 E19.84002
G1 X92.593 Y122.087 E19.91842
G1 X91.95 Y121.861 E19.95243
G1 X90.491 Y121.266 E20.03104
G1 X89.883 Y120.983 E20.0645
G1 X88.489 Y120.252 E20.14302
G1 X87.904 Y119.909 E20.17686
G1 X86.588 Y119.047 E20.25534
G1 X86.041 Y118.649 E20.28909
G1 X84.813 Y117.663 E20.36766
G1 X84.303 Y117.211 E20.40166
G1 X83.234 Y116.166 E20.47624
G1 X83.238 Y116.162 E20.47653
G1 X82.712 Y115.613 E20.51446
G1 X81.698 Y114.408 E20.59303
G1 X81.295 Y113.88 E20.62617
G1 X80.401 Y112.586 E20.70463
G1 X80.042 Y112.008 E20.73858
G1 X79.277 Y110.632 E20.81712
G1 X78.975 Y110.022 E20.85108
G1 X78.379 Y108.651 E20.92567
G1 X78.105 Y107.943 E20.96354
G1 X77.621 Y106.448 E21.04194
G1 X77.446 Y105.802 E21.07533
G1 X77.106 Y104.263 E21.15396
G1 X76.992 Y103.599 E21.18757
G1 X76.802 Y102.038 E21.26603
G1 X76.753 Y101.361 E21.29989
G1 X76.715 Y99.786 E21.37849
G1 X76.731 Y99.11 E21.41223
G1 X76.845 Y97.54 E21.49076
G1 X76.927 Y96.87 E21.52444
G1 X77.192 Y95.317 E21.60303
G1 X77.339 Y94.651 E21.63706
G1 X77.753 Y93.134 E21.71551
G1 X77.96 Y92.497 E21.74893
G1 X78.518 Y91.024 E21.82751
G1 X78.786 Y90.407 E21.86107
G1 X79.482 Y88.996 E21.93957
G1 X79.817 Y88.395 E21.97389
G1 X80.649 Y87.058 E22.05246
G1 X81.03 Y86.506 E22.08592
G1 X81.986 Y85.255 E22.16447
G1 X82.424 Y84.736 E22.19835
G1 X83.497 Y83.583 E22.27693
G0 F3600 X83.789 Y83.856
G1 F1800 X84.248 Y83.409 E22.3089
G1 X85.367 Y82.419 E22.38344
G1 X85.371 Y82.423 E22.38372
G1 X85.923 Y81.965 E22.4195
G1 X87.134 Y81.087 E22.49413
G1 X87.728 Y80.691 E22.52974
G1 X89.084 Y79.894 E22.60822
G1 X89.656 Y79.594 E22.64044
G1 X91.013 Y78.966 E22.71504
G1 X91.015 Y78.971 E22.71531
G1 X91.669 Y78.694 E22.75074
G1 X93.156 Y78.172 E22.82937
G1 X93.759 Y77.992 E22.86076
G1 X95.285 Y77.615 E22.93918
G1 X95.918 Y77.491 E22.97136
G1 X97.478 Y77.264 E23.05001
G1 X98.109 Y77.203 E23.08164
G1 X99.681 Y77.127 E23.16016
G1 X100.319 Y77.127 E23.19199
G1 X101.891 Y77.203 E23.27051
G1 X102.529 Y77.265 E23.30249
G1 X104.009 Y77.482 E23.37711
G1 X104.715 Y77.615 E23.41296
G1 X106.241 Y77.992 E23.49138
G1 X106.844 Y78.172 E23.52277
G1 X108.331 Y78.694 E23.6014
G1 X108.926 Y78.935 E23.63343
G1 X110.351 Y79.597 E23.71182
G1 X110.914 Y79.893 E23.74355
G1 X112.272 Y80.691 E23.82213
G1 X112.808 Y81.042 E23.8541
G1 X114.082 Y81.968 E23.93267
G1 X114.584 Y82.372 E23.96482
G1 X115.761 Y83.417 E24.04335
G1 X116.211 Y83.856 E24.07471
G1 X117.284 Y85.009 E24.15329
G1 X117.697 Y85.498 E24.18522
G1 X118.652 Y86.748 E24.2637
G1 X119.014 Y87.274 E24.29556
G1 X119.803 Y88.545 E24.37019
G1 X120.158 Y89.171 E24.4061
G1 X120.854 Y90.582 E24.48459
G1 X121.107 Y91.163 E24.51621
G1 X121.666 Y92.638 E24.5949
G1 X121.861 Y93.239 E24.62643
G1 X122.275 Y94.756 E24.70488
G1 X122.414 Y95.382 E24.73687
G1 X122.679 Y96.933 E24.81537
G1 X122.756 Y97.567 E24.84723
G1 X122.87 Y99.138 E24.92582
G1 X122.885 Y99.775 E24.9576
G1 X122.847 Y101.349 E25.03615
G1 X122.801 Y101.986 E25.06802
G1 X122.611 Y103.549 E25.14657
G1 X122.504 Y104.177 E25.17835
G1 X122.164 Y105.716 E25.25698
G1 X121.995 Y106.334 E25.28895
G1 X121.533 Y107.754 E25.36345
G1 X121.284 Y108.426 E25.3992
G1 X120.654 Y109.87 E25.4778
G1 X120.373 Y110.438 E25.50942
G1 X119.608 Y111.814 E25.58796
G1 X119.27 Y112.359 E25.61996
G1 X118.376 Y113.653 E25.69842
G1 X117.989 Y114.159 E25.73021
G1 X117.024 Y115.302 E25.80484
G1 X117.02 Y115.298 E25.80512
G1 X116.536 Y115.835 E25.84118
G1 X115.408 Y116.933 E25.91972
G1 X114.939 Y117.348 E25.95096
G1 X113.711 Y118.335 E26.02956
G1 X113.192 Y118.712 E26.06157
G1 X111.876 Y119.574 E26.14005
G1 X111.325 Y119.898 E26.17194
G1 X109.931 Y120.629 E26.25047
G1 X109.358 Y120.895 E26.28199
G1 X107.899 Y121.49 E26.3606
G1 X107.293 Y121.704 E26.39266
G1 X105.787 Y122.153 E26.47107
G1 X105.17 Y122.305 E26.50277
G1 X103.623 Y122.608 E26.58142
G1 X102.991 Y122.7 E26.61328
G1 X101.424 Y122.852 E26.69182
G1 X100.787 Y122.883 E26.72364
G1 X99.213 Y122.883 E26.80217
G1 X98.576 Y122.852 E26.83399
G1 X97.009 Y122.7 E26.91253
G1 X96.377 Y122.608 E26.94439
G1 X94.83 Y122.305 E27.02304
G1 X94.213 Y122.153 E27.05474
G1 X92.707 Y121.704 E27.13315
G1 X92.101 Y121.49 E27.16521
G1 X90.642 Y120.895 E27.24382
G1 X90.069 Y120.629 E27.27534
G1 X88.675 Y119.898 E27.35387
G1 X88.124 Y119.574 E27.38576
