;FLAVOR:Marlin
;TIME:4148
;Filament used: 6.04789m
;Layer height: 0.3
;MINX:74.395
;MINY:74.41
;MINZ:0.3
;MAXX:125.605
;MAXY:125.603
;MAXZ:103.8
;Generated with Cura_SteamEngine 4.8.0
M140 S60
M105
M190 S60
M104 S210
M105
M109 S210
M82 ;absolute extrusion mode
G28 ;Home
G12 P1 S2 T3
G29 ;auto bed leveling
G1 Z15.0 F6000 ;Move the platform down 15mm
;Prime the extruder
G92 E0
G1 F200 E3
G92 E0
G12 P0 S1
G92 E0
G92 E0
G1 F1500 E-6.5
;LAYER_COUNT:346
;LAYER:0
M107
G0 F3600 X82.324 Y81.485 Z0.3
;TYPE:SKIRT
G1 F1500 E0
G1 F1800 X82.938 Y80.918 E0.0417
G1 X84.397 Y79.709 E0.13623
G1 X85.063 Y79.215 E0.1776
G1 X86.646 Y78.165 E0.27237
G1 X87.36 Y77.744 E0.31372
G1 X89.04 Y76.871 E0.40818
G1 X89.798 Y76.527 E0.44971
G1 X91.566 Y75.836 E0.54441
G1 X92.35 Y75.577 E0.5856
G1 X94.177 Y75.078 E0.68009
G1 X94.998 Y74.9 E0.722
G1 X96.824 Y74.606 E0.81428
G1 X97.691 Y74.511 E0.85779
G1 X99.585 Y74.41 E0.95242
G1 X100.415 Y74.41 E0.99382
G1 X102.309 Y74.511 E1.08845
G1 X103.143 Y74.601 E1.1303
G1 X104.715 Y74.856 E1.20975
G1 X104.96 Y74.894 E1.22212
G1 X105.823 Y75.078 E1.26615
G1 X107.65 Y75.577 E1.36063
G1 X108.434 Y75.836 E1.40183
G1 X110.202 Y76.527 E1.49653
G1 X110.96 Y76.871 E1.53806
G1 X112.64 Y77.744 E1.63252
G1 X113.354 Y78.165 E1.67387
G1 X114.937 Y79.215 E1.76864
G1 X115.602 Y79.709 E1.80997
G1 X117.06 Y80.917 E1.90443
G1 X117.675 Y81.484 E1.94616
G1 X118.997 Y82.843 E2.04075
G1 X119.54 Y83.464 E2.08191
G1 X120.711 Y84.955 E2.17649
G1 X121.188 Y85.633 E2.21785
G1 X122.195 Y87.241 E2.31251
G1 X122.6 Y87.974 E2.35429
G1 X123.428 Y89.679 E2.44885
G1 X123.748 Y90.437 E2.4899
G1 X124.393 Y92.223 E2.58464
G1 X124.636 Y93.028 E2.62659
G1 X125.001 Y94.53 E2.7037
G1 X125.069 Y94.799 E2.71755
G1 X125.238 Y95.679 E2.76225
G1 X125.489 Y97.559 E2.85688
G1 X125.555 Y98.385 E2.89822
G1 X125.605 Y100.282 E2.99289
G1 X125.583 Y101.109 E3.03417
G1 X125.432 Y103 E3.12881
G1 X125.322 Y103.826 E3.17038
G1 X124.97 Y105.691 E3.26507
G1 X124.775 Y106.489 E3.30605
G1 X124.23 Y108.302 E3.4005
G1 X123.944 Y109.096 E3.44261
G1 X123.205 Y110.843 E3.53724
G1 X122.846 Y111.58 E3.57814
G1 X121.927 Y113.241 E3.67285
G1 X121.483 Y113.951 E3.71463
G1 X120.394 Y115.5 E3.80909
G1 X119.884 Y116.149 E3.85027
G1 X118.635 Y117.577 E3.94492
G1 X118.055 Y118.173 E3.98641
G1 X116.661 Y119.46 E4.08107
G1 X116.023 Y119.989 E4.12242
G1 X114.5 Y121.121 E4.21709
G1 X113.81 Y121.579 E4.25841
G1 X112.179 Y122.541 E4.35288
G1 X111.433 Y122.929 E4.39483
G1 X109.706 Y123.711 E4.48941
G1 X108.941 Y124.01 E4.53039
G1 X107.141 Y124.606 E4.62498
G1 X106.337 Y124.825 E4.66656
G1 X104.482 Y125.226 E4.76124
G1 X103.661 Y125.358 E4.80273
G1 X101.775 Y125.559 E4.89735
G1 X100.948 Y125.603 E4.93867
G1 X99.052 Y125.603 E5.03326
G1 X98.225 Y125.559 E5.07458
G1 X96.339 Y125.358 E5.1692
G1 X95.518 Y125.226 E5.21069
G1 X93.663 Y124.825 E5.30537
G1 X92.859 Y124.606 E5.34695
G1 X91.059 Y124.01 E5.44154
G1 X90.294 Y123.711 E5.48252
G1 X88.567 Y122.929 E5.5771
G1 X87.821 Y122.541 E5.61906
G1 X86.19 Y121.579 E5.71353
G1 X85.5 Y121.121 E5.75484
G1 X83.977 Y119.989 E5.84952
G1 X83.339 Y119.46 E5.89086
G1 X81.945 Y118.173 E5.98552
G1 X81.365 Y117.577 E6.02701
G1 X80.116 Y116.149 E6.12166
G1 X79.606 Y115.5 E6.16284
G1 X78.517 Y113.951 E6.25731
G1 X78.075 Y113.244 E6.2989
G1 X77.155 Y111.583 E6.39363
G1 X76.793 Y110.839 E6.43491
G1 X76.055 Y109.092 E6.52953
G1 X75.77 Y108.302 E6.57143
G1 X75.225 Y106.489 E6.66588
G1 X75.03 Y105.691 E6.70686
G1 X74.678 Y103.826 E6.80155
G1 X74.568 Y103.001 E6.84307
G1 X74.417 Y101.113 E6.93757
G1 X74.395 Y100.286 E6.97884
G1 X74.445 Y98.388 E7.07356
G1 X74.51 Y97.562 E7.1149
G1 X74.761 Y95.68 E7.20963
G1 X74.917 Y94.857 E7.25142
G1 X75.367 Y93.018 E7.34587
G1 X75.606 Y92.224 E7.38724
G1 X76.25 Y90.44 E7.48187
G1 X76.571 Y89.681 E7.52298
G1 X77.399 Y87.976 E7.61754
G1 X77.803 Y87.245 E7.65921
G1 X78.81 Y85.636 E7.75391
G1 X79.287 Y84.957 E7.79531
G1 X80.457 Y83.467 E7.88982
G1 X81.001 Y82.845 E7.93105
G1 X82.324 Y81.485 E8.02571
G0 F3600 X82.611 Y81.764
G1 F1800 X83.193 Y81.226 E8.06525
G1 X84.652 Y80.017 E8.15978
G1 X85.284 Y79.548 E8.19905
G1 X86.867 Y78.498 E8.29382
G1 X87.545 Y78.099 E8.33307
G1 X89.225 Y77.226 E8.42752
G1 X89.943 Y76.9 E8.46686
G1 X91.711 Y76.209 E8.56157
G1 X92.455 Y75.962 E8.60068
G1 X94.282 Y75.463 E8.69517
G1 X95.061 Y75.295 E8.73492
G1 X96.889 Y75.001 E8.82729
G1 X97.712 Y74.91 E8.8686
G1 X99.606 Y74.809 E8.96323
G1 X100.394 Y74.809 E9.00254
G1 X102.288 Y74.91 E9.09717
G1 X103.079 Y74.996 E9.13687
G1 X104.621 Y75.246 E9.2148
G1 X104.899 Y75.289 E9.22884
G1 X105.718 Y75.463 E9.27061
G1 X107.545 Y75.962 E9.3651
G1 X108.289 Y76.209 E9.40421
G1 X110.057 Y76.9 E9.49891
G1 X110.775 Y77.226 E9.53825
G1 X112.455 Y78.099 E9.63271
G1 X113.133 Y78.498 E9.67195
G1 X114.716 Y79.548 E9.76672
G1 X115.347 Y80.017 E9.80595
G1 X116.805 Y81.225 E9.90041
G1 X117.388 Y81.763 E9.93999
G1 X118.71 Y83.122 E10.03458
G1 X119.226 Y83.711 E10.07365
G1 X120.397 Y85.202 E10.16823
G1 X120.849 Y85.845 E10.20744
G1 X121.856 Y87.453 E10.3021
G1 X122.241 Y88.148 E10.34174
G1 X123.069 Y89.853 E10.4363
G1 X123.372 Y90.572 E10.47523
G1 X124.017 Y92.358 E10.56996
G1 X124.247 Y93.123 E10.60982
G1 X124.613 Y94.628 E10.68709
G1 X124.681 Y94.897 E10.70093
G1 X124.842 Y95.732 E10.74336
G1 X125.093 Y97.612 E10.83798
G1 X125.155 Y98.396 E10.87722
G1 X125.205 Y100.293 E10.97189
G1 X125.185 Y101.077 E11.01102
G1 X125.034 Y102.968 E11.10566
G1 X124.929 Y103.751 E11.14508
G1 X124.577 Y105.616 E11.23977
G1 X124.392 Y106.374 E11.27869
G1 X123.847 Y108.187 E11.37314
G1 X123.575 Y108.94 E11.41308
G1 X122.836 Y110.687 E11.50772
G1 X122.496 Y111.386 E11.5465
G1 X121.577 Y113.047 E11.64121
G1 X121.156 Y113.721 E11.68085
G1 X120.067 Y115.27 E11.77532
G1 X119.583 Y115.886 E11.8144
G1 X118.334 Y117.314 E11.90905
G1 X117.784 Y117.879 E11.94839
G1 X116.39 Y119.166 E12.04305
G1 X115.784 Y119.668 E12.08231
G1 X114.261 Y120.8 E12.17698
G1 X113.606 Y121.235 E12.21621
G1 X111.975 Y122.197 E12.31068
G1 X111.268 Y122.564 E12.35042
G1 X109.541 Y123.346 E12.445
G1 X108.815 Y123.63 E12.48389
G1 X107.015 Y124.226 E12.57849
G1 X106.253 Y124.434 E12.6179
G1 X104.398 Y124.835 E12.71258
G1 X103.618 Y124.96 E12.75199
G1 X101.732 Y125.161 E12.84662
G1 X100.948 Y125.203 E12.88579
G1 X99.052 Y125.203 E12.98038
G1 X98.268 Y125.161 E13.01955
G1 X96.382 Y124.96 E13.11418
G1 X95.602 Y124.835 E13.15359
G1 X93.747 Y124.434 E13.24827
G1 X92.985 Y124.226 E13.28768
G1 X91.185 Y123.63 E13.38227
G1 X90.459 Y123.346 E13.42117
G1 X88.732 Y122.564 E13.51575
G1 X88.025 Y122.197 E13.55549
G1 X86.394 Y121.235 E13.64996
G1 X85.739 Y120.8 E13.68919
G1 X84.216 Y119.668 E13.78386
G1 X83.61 Y119.166 E13.82312
G1 X82.216 Y117.879 E13.91778
G1 X81.666 Y117.314 E13.95711
G1 X80.417 Y115.886 E14.05176
G1 X79.933 Y115.27 E14.09085
G1 X78.844 Y113.721 E14.18531
G1 X78.425 Y113.05 E14.22478
G1 X77.505 Y111.389 E14.31951
G1 X77.161 Y110.684 E14.35865
G1 X76.423 Y108.937 E14.45326
G1 X76.153 Y108.187 E14.49303
G1 X75.608 Y106.374 E14.58748
G1 X75.423 Y105.616 E14.62641
G1 X75.071 Y103.751 E14.7211
G1 X74.967 Y102.969 E14.76045
G1 X74.816 Y101.081 E14.85495
G1 X74.795 Y100.296 E14.89413
G1 X74.845 Y98.398 E14.98885
G1 X74.907 Y97.615 E15.02804
G1 X75.158 Y95.733 E15.12276
G1 X75.305 Y94.952 E15.16241
G1 X75.755 Y93.113 E15.25686
G1 X75.983 Y92.359 E15.29616
G1 X76.627 Y90.575 E15.39079
G1 X76.93 Y89.855 E15.42976
G1 X77.758 Y88.15 E15.52432
G1 X78.142 Y87.457 E15.56385
G1 X79.149 Y85.848 E15.65855
G1 X79.602 Y85.204 E15.69783
G1 X80.772 Y83.714 E15.79235
G1 X81.288 Y83.124 E15.83145
G1 X82.611 Y81.764 E15.92611
G0 F3600 X82.897 Y82.043
G1 F1800 X83.449 Y81.534 E15.96357
G1 X84.908 Y80.325 E16.0581
G1 X85.505 Y79.882 E16.09519
G1 X87.088 Y78.832 E16.18996
G1 X87.729 Y78.454 E16.22709
G1 X89.409 Y77.581 E16.32155
G1 X90.089 Y77.272 E16.35881
G1 X91.857 Y76.581 E16.45351
G1 X92.561 Y76.348 E16.49051
G1 X94.388 Y75.849 E16.585
G1 X95.125 Y75.69 E16.62261
G1 X96.679 Y75.441 E16.70113
G1 X96.955 Y75.395 E16.71509
G1 X97.733 Y75.31 E16.75414
G1 X99.627 Y75.209 E16.84876
G1 X100.373 Y75.209 E16.88598
G1 X102.267 Y75.31 E16.98061
G1 X103.015 Y75.39 E17.01814
G1 X104.596 Y75.647 E17.09805
G1 X104.838 Y75.684 E17.11026
G1 X105.612 Y75.849 E17.14974
G1 X107.439 Y76.348 E17.24423
G1 X108.143 Y76.581 E17.28123
G1 X109.911 Y77.272 E17.37593
G1 X110.591 Y77.581 E17.4132
G1 X112.271 Y78.454 E17.50765
G1 X112.912 Y78.832 E17.54478
G1 X114.495 Y79.882 E17.63955
G1 X115.092 Y80.325 E17.67664
G1 X116.55 Y81.533 E17.7711
G1 X117.102 Y82.042 E17.80856
G1 X118.424 Y83.401 E17.90315
G1 X118.911 Y83.958 E17.94006
G1 X120.082 Y85.449 E18.03465
G1 X120.51 Y86.058 E18.07178
G1 X121.517 Y87.666 E18.16644
G1 X121.881 Y88.323 E18.20391
G1 X122.709 Y90.028 E18.29847
G1 X122.996 Y90.708 E18.3353
G1 X123.641 Y92.494 E18.43003
G1 X123.859 Y93.217 E18.46771
G1 X124.226 Y94.726 E18.54519
G1 X124.294 Y94.995 E18.55903
G1 X124.445 Y95.785 E18.59916
G1 X124.696 Y97.665 E18.69378
G1 X124.756 Y98.407 E18.73092
G1 X124.806 Y100.304 E18.8256
G1 X124.786 Y101.045 E18.86258
G1 X124.635 Y102.936 E18.95722
G1 X124.536 Y103.677 E18.99452
G1 X124.184 Y105.542 E19.08921
G1 X124.009 Y106.259 E19.12603
G1 X123.464 Y108.072 E19.22048
G1 X123.207 Y108.784 E19.25824
G1 X122.468 Y110.531 E19.35288
G1 X122.146 Y111.193 E19.38961
G1 X121.227 Y112.854 E19.48431
G1 X120.828 Y113.491 E19.52181
G1 X119.739 Y115.04 E19.61628
G1 X119.282 Y115.622 E19.6532
G1 X118.033 Y117.05 E19.74784
G1 X117.512 Y117.585 E19.7851
G1 X116.118 Y118.872 E19.87976
G1 X115.546 Y119.347 E19.91685
G1 X114.023 Y120.479 E20.01152
G1 X113.403 Y120.89 E20.04863
G1 X111.772 Y121.852 E20.1431
G1 X111.103 Y122.2 E20.18073
G1 X109.376 Y122.982 E20.27531
G1 X108.689 Y123.25 E20.3121
G1 X106.889 Y123.846 E20.4067
G1 X106.168 Y124.043 E20.44398
G1 X104.313 Y124.444 E20.53867
G1 X103.576 Y124.563 E20.57591
G1 X101.69 Y124.764 E20.67054
G1 X100.948 Y124.803 E20.70761
G1 X99.052 Y124.803 E20.8022
G1 X98.31 Y124.764 E20.83927
G1 X96.424 Y124.563 E20.9339
G1 X95.687 Y124.444 E20.97114
G1 X93.832 Y124.043 E21.06583
G1 X93.111 Y123.846 E21.10312
G1 X91.311 Y123.25 E21.19771
G1 X90.624 Y122.982 E21.2345
G1 X88.897 Y122.2 E21.32908
G1 X88.228 Y121.852 E21.36671
G1 X86.597 Y120.89 E21.46118
G1 X85.977 Y120.479 E21.49829
G1 X84.454 Y119.347 E21.59296
G1 X83.882 Y118.872 E21.63005
G1 X82.488 Y117.585 E21.72471
G1 X81.967 Y117.05 E21.76197
G1 X80.718 Y115.622 E21.85662
G1 X80.261 Y115.04 E21.89353
G1 X79.172 Y113.491 E21.988
G1 X78.775 Y112.857 E22.02532
G1 X77.855 Y111.196 E22.12005
G1 X77.53 Y110.528 E22.15711
G1 X76.792 Y108.781 E22.25173
G1 X76.536 Y108.072 E22.28933
G1 X75.991 Y106.259 E22.38378
G1 X75.816 Y105.542 E22.42061
G1 X75.464 Y103.677 E22.51529
G1 X75.365 Y102.937 E22.55254
G1 X75.214 Y101.049 E22.64703
G1 X75.194 Y100.307 E22.68407
G1 X75.244 Y98.409 E22.77879
G1 X75.303 Y97.668 E22.81588
G1 X75.554 Y95.786 E22.9106
G1 X75.694 Y95.047 E22.94813
G1 X76.144 Y93.208 E23.04258
G1 X76.359 Y92.495 E23.07973
G1 X77.003 Y90.711 E23.17436
G1 X77.29 Y90.03 E23.21123
G1 X78.118 Y88.325 E23.30579
G1 X78.481 Y87.669 E23.3432
G1 X79.488 Y86.06 E23.4379
G1 X79.916 Y85.451 E23.47503
G1 X81.086 Y83.961 E23.56955
G1 X81.574 Y83.403 E23.60653
G1 X82.897 Y82.043 E23.70119
G0 F3600 X83.184 Y82.322
G1 F1800 X83.704 Y81.842 E23.73649
G1 X85.163 Y80.633 E23.83103
G1 X85.726 Y80.215 E23.86601
G1 X87.309 Y79.165 E23.96078
G1 X87.914 Y78.809 E23.9958
G1 X89.594 Y77.936 E24.09026
G1 X90.234 Y77.645 E24.12533
G1 X92.002 Y76.954 E24.22004
G1 X92.666 Y76.734 E24.25494
G1 X94.493 Y76.235 E24.34942
G1 X95.188 Y76.085 E24.3849
G1 X97.021 Y75.79 E24.47752
G1 X97.755 Y75.709 E24.51436
G1 X99.649 Y75.608 E24.60899
G1 X100.351 Y75.608 E24.64401
G1 X102.245 Y75.709 E24.73864
G1 X102.951 Y75.785 E24.77407
G1 X104.777 Y76.08 E24.86635
G1 X105.507 Y76.235 E24.90358
G1 X107.334 Y76.734 E24.99807
G1 X107.998 Y76.954 E25.03296
G1 X109.766 Y77.645 E25.12767
G1 X110.406 Y77.936 E25.16274
G1 X112.086 Y78.809 E25.2572
G1 X112.691 Y79.165 E25.29222
G1 X114.274 Y80.215 E25.38699
G1 X114.837 Y80.633 E25.42197
G1 X116.295 Y81.841 E25.51644
G1 X116.815 Y82.321 E25.55174
G1 X118.137 Y83.68 E25.64633
G1 X118.597 Y84.205 E25.68116
G1 X119.768 Y85.696 E25.77574
G1 X120.171 Y86.27 E25.81073
G1 X121.178 Y87.878 E25.90539
G1 X121.521 Y88.498 E25.94074
G1 X122.349 Y90.203 E26.0353
G1 X122.62 Y90.844 E26.07002
G1 X123.265 Y92.63 E26.16476
G1 X123.47 Y93.312 E26.20029
G1 X123.838 Y94.824 E26.27792
G1 X123.906 Y95.093 E26.29176
G1 X124.049 Y95.838 E26.32961
G1 X124.3 Y97.718 E26.42424
G1 X124.356 Y98.417 E26.45922
G1 X124.406 Y100.314 E26.5539
G1 X124.387 Y101.013 E26.58878
G1 X124.236 Y102.904 E26.68343
G1 X124.142 Y103.603 E26.71861
G1 X123.79 Y105.468 E26.8133
G1 X123.626 Y106.144 E26.848
G1 X123.081 Y107.957 E26.94245
G1 X122.839 Y108.628 E26.97804
G1 X122.1 Y110.375 E27.07268
G1 X121.796 Y110.999 E27.10731
G1 X120.877 Y112.66 E27.20201
G1 X120.501 Y113.261 E27.23738
G1 X119.412 Y114.81 E27.33185
G1 X118.981 Y115.359 E27.36667
G1 X117.732 Y116.787 E27.46132
G1 X117.241 Y117.291 E27.49642
G1 X115.847 Y118.578 E27.59108
G1 X115.307 Y119.026 E27.62608
G1 X113.784 Y120.158 E27.72075
G1 X113.2 Y120.546 E27.75573
G1 X111.569 Y121.508 E27.85021
G1 X110.938 Y121.835 E27.88566
G1 X109.211 Y122.617 E27.98024
G1 X108.564 Y122.87 E28.0149
G1 X106.764 Y123.466 E28.1095
G1 X106.084 Y123.652 E28.14467
G1 X104.229 Y124.053 E28.23936
G1 X103.533 Y124.165 E28.27453
G1 X101.647 Y124.366 E28.36915
G1 X100.948 Y124.403 E28.40407
G1 X99.052 Y124.403 E28.49867
G1 X98.353 Y124.366 E28.53359
G1 X96.467 Y124.165 E28.62821
G1 X95.771 Y124.053 E28.66338
G1 X93.916 Y123.652 E28.75807
G1 X93.236 Y123.466 E28.79324
G1 X91.436 Y122.87 E28.88784
G1 X90.789 Y122.617 E28.9225
G1 X89.062 Y121.835 E29.01708
G1 X88.431 Y121.508 E29.05253
G1 X86.8 Y120.546 E29.147
G1 X86.216 Y120.158 E29.18198
G1 X84.693 Y119.026 E29.27666
G1 X84.153 Y118.578 E29.31166
G1 X82.759 Y117.291 E29.40632
G1 X82.268 Y116.787 E29.44142
G1 X81.019 Y115.359 E29.53607
G1 X80.588 Y114.81 E29.57089
G1 X79.499 Y113.261 E29.66536
G1 X79.124 Y112.663 E29.70057
G1 X78.204 Y111.002 E29.7953
G1 X77.898 Y110.372 E29.83025
G1 X77.16 Y108.625 E29.92486
G1 X76.919 Y107.957 E29.96029
G1 X76.374 Y106.144 E30.05474
G1 X76.21 Y105.468 E30.08945
G1 X75.858 Y103.603 E30.18413
G1 X75.764 Y102.905 E30.21927
G1 X75.613 Y101.017 E30.31376
G1 X75.594 Y100.317 E30.3487
G1 X75.644 Y98.419 E30.44343
G1 X75.7 Y97.72 E30.47841
G1 X75.951 Y95.838 E30.57313
G1 X76.082 Y95.142 E30.60847
G1 X76.532 Y93.303 E30.70292
G1 X76.735 Y92.631 E30.73795
G1 X77.379 Y90.847 E30.83257
G1 X77.65 Y90.205 E30.86734
G1 X78.478 Y88.5 E30.9619
G1 X78.82 Y87.882 E30.99714
G1 X79.827 Y86.273 E31.09184
G1 X80.231 Y85.698 E31.1269
G1 X81.401 Y84.208 E31.22141
G1 X81.861 Y83.682 E31.25627
G1 X83.184 Y82.322 E31.35093
G0 F3600 X83.471 Y82.601
G1 F1800 X83.959 Y82.15 E31.38408
G1 X85.418 Y80.941 E31.47862
G1 X85.947 Y80.548 E31.5115
G1 X87.53 Y79.498 E31.60627
G1 X88.098 Y79.163 E31.63917
G1 X89.778 Y78.29 E31.73362
G1 X90.38 Y78.017 E31.7666
G1 X92.148 Y77.326 E31.8613
G1 X92.771 Y77.12 E31.89404
G1 X94.598 Y76.621 E31.98853
G1 X95.251 Y76.48 E32.02186
G1 X96.811 Y76.23 E32.10068
G1 X97.087 Y76.184 E32.11464
G1 X97.776 Y76.109 E32.14922
G1 X99.67 Y76.008 E32.24384
G1 X100.33 Y76.008 E32.27677
G1 X102.224 Y76.109 E32.3714
G1 X102.887 Y76.18 E32.40466
G1 X104.716 Y76.475 E32.49709
G1 X105.402 Y76.621 E32.53208
G1 X107.229 Y77.12 E32.62657
G1 X107.852 Y77.326 E32.65931
G1 X109.62 Y78.017 E32.75401
G1 X110.222 Y78.29 E32.78699
G1 X111.902 Y79.163 E32.88144
