;FLAVOR:Marlin
;TIME:2831
;Filament used: 3.85967m
;Layer height: 0.3
;MINX:76.366
;MINY:76.366
;MINZ:0.3
;MAXX:123.634
;MAXY:123.634
;MAXZ:73.8
;Generated with Cura_SteamEngine 4.8.0
M140 S60
M105
M190 S60
M104 S210
M105
M109 S210
M82 ;absolute extrusion mode
G28 ;Home
G12 P1 S2 T3
G29 ;auto bed leveling
G1 Z15.0 F6000 ;Move the platform down 15mm
;Prime the extruder
G92 E0
G1 F200 E3
G92 E0
G12 P0 S1
G92 E0
G92 E0
G1 F1500 E-6.5
;LAYER_COUNT:246
;LAYER:0
M107
G0 F3600 X83.557 Y83.017 Z0.3
;TYPE:SKIRT
G1 F1500 E0
G1 F1800 X84.709 Y81.973 E0.07756
G1 X85.3 Y81.488 E0.11571
G1 X86.551 Y80.56 E0.19342
G1 X87.186 Y80.136 E0.23151
G1 X88.518 Y79.337 E0.309
G1 X89.298 Y78.927 E0.35296
G1 X89.389 Y78.886 E0.35794
G1 X90.588 Y78.316 E0.42418
G1 X91.316 Y78.014 E0.4635
G1 X92.783 Y77.491 E0.5412
G1 X93.507 Y77.272 E0.57894
G1 X95.012 Y76.895 E0.65634
G1 X95.765 Y76.745 E0.69465
G1 X97.306 Y76.517 E0.77237
G1 X98.061 Y76.443 E0.81021
G1 X99.612 Y76.366 E0.88769
G1 X100.385 Y76.366 E0.92625
G1 X101.938 Y76.443 E1.00383
G1 X102.694 Y76.517 E1.04172
G1 X104.235 Y76.745 E1.11944
G1 X104.988 Y76.895 E1.15775
G1 X106.493 Y77.272 E1.23515
G1 X107.217 Y77.491 E1.27289
G1 X108.684 Y78.014 E1.35059
G1 X109.404 Y78.312 E1.38947
G1 X110.808 Y78.977 E1.46697
G1 X111.479 Y79.336 E1.50494
G1 X112.812 Y80.135 E1.58247
G1 X113.448 Y80.56 E1.62064
G1 X114.698 Y81.487 E1.69828
G1 X115.29 Y81.972 E1.73646
G1 X116.441 Y83.015 E1.81395
G1 X116.983 Y83.557 E1.85219
G1 X118.027 Y84.709 E1.92976
G1 X118.51 Y85.298 E1.96776
G1 X119.437 Y86.547 E2.04536
G1 X119.863 Y87.184 E2.08359
G1 X120.663 Y88.518 E2.16119
G1 X121.073 Y89.298 E2.20516
G1 X121.114 Y89.389 E2.21014
G1 X121.684 Y90.588 E2.27637
G1 X121.986 Y91.316 E2.31569
G1 X122.509 Y92.783 E2.39339
G1 X122.728 Y93.507 E2.43113
G1 X123.105 Y95.012 E2.50853
G1 X123.255 Y95.764 E2.54679
G1 X123.483 Y97.303 E2.62441
G1 X123.557 Y98.06 E2.66236
G1 X123.634 Y99.614 E2.73998
G1 X123.634 Y100.387 E2.77855
G1 X123.557 Y101.939 E2.85607
G1 X123.483 Y102.694 E2.89392
G1 X123.255 Y104.235 E2.97164
G1 X123.105 Y104.988 E3.00994
G1 X122.728 Y106.493 E3.08735
G1 X122.509 Y107.217 E3.12508
G1 X121.986 Y108.684 E3.20278
G1 X121.688 Y109.404 E3.24166
G1 X121.023 Y110.808 E3.31917
G1 X120.664 Y111.479 E3.35713
G1 X119.865 Y112.812 E3.43467
G1 X119.44 Y113.448 E3.47283
G1 X118.513 Y114.698 E3.55047
G1 X118.028 Y115.29 E3.58865
G1 X116.985 Y116.441 E3.66614
G1 X116.443 Y116.983 E3.70439
G1 X115.291 Y118.027 E3.78195
G1 X114.7 Y118.512 E3.82009
G1 X113.449 Y119.44 E3.8978
G1 X112.814 Y119.864 E3.93589
G1 X111.482 Y120.663 E4.01339
G1 X110.702 Y121.073 E4.05735
G1 X110.611 Y121.114 E4.06233
G1 X109.412 Y121.684 E4.12856
G1 X108.684 Y121.986 E4.16788
G1 X107.217 Y122.509 E4.24559
G1 X106.493 Y122.728 E4.28332
G1 X104.988 Y123.105 E4.36073
G1 X104.235 Y123.255 E4.39903
G1 X102.694 Y123.483 E4.47675
G1 X101.938 Y123.557 E4.51465
G1 X100.385 Y123.634 E4.59222
G1 X99.612 Y123.634 E4.63079
G1 X98.061 Y123.557 E4.70826
G1 X97.306 Y123.483 E4.74611
G1 X95.765 Y123.255 E4.82383
G1 X95.012 Y123.105 E4.86213
G1 X93.507 Y122.728 E4.93954
G1 X92.783 Y122.509 E4.97727
G1 X91.316 Y121.986 E5.05498
G1 X90.596 Y121.688 E5.09385
G1 X89.192 Y121.023 E5.17136
G1 X88.521 Y120.664 E5.20932
G1 X87.188 Y119.865 E5.28686
G1 X86.551 Y119.44 E5.32506
G1 X85.3 Y118.512 E5.40277
G1 X84.709 Y118.027 E5.44092
G1 X83.557 Y116.983 E5.51848
G1 X83.015 Y116.441 E5.55672
G1 X81.972 Y115.29 E5.63421
G1 X81.487 Y114.698 E5.67239
G1 X80.56 Y113.448 E5.75004
G1 X80.136 Y112.814 E5.78809
G1 X79.336 Y111.48 E5.86569
G1 X78.924 Y110.696 E5.90988
G1 X78.881 Y110.601 E5.91508
G1 X78.316 Y109.412 E5.98076
G1 X78.014 Y108.684 E6.02008
G1 X77.491 Y107.217 E6.09778
G1 X77.272 Y106.493 E6.13551
G1 X76.895 Y104.988 E6.21292
G1 X76.745 Y104.235 E6.25122
G1 X76.517 Y102.694 E6.32894
G1 X76.443 Y101.939 E6.36679
G1 X76.366 Y100.389 E6.44421
G1 X76.366 Y99.616 E6.48278
G1 X76.443 Y98.062 E6.5604
G1 X76.517 Y97.306 E6.5983
G1 X76.745 Y95.765 E6.67602
G1 X76.895 Y95.012 E6.71433
G1 X77.272 Y93.507 E6.79173
G1 X77.491 Y92.783 E6.82947
G1 X78.014 Y91.316 E6.90717
G1 X78.312 Y90.596 E6.94604
G1 X78.977 Y89.192 E7.02355
G1 X79.336 Y88.521 E7.06152
G1 X80.135 Y87.188 E7.13905
G1 X80.56 Y86.552 E7.17721
G1 X81.487 Y85.302 E7.25485
G1 X81.972 Y84.71 E7.29304
G1 X83.015 Y83.559 E7.37053
G1 X83.557 Y83.017 E7.40877
G0 F3600 X83.826 Y83.314
G1 F1800 X84.978 Y82.27 E7.48633
G1 X85.538 Y81.81 E7.52249
G1 X86.789 Y80.882 E7.6002
G1 X87.391 Y80.479 E7.63634
G1 X88.723 Y79.68 E7.71383
G1 X89.464 Y79.291 E7.75559
G1 X89.548 Y79.253 E7.76019
G1 X90.76 Y78.677 E7.82713
G1 X91.45 Y78.391 E7.8644
G1 X92.917 Y77.868 E7.9421
G1 X93.604 Y77.66 E7.97791
G1 X95.109 Y77.283 E8.05532
G1 X95.824 Y77.141 E8.09168
G1 X97.365 Y76.913 E8.1694
G1 X98.081 Y76.842 E8.2053
G1 X99.632 Y76.765 E8.28277
G1 X100.365 Y76.765 E8.31934
G1 X101.918 Y76.842 E8.39692
G1 X102.635 Y76.913 E8.43286
G1 X104.176 Y77.141 E8.51058
G1 X104.891 Y77.283 E8.54695
G1 X106.396 Y77.66 E8.62435
G1 X107.083 Y77.868 E8.66016
G1 X108.55 Y78.391 E8.73787
G1 X109.233 Y78.673 E8.77473
G1 X110.637 Y79.338 E8.85224
G1 X111.273 Y79.679 E8.88824
G1 X112.606 Y80.478 E8.96578
G1 X113.21 Y80.881 E9.002
G1 X114.46 Y81.808 E9.07964
G1 X115.021 Y82.268 E9.11584
G1 X116.172 Y83.311 E9.19333
G1 X116.686 Y83.826 E9.22963
G1 X117.73 Y84.978 E9.30719
G1 X118.189 Y85.537 E9.34328
G1 X119.116 Y86.786 E9.42088
G1 X119.52 Y87.39 E9.45713
G1 X120.32 Y88.724 E9.53474
G1 X120.709 Y89.464 E9.57644
G1 X120.747 Y89.548 E9.58104
G1 X121.323 Y90.76 E9.64799
G1 X121.609 Y91.45 E9.68526
G1 X122.132 Y92.917 E9.76296
G1 X122.34 Y93.604 E9.79877
G1 X122.717 Y95.109 E9.87617
G1 X122.859 Y95.823 E9.91249
G1 X123.087 Y97.362 E9.99011
G1 X123.158 Y98.08 E10.02611
G1 X123.235 Y99.634 E10.10373
G1 X123.235 Y100.367 E10.1403
G1 X123.158 Y101.919 E10.21783
G1 X123.087 Y102.635 E10.25372
G1 X122.859 Y104.176 E10.33144
G1 X122.717 Y104.891 E10.36781
G1 X122.34 Y106.396 E10.44521
G1 X122.132 Y107.083 E10.48102
G1 X121.609 Y108.55 E10.55873
G1 X121.327 Y109.233 E10.59559
G1 X120.662 Y110.637 E10.6731
G1 X120.321 Y111.273 E10.7091
G1 X119.522 Y112.606 E10.78663
G1 X119.119 Y113.21 E10.82286
G1 X118.192 Y114.46 E10.9005
G1 X117.732 Y115.021 E10.93669
G1 X116.689 Y116.172 E11.01419
G1 X116.174 Y116.686 E11.05049
G1 X115.022 Y117.73 E11.12805
G1 X114.462 Y118.19 E11.16421
G1 X113.211 Y119.118 E11.24192
G1 X112.609 Y119.521 E11.27806
G1 X111.277 Y120.32 E11.35555
G1 X110.536 Y120.709 E11.39731
G1 X110.452 Y120.747 E11.40191
G1 X109.24 Y121.323 E11.46885
G1 X108.55 Y121.609 E11.50612
G1 X107.083 Y122.132 E11.58382
G1 X106.396 Y122.34 E11.61963
G1 X104.891 Y122.717 E11.69703
G1 X104.176 Y122.859 E11.7334
G1 X102.635 Y123.087 E11.81112
G1 X101.918 Y123.158 E11.84707
G1 X100.365 Y123.235 E11.92464
G1 X99.632 Y123.235 E11.96121
G1 X98.081 Y123.158 E12.03869
G1 X97.365 Y123.087 E12.07458
G1 X95.824 Y122.859 E12.1523
G1 X95.109 Y122.717 E12.18867
G1 X93.604 Y122.34 E12.26607
G1 X92.917 Y122.132 E12.30188
G1 X91.45 Y121.609 E12.37959
G1 X90.767 Y121.327 E12.41645
G1 X89.363 Y120.662 E12.49396
G1 X88.727 Y120.321 E12.52996
G1 X87.394 Y119.522 E12.60749
G1 X86.789 Y119.118 E12.64379
G1 X85.538 Y118.19 E12.7215
G1 X84.978 Y117.73 E12.75765
G1 X83.826 Y116.686 E12.83522
G1 X83.311 Y116.172 E12.87152
G1 X82.268 Y115.021 E12.94901
G1 X81.808 Y114.46 E12.98521
G1 X80.881 Y113.21 E13.06285
G1 X80.479 Y112.608 E13.09896
G1 X79.679 Y111.274 E13.17657
G1 X79.288 Y110.53 E13.2185
G1 X79.248 Y110.442 E13.22332
G1 X78.677 Y109.24 E13.28971
G1 X78.391 Y108.55 E13.32697
G1 X77.868 Y107.083 E13.40468
G1 X77.66 Y106.396 E13.44049
G1 X77.283 Y104.891 E13.51789
G1 X77.141 Y104.176 E13.55426
G1 X76.913 Y102.635 E13.63198
G1 X76.842 Y101.919 E13.66787
G1 X76.765 Y100.369 E13.7453
G1 X76.765 Y99.636 E13.78187
G1 X76.842 Y98.082 E13.85949
G1 X76.913 Y97.365 E13.89544
G1 X77.141 Y95.824 E13.97316
G1 X77.283 Y95.109 E14.00953
G1 X77.66 Y93.604 E14.08693
G1 X77.868 Y92.917 E14.12274
G1 X78.391 Y91.45 E14.20044
G1 X78.673 Y90.767 E14.23731
G1 X79.338 Y89.363 E14.31481
G1 X79.679 Y88.727 E14.35082
G1 X80.478 Y87.394 E14.42835
G1 X80.881 Y86.79 E14.46458
G1 X81.808 Y85.54 E14.54222
G1 X82.268 Y84.979 E14.57841
G1 X83.311 Y83.828 E14.6559
G1 X83.826 Y83.314 E14.69221
G0 F3600 X84.094 Y83.61
G1 F1800 X85.246 Y82.566 E14.76977
G1 X85.777 Y82.131 E14.80401
G1 X87.028 Y81.203 E14.88172
G1 X87.597 Y80.822 E14.91589
G1 X88.929 Y80.023 E14.99338
G1 X89.629 Y79.655 E15.03284
G1 X90.931 Y79.038 E15.10472
G1 X91.584 Y78.767 E15.13999
G1 X93.051 Y78.244 E15.21769
G1 X93.701 Y78.048 E15.25156
G1 X95.206 Y77.671 E15.32897
G1 X95.882 Y77.536 E15.36336
G1 X97.423 Y77.308 E15.44108
G1 X98.101 Y77.242 E15.47506
G1 X99.652 Y77.165 E15.55254
G1 X100.346 Y77.165 E15.58716
G1 X101.899 Y77.242 E15.66474
G1 X102.577 Y77.308 E15.69872
G1 X104.118 Y77.536 E15.77644
G1 X104.794 Y77.671 E15.81083
G1 X106.299 Y78.048 E15.88823
G1 X106.949 Y78.244 E15.92211
G1 X108.416 Y78.767 E15.99981
G1 X109.061 Y79.035 E16.03465
G1 X110.465 Y79.7 E16.11216
G1 X111.068 Y80.022 E16.14626
G1 X112.401 Y80.821 E16.2238
G1 X112.972 Y81.202 E16.25804
G1 X114.222 Y82.129 E16.33569
G1 X114.752 Y82.565 E16.36992
G1 X115.903 Y83.608 E16.44742
G1 X116.39 Y84.094 E16.48174
G1 X117.434 Y85.246 E16.55931
G1 X117.868 Y85.775 E16.59344
G1 X118.795 Y87.024 E16.67104
G1 X119.177 Y87.596 E16.70536
G1 X119.977 Y88.93 E16.78296
G1 X120.345 Y89.629 E16.82237
G1 X120.962 Y90.931 E16.89426
G1 X121.233 Y91.584 E16.92953
G1 X121.756 Y93.051 E17.00723
G1 X121.952 Y93.701 E17.0411
G1 X122.329 Y95.206 E17.1185
G1 X122.463 Y95.881 E17.15284
G1 X122.691 Y97.42 E17.23046
G1 X122.758 Y98.1 E17.26455
G1 X122.835 Y99.654 E17.34217
G1 X122.835 Y100.347 E17.37674
G1 X122.758 Y101.899 E17.45427
G1 X122.692 Y102.577 E17.48826
G1 X122.464 Y104.118 E17.56597
G1 X122.329 Y104.794 E17.60036
G1 X121.952 Y106.299 E17.67777
G1 X121.756 Y106.949 E17.71164
G1 X121.233 Y108.416 E17.78934
G1 X120.965 Y109.061 E17.82419
G1 X120.3 Y110.465 E17.90169
G1 X119.978 Y111.068 E17.9358
G1 X119.179 Y112.401 E18.01333
G1 X118.798 Y112.972 E18.04758
G1 X117.871 Y114.222 E18.12522
G1 X117.435 Y114.752 E18.15946
G1 X116.392 Y115.903 E18.23695
G1 X115.906 Y116.39 E18.27128
G1 X114.754 Y117.434 E18.34884
G1 X114.223 Y117.869 E18.38309
G1 X112.972 Y118.797 E18.4608
G1 X112.403 Y119.178 E18.49496
G1 X111.071 Y119.977 E18.57245
G1 X110.371 Y120.345 E18.61191
G1 X109.069 Y120.962 E18.68379
G1 X108.416 Y121.233 E18.71906
G1 X106.949 Y121.756 E18.79676
G1 X106.299 Y121.952 E18.83063
G1 X104.794 Y122.329 E18.90804
G1 X104.118 Y122.464 E18.94243
G1 X102.577 Y122.692 E19.02015
G1 X101.899 Y122.758 E19.05413
G1 X100.346 Y122.835 E19.13171
G1 X99.652 Y122.835 E19.16633
G1 X98.101 Y122.758 E19.24381
G1 X97.423 Y122.692 E19.27779
G1 X95.882 Y122.464 E19.35551
G1 X95.206 Y122.329 E19.3899
G1 X93.701 Y121.952 E19.46731
G1 X93.051 Y121.756 E19.50118
G1 X91.584 Y121.233 E19.57888
G1 X90.939 Y120.965 E19.61373
G1 X89.535 Y120.3 E19.69123
G1 X88.932 Y119.978 E19.72534
G1 X87.599 Y119.179 E19.80287
G1 X87.028 Y118.797 E19.83715
G1 X85.777 Y117.869 E19.91486
G1 X85.246 Y117.434 E19.9491
G1 X84.094 Y116.39 E20.02666
G1 X83.608 Y115.903 E20.06099
G1 X82.565 Y114.752 E20.13848
G1 X82.129 Y114.222 E20.17272
G1 X81.202 Y112.972 E20.25036
G1 X80.822 Y112.402 E20.28454
G1 X80.022 Y111.068 E20.36214
G1 X79.652 Y110.365 E20.40178
G1 X79.038 Y109.069 E20.47332
G1 X78.767 Y108.416 E20.5086
G1 X78.244 Y106.949 E20.5863
G1 X78.048 Y106.299 E20.62017
G1 X77.671 Y104.794 E20.69757
G1 X77.536 Y104.118 E20.73197
G1 X77.308 Y102.577 E20.80968
G1 X77.242 Y101.899 E20.84367
G1 X77.165 Y100.349 E20.92109
G1 X77.165 Y99.656 E20.95567
G1 X77.242 Y98.102 E21.03329
G1 X77.308 Y97.423 E21.06733
G1 X77.536 Y95.882 E21.14504
G1 X77.671 Y95.206 E21.17944
G1 X78.048 Y93.701 E21.25684
G1 X78.244 Y93.051 E21.29071
G1 X78.767 Y91.584 E21.36841
G1 X79.035 Y90.939 E21.40326
G1 X79.7 Y89.535 E21.48077
G1 X80.022 Y88.932 E21.51487
G1 X80.821 Y87.599 E21.5924
G1 X81.202 Y87.028 E21.62665
G1 X82.129 Y85.778 E21.70429
G1 X82.565 Y85.248 E21.73853
G1 X83.608 Y84.097 E21.81602
G1 X84.094 Y83.61 E21.85035
G0 F3600 X84.363 Y83.906
G1 F1800 X85.515 Y82.862 E21.92791
G1 X86.015 Y82.452 E21.96017
G1 X87.266 Y81.524 E22.03788
G1 X87.803 Y81.165 E22.07011
G1 X89.135 Y80.366 E22.1476
G1 X89.795 Y80.019 E22.1848
G1 X91.103 Y79.399 E22.25702
G1 X91.719 Y79.144 E22.29028
G1 X93.186 Y78.621 E22.36798
G1 X93.798 Y78.436 E22.39988
G1 X95.303 Y78.059 E22.47728
G1 X95.941 Y77.932 E22.50974
G1 X97.482 Y77.704 E22.58746
G1 X98.121 Y77.641 E22.61949
G1 X99.672 Y77.564 E22.69696
G1 X100.326 Y77.564 E22.72959
G1 X101.879 Y77.641 E22.80717
G1 X102.518 Y77.704 E22.8392
G1 X104.059 Y77.932 E22.91692
G1 X104.697 Y78.059 E22.94937
G1 X106.202 Y78.436 E23.02678
G1 X106.814 Y78.621 E23.05868
G1 X108.281 Y79.144 E23.13638
G1 X108.89 Y79.396 E23.16926
G1 X110.294 Y80.061 E23.24676
G1 X110.862 Y80.365 E23.27891
G1 X112.195 Y81.164 E23.35644
G1 X112.733 Y81.524 E23.38874
G1 X113.983 Y82.451 E23.46638
G1 X114.484 Y82.861 E23.49867
G1 X115.635 Y83.904 E23.57617
G1 X116.094 Y84.363 E23.60855
G1 X117.138 Y85.515 E23.68612
G1 X117.547 Y86.014 E23.71831
G1 X118.474 Y87.263 E23.79591
G1 X118.834 Y87.802 E23.82824
G1 X119.634 Y89.136 E23.90585
G1 X119.981 Y89.795 E23.943
G1 X120.601 Y91.103 E24.01522
G1 X120.856 Y91.719 E24.04848
G1 X121.379 Y93.186 E24.12618
G1 X121.564 Y93.798 E24.15808
G1 X121.941 Y95.303 E24.23548
G1 X122.068 Y95.94 E24.26789
G1 X122.296 Y97.479 E24.34551
G1 X122.359 Y98.119 E24.37759
G1 X122.436 Y99.673 E24.45522
G1 X122.436 Y100.327 E24.48785
G1 X122.359 Y101.879 E24.56537
G1 X122.296 Y102.518 E24.5974
G1 X122.068 Y104.059 E24.67512
G1 X121.941 Y104.697 E24.70758
G1 X121.564 Y106.202 E24.78498
G1 X121.379 Y106.814 E24.81688
G1 X120.856 Y108.281 E24.89458
G1 X120.604 Y108.89 E24.92746
G1 X119.939 Y110.294 E25.00497
G1 X119.635 Y110.862 E25.03711
G1 X118.836 Y112.195 E25.11464
G1 X118.476 Y112.733 E25.14694
G1 X117.549 Y113.983 E25.22458
G1 X117.139 Y114.484 E25.25688
G1 X116.096 Y115.635 E25.33437
G1 X115.637 Y116.094 E25.36676
G1 X114.485 Y117.138 E25.44432
G1 X113.985 Y117.548 E25.47658
G1 X112.734 Y118.476 E25.55429
G1 X112.197 Y118.835 E25.58651
G1 X110.865 Y119.634 E25.66401
G1 X110.205 Y119.981 E25.70121
G1 X108.897 Y120.601 E25.77342
G1 X108.281 Y120.856 E25.80669
G1 X106.814 Y121.379 E25.88439
G1 X106.202 Y121.564 E25.91628
G1 X104.697 Y121.941 E25.99369
G1 X104.059 Y122.068 E26.02614
G1 X102.518 Y122.296 E26.10386
G1 X101.879 Y122.359 E26.1359
G1 X100.326 Y122.436 E26.21347
G1 X99.672 Y122.436 E26.2461
G1 X98.121 Y122.359 E26.32357
G1 X97.482 Y122.296 E26.35561
G1 X95.941 Y122.068 E26.43333
G1 X95.303 Y121.941 E26.46578
G1 X93.798 Y121.564 E26.54318
G1 X93.186 Y121.379 E26.57508
G1 X91.719 Y120.856 E26.65278
G1 X91.11 Y120.604 E26.68566
G1 X89.706 Y119.939 E26.76317
G1 X89.138 Y119.635 E26.79531
G1 X87.805 Y118.836 E26.87285
G1 X87.266 Y118.476 E26.90518
G1 X86.015 Y117.548 E26.98289
G1 X85.515 Y117.138 E27.01515
G1 X84.363 Y116.094 E27.09272
G1 X83.904 Y115.635 E27.1251
G1 X82.861 Y114.484 E27.20259
G1 X82.451 Y113.983 E27.23489
G1 X81.524 Y112.733 E27.31253
G1 X81.165 Y112.196 E27.34476
G1 X80.365 Y110.862 E27.42236
G1 X80.008 Y110.179 E27.46081
G1 X79.399 Y108.897 E27.53162
G1 X79.144 Y108.281 E27.56488
G1 X78.621 Y106.814 E27.64258
G1 X78.436 Y106.202 E27.67448
G1 X78.059 Y104.697 E27.75189
G1 X77.932 Y104.059 E27.78434
G1 X77.704 Y102.518 E27.86206
G1 X77.641 Y101.879 E27.89409
G1 X77.564 Y100.329 E27.97152
G1 X77.564 Y99.675 E28.00415
