;FLAVOR:Marlin
;TIME:1015
;Filament used: 0.824359m
;Layer height: 0.2
;MINX:103.515
;MINY:20.994
;MINZ:0.3
;MAXX:131.486
;MAXY:48.943
;MAXZ:19.9
;Generated with Cura_SteamEngine 4.5.0
M140 S60
M105
M190 S60
M104 S210
M105
M109 S210
M82 ;absolute extrusion mode
G21 ;metric values
G90 ;absolute positioning
M82 ;set extruder to absolute mode
M107 ;start with the fan off
G28 X0 Y0 ;move X/Y to min endstops
G28 Z0 ;move Z to min endstops
G1 Z15.0 F9000 ;move the platform down 15mm
G92 E0 ;zero the extruded length
G1 F200 E3 ;extrude 3mm of feed stock
G92 E0 ;zero the extruded length again
G1 F9000
;Put printing message on LCD screen
M117 Printing...
G92 E0
G92 E0
G1 F1500 E-6.5
;LAYER_COUNT:99
;LAYER:0
M107
G0 F3600 X103.976 Y31.38 Z0.3
;TYPE:SKIRT
G1 F1500 E0
G1 F1200 X104.372 Y30.155 E0.06423
G1 X104.761 Y29.204 E0.11549
G1 X105.165 Y28.381 E0.16123
G1 X105.684 Y27.491 E0.21263
G1 X106.279 Y26.619 E0.2653
G1 X106.614 Y26.181 E0.29281
G1 X107.539 Y25.151 E0.36188
G1 X107.958 Y24.736 E0.3913
G1 X108.92 Y23.929 E0.45394
G1 X109.727 Y23.346 E0.50361
G1 X110.545 Y22.839 E0.55163
G1 X111.44 Y22.368 E0.60208
G1 X112.409 Y21.942 E0.65489
G1 X112.918 Y21.75 E0.68203
G1 X114.147 Y21.395 E0.74585
G1 X115.233 Y21.167 E0.80122
G1 X115.741 Y21.089 E0.82686
G1 X117.05 Y20.994 E0.89234
G1 X118.154 Y20.996 E0.94741
G1 X118.683 Y21.027 E0.97385
G1 X119.218 Y21.087 E1.00071
G1 X120.057 Y21.216 E1.04306
G1 X120.623 Y21.329 E1.07186
G1 X121.937 Y21.703 E1.14001
G1 X122.465 Y21.886 E1.16789
G1 X123.63 Y22.401 E1.23144
G1 X124.567 Y22.904 E1.2845
G1 X125.355 Y23.401 E1.33098
G1 X126.141 Y23.975 E1.37954
G1 X126.99 Y24.693 E1.43501
G1 X127.393 Y25.075 E1.46271
G1 X128.233 Y26.005 E1.52523
G1 X128.891 Y26.854 E1.57882
G1 X129.219 Y27.326 E1.6075
G1 X129.87 Y28.452 E1.67239
G1 X130.288 Y29.315 E1.72023
G1 X130.656 Y30.235 E1.76966
G1 X130.953 Y31.163 E1.81827
G1 X131.189 Y32.122 E1.86755
G1 X131.35 Y33.053 E1.91468
G1 X131.453 Y34.085 E1.96643
G1 X131.486 Y35.083 E2.01624
G1 X131.473 Y35.677 E2.04588
G1 X131.34 Y36.955 E2.10999
G1 X131.147 Y38.031 E2.16453
G1 X131.024 Y38.555 E2.19138
G1 X130.622 Y39.798 E2.25656
G1 X130.256 Y40.692 E2.30475
G1 X129.81 Y41.598 E2.35513
G1 X129.325 Y42.431 E2.40322
G1 X128.726 Y43.31 E2.45629
G1 X128.407 Y43.731 E2.48264
G1 X127.46 Y44.786 E2.55337
G1 X127.042 Y45.199 E2.58269
G1 X126.08 Y46.006 E2.64533
G1 X125.273 Y46.589 E2.695
G1 X124.455 Y47.096 E2.74301
G1 X123.565 Y47.564 E2.79318
G1 X122.683 Y47.952 E2.84125
G1 X121.781 Y48.276 E2.88907
G1 X120.824 Y48.548 E2.93871
G1 X119.765 Y48.768 E2.99267
G1 X119.259 Y48.846 E3.01821
G1 X117.898 Y48.943 E3.08628
G1 X116.916 Y48.941 E3.13527
G1 X116.361 Y48.912 E3.163
G1 X115.029 Y48.729 E3.23008
G1 X113.965 Y48.499 E3.28439
G1 X113.433 Y48.354 E3.3119
G1 X112.243 Y47.924 E3.37502
G1 X111.344 Y47.522 E3.42416
G1 X110.431 Y47.03 E3.4759
G1 X109.645 Y46.534 E3.52227
G1 X108.857 Y45.958 E3.57096
G1 X108.011 Y45.242 E3.62626
G1 X107.607 Y44.86 E3.654
G1 X106.784 Y43.95 E3.71521
G1 X106.153 Y43.136 E3.76659
G1 X105.608 Y42.319 E3.81559
G1 X105.141 Y41.505 E3.86241
G1 X104.694 Y40.577 E3.9138
G1 X104.311 Y39.618 E3.96532
G1 X104.122 Y39.059 E3.99476
G1 X103.814 Y37.827 E4.05811
G1 X103.65 Y36.878 E4.10616
G1 X103.547 Y35.858 E4.15731
G1 X103.515 Y34.839 E4.20817
G1 X103.526 Y34.281 E4.23602
G1 X103.659 Y32.986 E4.30096
G1 X103.853 Y31.906 E4.35571
G1 X103.976 Y31.38 E4.38266
G0 F3600 X104.365 Y31.475
G1 F1200 X104.751 Y30.282 E4.44521
G1 X105.129 Y29.36 E4.49493
G1 X105.522 Y28.561 E4.53935
G1 X106.028 Y27.696 E4.58935
G1 X106.607 Y26.848 E4.64058
G1 X106.929 Y26.427 E4.66702
G1 X107.834 Y25.421 E4.73453
G1 X108.236 Y25.024 E4.76272
G1 X109.174 Y24.237 E4.8238
G1 X109.957 Y23.673 E4.87195
G1 X110.753 Y23.181 E4.91863
G1 X111.623 Y22.724 E4.96766
G1 X112.567 Y22.31 E5.01909
G1 X113.055 Y22.125 E5.04512
G1 X114.254 Y21.78 E5.10737
G1 X115.311 Y21.559 E5.16124
G1 X116.076 Y21.456 E5.19976
G1 X117.075 Y21.393 E5.24969
G1 X118.149 Y21.396 E5.30328
G1 X118.656 Y21.426 E5.32862
G1 X119.157 Y21.483 E5.35377
G1 X119.996 Y21.612 E5.39612
G1 X120.541 Y21.721 E5.42385
G1 X121.824 Y22.087 E5.49041
G1 X122.33 Y22.262 E5.51712
G1 X123.464 Y22.765 E5.57902
G1 X124.374 Y23.254 E5.63056
G1 X125.138 Y23.737 E5.67565
G1 X125.903 Y24.296 E5.72292
G1 X126.728 Y24.996 E5.7769
G1 X127.114 Y25.362 E5.80344
G1 X127.933 Y26.27 E5.86444
G1 X128.572 Y27.095 E5.9165
G1 X128.888 Y27.551 E5.94418
G1 X129.521 Y28.648 E6.00737
G1 X129.926 Y29.485 E6.05376
G1 X130.283 Y30.38 E6.10183
G1 X130.571 Y31.281 E6.14902
G1 X130.8 Y32.214 E6.19695
G1 X130.955 Y33.117 E6.24266
G1 X131.055 Y34.121 E6.293
G1 X131.086 Y35.092 E6.34147
G1 X131.073 Y35.664 E6.37001
G1 X130.943 Y36.91 E6.43251
G1 X130.754 Y37.956 E6.48554
G1 X130.635 Y38.46 E6.51138
G1 X130.242 Y39.671 E6.5749
G1 X129.888 Y40.537 E6.62157
G1 X129.453 Y41.418 E6.67059
G1 X128.981 Y42.226 E6.71728
G1 X128.397 Y43.082 E6.76898
G1 X128.09 Y43.486 E6.79429
G1 X127.165 Y44.516 E6.86336
G1 X126.764 Y44.911 E6.89144
G1 X125.826 Y45.698 E6.95253
G1 X125.043 Y46.262 E7.00067
G1 X124.247 Y46.754 E7.04736
G1 X123.383 Y47.208 E7.09605
G1 X122.526 Y47.585 E7.14276
G1 X121.649 Y47.899 E7.18923
G1 X120.718 Y48.162 E7.2375
G1 X119.687 Y48.376 E7.29003
G1 X118.917 Y48.479 E7.32879
G1 X117.873 Y48.543 E7.38097
G1 X116.922 Y48.541 E7.42842
G1 X116.384 Y48.513 E7.4553
G1 X115.088 Y48.333 E7.52057
G1 X114.053 Y48.109 E7.57341
G1 X113.542 Y47.969 E7.59984
G1 X112.383 Y47.549 E7.66134
G1 X111.511 Y47.158 E7.70902
G1 X110.624 Y46.68 E7.75929
G1 X109.862 Y46.198 E7.80427
G1 X109.095 Y45.637 E7.85168
G1 X108.272 Y44.94 E7.90549
G1 X107.886 Y44.573 E7.93206
G1 X107.083 Y43.684 E7.99183
G1 X106.472 Y42.895 E8.04161
G1 X105.943 Y42.101 E8.08921
G1 X105.49 Y41.309 E8.13473
G1 X105.056 Y40.407 E8.18467
G1 X104.684 Y39.473 E8.23483
G1 X104.503 Y38.935 E8.26315
G1 X104.203 Y37.733 E8.32496
G1 X104.045 Y36.815 E8.37143
G1 X103.945 Y35.821 E8.42127
G1 X103.915 Y34.83 E8.47073
G1 X103.925 Y34.292 E8.49758
G1 X104.056 Y33.032 E8.56078
G1 X104.246 Y31.98 E8.61411
G1 X104.365 Y31.475 E8.64
G0 F3600 X104.826 Y31.318
G1 F1200 X105.13 Y30.409 E8.68782
G1 X105.498 Y29.515 E8.73605
G1 X105.88 Y28.741 E8.77911
G1 X106.371 Y27.901 E8.82765
G1 X106.935 Y27.077 E8.87747
G1 X107.245 Y26.672 E8.90292
G1 X108.129 Y25.691 E8.9688
G1 X108.513 Y25.312 E8.99571
G1 X109.428 Y24.546 E9.05525
G1 X110.188 Y24 E9.10194
G1 X110.96 Y23.523 E9.14721
G1 X111.805 Y23.08 E9.19481
G1 X112.724 Y22.677 E9.24487
G1 X113.192 Y22.501 E9.26982
G1 X114.361 Y22.165 E9.3305
G1 X115.389 Y21.952 E9.38288
G1 X116.102 Y21.855 E9.41878
G1 X117.101 Y21.792 E9.46872
G1 X118.144 Y21.796 E9.52075
G1 X118.78 Y21.839 E9.55256
G1 X119.935 Y22.007 E9.61078
G1 X120.459 Y22.112 E9.63745
G1 X121.711 Y22.471 E9.70243
G1 X122.195 Y22.639 E9.72799
G1 X123.299 Y23.129 E9.78825
G1 X124.181 Y23.605 E9.83825
G1 X124.921 Y24.073 E9.88193
G1 X125.664 Y24.617 E9.92787
G1 X126.467 Y25.299 E9.98043
G1 X126.836 Y25.649 E10.00581
G1 X127.634 Y26.536 E10.06533
G1 X128.253 Y27.337 E10.11584
G1 X128.558 Y27.776 E10.14251
G1 X129.173 Y28.844 E10.20399
G1 X129.564 Y29.656 E10.24896
G1 X129.911 Y30.525 E10.29564
G1 X130.189 Y31.399 E10.3414
G1 X130.41 Y32.306 E10.38797
G1 X130.56 Y33.181 E10.43226
G1 X130.657 Y34.158 E10.48124
G1 X130.686 Y35.101 E10.52831
G1 X130.673 Y35.651 E10.55576
G1 X130.545 Y36.864 E10.61661
G1 X130.361 Y37.881 E10.66817
G1 X130.173 Y38.619 E10.70617
G1 X129.863 Y39.544 E10.75484
G1 X129.519 Y40.381 E10.79999
G1 X129.096 Y41.238 E10.84767
G1 X128.638 Y42.021 E10.89292
G1 X128.069 Y42.853 E10.94321
G1 X127.601 Y43.448 E10.98098
G1 X126.87 Y44.246 E11.03497
G1 X126.487 Y44.623 E11.06178
G1 X125.572 Y45.389 E11.12132
G1 X124.812 Y45.935 E11.168
G1 X124.04 Y46.412 E11.21328
G1 X123.2 Y46.852 E11.26059
G1 X122.368 Y47.217 E11.30591
G1 X121.518 Y47.521 E11.35095
G1 X120.612 Y47.776 E11.39791
G1 X119.609 Y47.984 E11.44901
G1 X118.893 Y48.08 E11.48505
G1 X117.849 Y48.144 E11.53724
G1 X116.927 Y48.141 E11.58323
G1 X116.408 Y48.113 E11.60917
G1 X115.148 Y47.938 E11.67263
G1 X114.142 Y47.719 E11.724
G1 X113.651 Y47.584 E11.7494
G1 X112.523 Y47.174 E11.80928
G1 X111.678 Y46.795 E11.85548
G1 X110.817 Y46.329 E11.90433
G1 X110.079 Y45.862 E11.9479
G1 X109.334 Y45.317 E11.99395
G1 X108.533 Y44.637 E12.04637
G1 X108.164 Y44.286 E12.07178
G1 X107.382 Y43.418 E12.13006
G1 X106.791 Y42.654 E12.17825
G1 X106.278 Y41.882 E12.2245
G1 X105.839 Y41.114 E12.26863
G1 X105.418 Y40.237 E12.31716
G1 X105.056 Y39.328 E12.36598
G1 X104.883 Y38.812 E12.39313
G1 X104.592 Y37.64 E12.45338
G1 X104.44 Y36.751 E12.49837
G1 X104.344 Y35.784 E12.54685
G1 X104.315 Y34.821 E12.59492
G1 X104.325 Y34.303 E12.62077
G1 X104.454 Y33.077 E12.68227
G1 X104.639 Y32.055 E12.73409
G1 X104.826 Y31.318 E12.77202
G1 F1500 E6.27202
;MESH:2020cylinder.stl
G0 F3600 X107.89 Y30.345
G0 X109.062 Y30.867
G0 X118.798 Y25.759
G0 X118.811 Y25.66
;TYPE:WALL-INNER
G1 F1500 E12.77202
G1 F1200 X119.452 Y25.772 E12.80449
G1 X120.081 Y25.928 E12.83682
G1 X120.717 Y26.134 E12.87017
G1 X121.309 Y26.374 E12.90204
G1 X121.924 Y26.674 E12.93618
G1 X122.467 Y26.987 E12.96745
G1 X123.026 Y27.363 E13.00106
G1 X123.534 Y27.759 E13.03319
G1 X124.036 Y28.212 E13.06693
G1 X124.477 Y28.669 E13.09861
G1 X124.896 Y29.168 E13.13112
G1 X125.292 Y29.71 E13.16461
G1 X125.634 Y30.257 E13.19679
G1 X125.951 Y30.853 E13.23047
G1 X126.213 Y31.442 E13.26263
G1 X126.438 Y32.059 E13.2954
G1 X126.62 Y32.696 E13.32845
G1 X126.755 Y33.331 E13.36084
G1 X126.846 Y33.974 E13.39324
G1 X126.893 Y34.635 E13.4263
G1 X126.895 Y35.278 E13.45838
G1 X126.848 Y35.956 E13.49228
G1 X126.759 Y36.591 E13.52427
G1 X126.624 Y37.232 E13.55696
G1 X126.443 Y37.865 E13.5898
G1 X126.22 Y38.479 E13.62239
G1 X125.955 Y39.076 E13.65498
G1 X125.645 Y39.658 E13.68788
G1 X125.293 Y40.223 E13.72109
G1 X124.914 Y40.747 E13.75335
G1 X124.492 Y41.25 E13.78611
G1 X124.036 Y41.724 E13.81892
G1 X123.55 Y42.161 E13.85153
G1 X123.028 Y42.57 E13.88462
G1 X122.491 Y42.933 E13.91695
G1 X121.919 Y43.263 E13.9499
G1 X121.318 Y43.556 E13.98326
G1 X120.715 Y43.799 E14.01569
G1 X120.097 Y44.001 E14.04813
G1 X119.465 Y44.159 E14.08063
G1 X118.813 Y44.274 E14.11366
G1 X118.161 Y44.342 E14.14636
G1 X117.502 Y44.366 E14.17926
G1 X116.847 Y44.344 E14.21196
G1 X116.192 Y44.276 E14.24481
G1 X115.542 Y44.162 E14.27774
G1 X114.913 Y44.006 E14.31007
G1 X114.291 Y43.803 E14.34271
G1 X113.688 Y43.56 E14.37515
G1 X113.087 Y43.267 E14.4085
G1 X112.52 Y42.94 E14.44116
G1 X111.974 Y42.572 E14.47401
G1 X111.463 Y42.173 E14.50635
G1 X110.964 Y41.723 E14.53988
G1 X110.517 Y41.26 E14.57198
G1 X110.102 Y40.765 E14.60421
G1 X109.699 Y40.21 E14.63843
G1 X109.363 Y39.671 E14.67012
G1 X109.049 Y39.082 E14.70342
G1 X108.787 Y38.492 E14.73563
G1 X108.561 Y37.871 E14.76859
G1 X108.38 Y37.239 E14.80139
G1 X108.245 Y36.6 E14.83398
G1 X108.153 Y35.954 E14.86653
G1 X108.107 Y35.292 E14.89964
G1 X108.105 Y34.649 E14.93172
G1 X108.152 Y33.979 E14.96523
G1 X108.241 Y33.344 E14.99722
G1 X108.376 Y32.703 E15.0299
G1 X108.557 Y32.069 E15.06279
G1 X108.782 Y31.449 E15.0957
G1 X109.045 Y30.859 E15.12792
G1 X109.359 Y30.268 E15.16131
G1 X109.706 Y29.713 E15.19397
G1 X110.094 Y29.178 E15.22694
G1 X110.513 Y28.679 E15.25945
G1 X110.964 Y28.211 E15.29187
G1 X111.447 Y27.777 E15.32427
G1 X111.971 Y27.367 E15.35746
G1 X112.534 Y26.987 E15.39135
G1 X113.073 Y26.676 E15.4224
G1 X113.682 Y26.379 E15.4562
G1 X114.285 Y26.135 E15.48865
G1 X114.902 Y25.934 E15.52103
G1 X115.535 Y25.776 E15.55358
G1 X116.187 Y25.661 E15.58661
G1 X116.839 Y25.593 E15.61931
G1 X117.498 Y25.568 E15.65221
G1 X118.152 Y25.591 E15.68486
G1 X118.811 Y25.66 E15.71792
G0 F3600 X118.863 Y25.263
;TYPE:WALL-OUTER
G1 F1200 X119.534 Y25.38 E15.7519
G1 X120.197 Y25.545 E15.78599
G1 X120.852 Y25.757 E15.82033
G1 X121.476 Y26.01 E15.85393
G1 X122.104 Y26.316 E15.88878
G1 X122.684 Y26.651 E15.9222
G1 X123.258 Y27.037 E15.95671
G1 X123.795 Y27.456 E15.99069
G1 X124.31 Y27.92 E16.02527
G1 X124.779 Y28.407 E16.059
G1 X125.215 Y28.926 E16.09282
G1 X125.622 Y29.484 E16.12728
G1 X125.984 Y30.063 E16.16134
G1 X126.309 Y30.675 E16.19592
G1 X126.587 Y31.299 E16.23
G1 X126.821 Y31.942 E16.26413
G1 X127.005 Y32.586 E16.29755
G1 X127.15 Y33.269 E16.33238
G1 X127.244 Y33.932 E16.36579
G1 X127.293 Y34.628 E16.4006
G1 X127.295 Y35.298 E16.43403
G1 X127.246 Y35.995 E16.46889
G1 X127.153 Y36.659 E16.50234
G1 X127.009 Y37.342 E16.53716
G1 X126.825 Y37.986 E16.57058
G1 X126.591 Y38.629 E16.60471
G1 X126.313 Y39.254 E16.63884
G1 X125.988 Y39.864 E16.67332
G1 X125.626 Y40.444 E16.70743
G1 X125.23 Y40.992 E16.74117
G1 X124.785 Y41.522 E16.77569
G1 X124.316 Y42.009 E16.80942
G1 X123.8 Y42.473 E16.84404
G1 X123.263 Y42.893 E16.87806
G1 X122.691 Y43.28 E16.91251
G1 X122.11 Y43.615 E16.94597
G1 X121.482 Y43.921 E16.98082
G1 X120.858 Y44.173 E17.0144
G1 X120.205 Y44.386 E17.04866
G1 X119.545 Y44.551 E17.08261
G1 X118.868 Y44.671 E17.11691
G1 X118.188 Y44.742 E17.15102
G1 X117.503 Y44.766 E17.18521
G1 X116.82 Y44.744 E17.21931
G1 X116.14 Y44.673 E17.25342
G1 X115.463 Y44.554 E17.28771
G1 X114.803 Y44.39 E17.32164
G1 X114.148 Y44.177 E17.356
G1 X113.524 Y43.925 E17.38957
G1 X112.896 Y43.619 E17.42443
G1 X112.315 Y43.284 E17.45789
G1 X111.742 Y42.898 E17.49236
G1 X111.202 Y42.476 E17.52655
G1 X110.69 Y42.015 E17.56092
G1 X110.22 Y41.527 E17.59472
G1 X109.781 Y41.004 E17.62879
G1 X109.374 Y40.444 E17.66333
G1 X109.016 Y39.87 E17.69708
G1 X108.691 Y39.26 E17.73156
G1 X108.416 Y38.642 E17.76531
G1 X108.179 Y37.992 E17.79982
G1 X107.995 Y37.349 E17.83319
G1 X107.85 Y36.666 E17.86802
G1 X107.755 Y35.995 E17.90183
G1 X107.707 Y35.306 E17.93629
G1 X107.705 Y34.636 E17.96972
G1 X107.754 Y33.94 E18.00453
G1 X107.847 Y33.276 E18.03798
G1 X107.991 Y32.593 E18.0728
G1 X108.175 Y31.949 E18.10622
G1 X108.409 Y31.305 E18.1404
G1 X108.687 Y30.681 E18.17448
G1 X109.012 Y30.069 E18.20905
G1 X109.378 Y29.484 E18.24348
G1 X109.77 Y28.943 E18.27681
G1 X110.216 Y28.412 E18.31141
G1 X110.684 Y27.926 E18.34507
G1 X111.2 Y27.462 E18.37969
G1 X111.738 Y27.041 E18.41377
G1 X112.31 Y26.655 E18.4482
G1 X112.89 Y26.32 E18.48162
G1 X113.518 Y26.014 E18.51647
G1 X114.142 Y25.761 E18.55006
G1 X114.795 Y25.549 E18.58431
G1 X115.455 Y25.384 E18.61825
G1 X116.132 Y25.264 E18.65256
G1 X116.812 Y25.193 E18.68667
G1 X117.496 Y25.168 E18.72081
G1 X118.18 Y25.191 E18.75496
G1 X118.863 Y25.263 E18.78922
G0 F3600 X119.06 Y25.297
G0 X118.762 Y26.048
;TYPE:SKIN
G1 F1200 X119.376 Y26.154 E18.82031
G1 X119.967 Y26.301 E18.85069
G1 X120.593 Y26.504 E18.88352
G1 X121.138 Y26.725 E18.91286
G1 X121.741 Y27.019 E18.94633
G1 X122.256 Y27.316 E18.97599
G1 X122.798 Y27.679 E19.00854
G1 X123.294 Y28.067 E19.03996
G1 X123.755 Y28.483 E19.07093
G1 X124.191 Y28.935 E19.10227
G1 X124.59 Y29.409 E19.13318
G1 X124.961 Y29.917 E19.16456
G1 X125.295 Y30.45 E19.19594
G1 X125.6 Y31.024 E19.22837
G1 X125.846 Y31.576 E19.25852
G1 X126.071 Y32.193 E19.29129
G1 X126.238 Y32.778 E19.32164
G1 X126.373 Y33.413 E19.35403
G1 X126.458 Y34.015 E19.38436
G1 X126.503 Y34.649 E19.41607
G1 X126.505 Y35.251 E19.4461
G1 X126.458 Y35.927 E19.47991
G1 X126.377 Y36.511 E19.50932
G1 X126.245 Y37.139 E19.54134
G1 X126.076 Y37.732 E19.5721
G1 X125.859 Y38.329 E19.60379
G1 X125.606 Y38.901 E19.635
G1 X125.306 Y39.464 E19.66682
G1 X124.963 Y40.014 E19.69916
G1 X124.615 Y40.496 E19.72882
G1 X124.201 Y40.989 E19.76094
G1 X123.766 Y41.442 E19.79227
G1 X123.299 Y41.862 E19.82361
G1 X122.799 Y42.254 E19.85531
G1 X122.285 Y42.601 E19.88625
G1 X121.738 Y42.917 E19.91776
G1 X121.158 Y43.2 E19.94996
G1 X120.581 Y43.432 E19.98099
G1 X119.986 Y43.627 E20.01222
G1 X119.387 Y43.777 E20.04303
G1 X118.761 Y43.887 E20.07474
G1 X118.135 Y43.952 E20.10614
G1 X117.502 Y43.976 E20.13774
G1 X116.87 Y43.954 E20.16929
G1 X116.244 Y43.89 E20.20069
G1 X115.616 Y43.78 E20.2325
G1 X115.027 Y43.633 E20.26278
G1 X114.425 Y43.436 E20.29438
G1 X113.848 Y43.204 E20.32541
G1 X113.268 Y42.921 E20.35761
G1 X112.728 Y42.609 E20.38872
G1 X112.201 Y42.254 E20.42042
G1 X111.711 Y41.871 E20.45145
G1 X111.235 Y41.442 E20.48342
G1 X110.803 Y40.994 E20.51447
G1 X110.416 Y40.532 E20.54454
